%
(1001)
(Test program)
(Machine)
(  vendor: Banggood)
(  model: 3018)
(  description: Generic 3-axis)
(T1  D=3.175 CR=0 - ZMIN=-3 - flat end mill)
G90 G94
G17
G21

(2D Pocket4)
M9
T1 M6
S5000 M3
G54
G0 X31.732 Y19.895
Z4
Z3
G1 Z2.5 F1000
Z-2.683 F333.3
X31.74 Y19.918 Z-2.804
X31.752 Y19.986 Z-2.907
X31.751 Y20.037 Z-2.941
X31.743 Y20.088 Z-2.976
X31.722 Y20.145 Z-2.988
X31.691 Y20.197 Z-3
G2 X31.318 Y21.329 I1.532 J1.132 F1000
G1 Y24.514
G2 X33.223 Y26.419 I1.905
G1 X41.708
Y26.889
X28.921
Y10.656
X42.009
Y11.385
X33.223
G2 X31.318 Y13.29 J1.905
G1 Y17.241
G2 X33.223 Y19.146 I1.905
G1 X40.957
Y19.424
X33.223
G2 X31.691 Y20.197 J1.905
X31.685 Y20.502 I0.212 J0.157
G3 X31.724 Y20.805 I-0.281 J0.191
G2 X31.635 Y21.329 I1.499 J0.524
G1 Y24.514
G2 X33.223 Y26.102 I1.587
G1 X42.026
Y27.206
X28.603
Y10.338
X42.327
Y11.702
X33.223
G2 X31.635 Y13.29 J1.587
G1 Y17.241
G2 X33.223 Y18.828 I1.587
G1 X41.274
Y19.741
X33.223
G2 X31.724 Y20.805 J1.587
G1 X31.699 Y20.86 Z-2.988
X31.663 Y20.909 Z-2.976
X31.627 Y20.945 Z-2.941
X31.584 Y20.975 Z-2.907
X31.522 Y21.003 Z-2.804
X31.498 Y21.009 Z-2.683
G0 Z3
X13.445 Y24.981
G1 Z2.5 F333.3
Z-2.683
X13.433 Y24.96 Z-2.804
X13.408 Y24.896 Z-2.907
X13.4 Y24.845 Z-2.941
X13.399 Y24.794 Z-2.976
X13.409 Y24.734 Z-2.988
X13.43 Y24.677 Z-3
G2 X13.622 Y23.844 I-1.713 J-0.833 F1000
G1 Y10.656
X16.005
Y23.844
G2 X17.91 Y25.749 I1.905
G1 X22.322
Y26.889
X7.306
Y25.749
X11.717
G2 X13.43 Y24.677 J-1.905
X13.38 Y24.376 I-0.237 J-0.115
G3 X13.286 Y24.086 I0.241 J-0.239
G1 X13.3 Y23.965
X13.304 Y23.844
Y10.338
X16.323
Y23.844
G2 X17.91 Y25.432 I1.587
G1 X22.639
Y27.206
X6.988
Y25.432
X11.717
G2 X13.286 Y24.086 J-1.588
G1 X13.301 Y24.027 Z-2.988
X13.327 Y23.972 Z-2.976
X13.357 Y23.93 Z-2.941
X13.393 Y23.893 Z-2.907
X13.449 Y23.854 Z-2.804
X13.471 Y23.844 Z-2.683
G0 Z3
X7.027 Y4.374
G1 Z2.5 F333.3
Z-2.683
X7.007 Y4.361 Z-2.804
X6.957 Y4.313 Z-2.907
X6.927 Y4.272 Z-2.941
X6.904 Y4.226 Z-2.976
X6.887 Y4.168 Z-2.988
X6.881 Y4.107 Z-3
Y4.012 F1000
X23.071
Y4.202
X6.881
Y4.107
X6.875 Y4.059
X6.857 Y4.013
X6.829 Y3.974
X6.792 Y3.942
X6.748 Y3.921
X6.713 Y3.901
X6.686 Y3.87
X6.672 Y3.832
X6.671 Y3.792
X6.685 Y3.753
X6.711 Y3.722
X6.746 Y3.702
X6.786 Y3.695
X23.388
Y4.52
X6.563
Y3.695
X6.786
X6.825 Y3.702 Z-2.992
X6.855 Y3.72 Z-2.969
X6.87 Y3.737 Z-2.935
X6.875 Y3.743 Z-2.894
G0 Z3
X62.228 Y16.132
G1 Z2.5 F333.3
Z-2.683
X62.243 Y16.151 Z-2.804
X62.276 Y16.212 Z-2.907
X62.292 Y16.26 Z-2.941
X62.3 Y16.311 Z-2.976
X62.298 Y16.372 Z-2.988
X62.286 Y16.431 Z-3
X62.28 Y16.448 F1000
X62.255 Y16.52
X62.226 Y16.595
X62.193 Y16.675
X62.155 Y16.761
X62.114 Y16.853
X62.069 Y16.948
X62.02 Y17.049
X61.968 Y17.154
X61.93 Y17.23
X61.863 Y17.319
X61.784 Y17.422
X61.709 Y17.519
X61.635 Y17.611
X61.565 Y17.696
X61.497 Y17.776
X61.432 Y17.849
X61.37 Y17.915
X61.31 Y17.976
X61.253 Y18.03
X61.195 Y18.081
X61.133 Y18.132
X61.065 Y18.185
X60.991 Y18.24
X60.91 Y18.296
X60.824 Y18.353
X60.732 Y18.412
X60.634 Y18.472
X60.53 Y18.534
X60.421 Y18.598
X60.307 Y18.663
X60.189 Y18.73
X60.167 Y18.742
X60.042 Y18.793
X59.81 Y18.887
X59.582 Y18.98
X59.355 Y19.07
X59.13 Y19.158
X58.908 Y19.244
X58.687 Y19.326
X58.469 Y19.405
X58.252 Y19.48
X58.037 Y19.552
X57.82 Y19.621
X57.601 Y19.687
X57.38 Y19.751
X57.155 Y19.813
X56.928 Y19.873
X56.699 Y19.932
X56.467 Y19.989
X56.232 Y20.045
X55.995 Y20.1
X55.755 Y20.155
X55.514 Y20.209
X55.271 Y20.262
X55.025 Y20.316
X54.796 Y20.365
X54.725 Y20.379
X54.629 Y20.398
X54.531 Y20.417
X54.521 Y20.419
X54.43 Y20.438
X54.417 Y20.441
X54.326 Y20.46
X54.309 Y20.464
X54.218 Y20.484
X54.199 Y20.489
X54.109 Y20.51
X54.085 Y20.515
X53.996 Y20.537
X53.968 Y20.544
X53.879 Y20.568
X53.849 Y20.576
X53.76 Y20.601
X53.727 Y20.611
X53.638 Y20.637
X53.602 Y20.648
X53.514 Y20.677
X53.474 Y20.69
X53.387 Y20.72
X53.346 Y20.735
X53.26 Y20.767
X53.214 Y20.785
X53.129 Y20.819
X53.081 Y20.839
X52.997 Y20.876
X52.955 Y20.895
X52.871 Y20.933
X52.836 Y20.95
X52.753 Y20.991
X52.721 Y21.007
X52.639 Y21.049
X52.612 Y21.063
X52.53 Y21.106
X52.512 Y21.116
X52.431 Y21.16
X52.415 Y21.169
X52.334 Y21.214
X52.324 Y21.22
X52.243 Y21.266
X52.158 Y21.314
G2 X51.782 Y21.596 I0.943 J1.655
G1 X51.751 Y21.626
X51.715 Y21.66
X51.702 Y21.673
X51.672 Y21.703
X51.658 Y21.716
X51.628 Y21.747
X51.604 Y21.772
X51.574 Y21.802
X51.548 Y21.83
X51.519 Y21.861
X51.489 Y21.896
X51.461 Y21.927
X51.423 Y21.972
X51.397 Y22.004
X51.357 Y22.054
X51.332 Y22.087
X51.289 Y22.144
X51.265 Y22.178
X51.216 Y22.252
X51.194 Y22.286
X51.145 Y22.366
X51.125 Y22.402
X51.076 Y22.492
X51.058 Y22.528
X51.014 Y22.621
X50.998 Y22.659
X50.96 Y22.75
X50.946 Y22.788
X50.918 Y22.866
X50.906 Y22.905
X50.883 Y22.979
X50.872 Y23.018
X50.855 Y23.082
X50.845 Y23.122
X50.832 Y23.175
X50.824 Y23.216
X50.815 Y23.259
X50.807 Y23.3
X50.8 Y23.339
X50.792 Y23.381
X50.789 Y23.404
X50.782 Y23.446
X50.779 Y23.465
X50.773 Y23.507
X50.766 Y23.554
G2 X50.759 Y24.054 I1.885 J0.276
G1 X50.765 Y24.108
X50.766 Y24.119
X50.773 Y24.173
X50.775 Y24.187
X50.782 Y24.241
X50.786 Y24.268
X50.793 Y24.321
X50.798 Y24.354
X50.807 Y24.407
X50.815 Y24.453
X50.825 Y24.505
X50.836 Y24.557
X50.847 Y24.609
X50.861 Y24.67
X50.874 Y24.721
X50.894 Y24.794
X50.909 Y24.844
X50.933 Y24.921
X50.95 Y24.97
X50.983 Y25.061
X51.002 Y25.109
X51.043 Y25.202
X51.064 Y25.249
X51.112 Y25.345
X51.136 Y25.391
X51.185 Y25.477
X51.211 Y25.521
X51.261 Y25.599
X51.29 Y25.643
X51.335 Y25.707
X51.366 Y25.75
X51.407 Y25.804
X51.44 Y25.846
X51.476 Y25.891
X51.51 Y25.931
X51.546 Y25.972
X51.581 Y26.013
X51.609 Y26.043
X51.645 Y26.082
X51.668 Y26.106
X51.705 Y26.146
X51.721 Y26.162
X51.759 Y26.201
X51.773 Y26.215
X51.812 Y26.253
X51.856 Y26.297
G2 X52.214 Y26.576 I1.342 J-1.352
G1 X52.276 Y26.614
X52.285 Y26.619
X52.347 Y26.656
X52.359 Y26.663
X52.422 Y26.7
X52.441 Y26.711
X52.504 Y26.747
X52.53 Y26.762
X52.593 Y26.796
X52.626 Y26.814
X52.689 Y26.847
X52.73 Y26.868
X52.794 Y26.9
X52.842 Y26.922
X52.907 Y26.952
X52.965 Y26.978
X53.031 Y27.005
X53.093 Y27.03
X53.159 Y27.055
X53.233 Y27.081
X53.3 Y27.103
X53.364 Y27.124
X53.215 Y27.103
X53.054 Y27.077
X52.894 Y27.047
X52.732 Y27.013
X52.567 Y26.975
X52.397 Y26.932
X52.223 Y26.885
X52.045 Y26.834
X51.864 Y26.78
X51.679 Y26.723
X51.489 Y26.663
X51.295 Y26.601
X51.232 Y26.58
X51.104 Y26.516
X50.985 Y26.456
X50.871 Y26.397
X50.763 Y26.339
X50.661 Y26.283
X50.566 Y26.229
X50.477 Y26.175
X50.394 Y26.123
X50.318 Y26.072
X50.249 Y26.022
X50.186 Y25.974
X50.127 Y25.926
X50.067 Y25.873
X50.005 Y25.814
X49.939 Y25.749
X49.871 Y25.677
X49.799 Y25.599
X49.725 Y25.514
X49.648 Y25.423
X49.567 Y25.326
X49.484 Y25.223
X49.402 Y25.121
X49.353 Y25.033
X49.296 Y24.932
X49.244 Y24.835
X49.195 Y24.742
X49.15 Y24.655
X49.11 Y24.572
X49.074 Y24.494
X49.043 Y24.421
X49.015 Y24.354
X48.993 Y24.292
X48.974 Y24.233
X48.957 Y24.175
X48.941 Y24.113
X48.926 Y24.043
X48.911 Y23.967
X48.897 Y23.884
X48.885 Y23.794
X48.873 Y23.697
X48.862 Y23.595
X48.851 Y23.485
X48.841 Y23.37
X48.834 Y23.287
X48.836 Y23.271
X48.853 Y23.097
X48.871 Y22.933
X48.89 Y22.777
X48.911 Y22.631
X48.933 Y22.496
X48.956 Y22.372
X48.982 Y22.259
X49.008 Y22.157
X49.036 Y22.067
X49.064 Y21.988
X49.093 Y21.919
X49.125 Y21.852
X49.165 Y21.78
X49.214 Y21.701
X49.272 Y21.614
X49.34 Y21.521
X49.418 Y21.422
X49.504 Y21.317
X49.6 Y21.205
X49.704 Y21.088
X49.816 Y20.967
X49.907 Y20.869
X49.938 Y20.849
X50.154 Y20.708
X50.366 Y20.571
X50.574 Y20.439
X50.779 Y20.313
X50.981 Y20.193
X51.179 Y20.079
X51.373 Y19.972
X51.565 Y19.873
X51.755 Y19.781
X51.945 Y19.695
X52.14 Y19.614
X52.341 Y19.536
X52.549 Y19.461
X52.762 Y19.389
X52.981 Y19.32
X53.205 Y19.253
X53.436 Y19.188
X53.671 Y19.125
X53.911 Y19.064
X54.156 Y19.003
X54.406 Y18.943
X54.66 Y18.883
X54.893 Y18.828
X55.009 Y18.804
X55.153 Y18.774
X55.298 Y18.743
X55.447 Y18.71
X55.461 Y18.707
X55.6 Y18.676
X55.617 Y18.672
X55.755 Y18.639
X55.773 Y18.635
X55.911 Y18.601
X55.936 Y18.595
X56.073 Y18.559
X56.098 Y18.552
X56.235 Y18.515
X56.264 Y18.507
X56.399 Y18.467
X56.433 Y18.457
X56.568 Y18.415
X56.605 Y18.403
X56.739 Y18.358
X56.775 Y18.345
X56.908 Y18.298
X56.951 Y18.282
X57.082 Y18.232
X57.126 Y18.214
X57.256 Y18.16
X57.303 Y18.14
X57.432 Y18.083
X57.472 Y18.064
X57.599 Y18.004
X57.635 Y17.987
X57.761 Y17.924
X57.791 Y17.908
X57.917 Y17.843
X57.942 Y17.829
X58.067 Y17.762
X58.085 Y17.752
X58.209 Y17.683
X58.225 Y17.674
X58.348 Y17.604
X58.358 Y17.599
X58.481 Y17.528
X58.608 Y17.454
G2 X59.022 Y17.131 I-0.954 J-1.649
G1 X59.07 Y17.082
X59.123 Y17.027
X59.132 Y17.017
X59.179 Y16.968
X59.196 Y16.95
X59.241 Y16.9
X59.262 Y16.878
X59.307 Y16.828
X59.331 Y16.8
X59.375 Y16.749
X59.407 Y16.711
X59.449 Y16.66
X59.484 Y16.615
X59.524 Y16.563
X59.561 Y16.513
X59.599 Y16.46
X59.642 Y16.397
X59.678 Y16.343
X59.722 Y16.273
X59.755 Y16.217
X59.8 Y16.139
X59.83 Y16.082
X59.877 Y15.989
X59.904 Y15.93
X59.944 Y15.84
X59.968 Y15.78
X60 Y15.695
X60.022 Y15.634
X60.048 Y15.555
X60.067 Y15.493
X60.086 Y15.422
X60.103 Y15.359
X60.117 Y15.3
X60.132 Y15.236
X60.143 Y15.185
X60.156 Y15.12
X60.165 Y15.074
X60.176 Y15.008
X60.181 Y14.979
X60.192 Y14.912
X60.196 Y14.885
X60.206 Y14.818
X60.208 Y14.8
X60.217 Y14.733
X60.227 Y14.657
G2 Y14.166 I-1.889 J-0.246
G1 X60.218 Y14.096
X60.208 Y14.017
X60.206 Y14.003
X60.196 Y13.933
X60.192 Y13.905
X60.181 Y13.836
X60.175 Y13.801
X60.163 Y13.732
X60.155 Y13.69
X60.141 Y13.621
X60.13 Y13.571
X60.115 Y13.504
X60.1 Y13.441
X60.082 Y13.374
X60.063 Y13.306
X60.043 Y13.241
X60.017 Y13.162
X59.994 Y13.098
X59.961 Y13.01
X59.935 Y12.948
X59.894 Y12.854
X59.865 Y12.793
X59.818 Y12.701
X59.786 Y12.642
X59.738 Y12.559
X59.703 Y12.502
X59.658 Y12.431
X59.62 Y12.375
X59.575 Y12.311
X59.535 Y12.256
X59.497 Y12.205
X59.454 Y12.151
X59.418 Y12.106
X59.373 Y12.053
X59.341 Y12.015
X59.295 Y11.963
X59.269 Y11.934
X59.221 Y11.882
X59.199 Y11.858
X59.15 Y11.807
X59.135 Y11.792
X59.086 Y11.741
X59.074 Y11.729
X59.024 Y11.678
X58.967 Y11.621
G2 X58.65 Y11.366 I-1.347 J1.347
G1 X58.573 Y11.316
X58.487 Y11.261
X58.476 Y11.255
X58.398 Y11.206
X58.378 Y11.193
X58.3 Y11.146
X58.275 Y11.131
X58.196 Y11.084
X58.162 Y11.065
X58.083 Y11.021
X58.043 Y10.999
X57.963 Y10.956
X57.915 Y10.932
X57.834 Y10.892
X57.778 Y10.865
X57.696 Y10.828
X57.63 Y10.8
X57.547 Y10.766
X57.475 Y10.738
X57.391 Y10.708
X57.31 Y10.681
X57.225 Y10.654
X57.148 Y10.632
X57.061 Y10.609
X56.994 Y10.592
X56.906 Y10.572
X56.839 Y10.558
X56.751 Y10.542
X56.697 Y10.532
X56.608 Y10.518
X56.554 Y10.51
X56.464 Y10.498
X56.421 Y10.493
X56.331 Y10.484
X56.294 Y10.48
X56.203 Y10.472
X56.169 Y10.469
X56.078 Y10.463
X56.055 Y10.461
X55.963 Y10.456
X55.944 Y10.455
X55.852 Y10.451
X55.839 Y10.45
X55.747 Y10.446
X55.649 Y10.443
X55.539 Y10.442
X55.43 Y10.447
X55.298 Y10.457
X55.158 Y10.468
X55.14 Y10.47
X55.009 Y10.482
X54.985 Y10.484
X54.854 Y10.498
X54.822 Y10.501
X54.692 Y10.517
X54.648 Y10.523
X54.519 Y10.541
X54.47 Y10.549
X54.343 Y10.571
X54.282 Y10.582
X54.157 Y10.607
X54.088 Y10.623
X53.965 Y10.653
X53.887 Y10.673
X53.766 Y10.708
X53.68 Y10.735
X53.561 Y10.776
X53.466 Y10.811
X53.35 Y10.857
X53.248 Y10.902
X53.135 Y10.955
X53.039 Y11.004
X52.929 Y11.063
X52.843 Y11.113
X52.736 Y11.178
X52.661 Y11.226
X52.556 Y11.297
X52.494 Y11.342
X52.391 Y11.417
X52.339 Y11.457
X52.238 Y11.537
X52.194 Y11.573
X52.095 Y11.657
X52.06 Y11.686
X51.963 Y11.773
X51.935 Y11.797
X51.839 Y11.886
X51.82 Y11.904
X51.724 Y11.994
X51.711 Y12.007
X51.615 Y12.099
X51.514 Y12.197
G2 X51.211 Y12.578 I1.328 J1.366
G1 X51.16 Y12.663
X51.108 Y12.75
X51.101 Y12.761
X51.051 Y12.846
X51.042 Y12.861
X50.993 Y12.946
X50.983 Y12.964
X50.934 Y13.049
X50.921 Y13.074
X50.874 Y13.16
X50.857 Y13.192
X50.812 Y13.278
X50.793 Y13.315
X50.75 Y13.402
X50.73 Y13.443
X50.689 Y13.531
X50.668 Y13.579
X50.63 Y13.668
X50.608 Y13.72
X50.596 Y13.75
X48.502 Y13.619
X48.517 Y13.579
X48.573 Y13.443
X48.635 Y13.311
X48.705 Y13.177
X48.784 Y13.038
X48.872 Y12.895
X48.97 Y12.748
X49.076 Y12.595
X49.191 Y12.439
X49.314 Y12.277
X49.444 Y12.112
X49.58 Y11.942
X49.679 Y11.821
X49.943 Y11.654
X50.194 Y11.499
X50.438 Y11.352
X50.676 Y11.215
X50.908 Y11.089
X51.133 Y10.974
X51.352 Y10.871
X51.565 Y10.781
X51.773 Y10.703
X51.981 Y10.636
X52.198 Y10.576
X52.424 Y10.524
X52.66 Y10.479
X52.906 Y10.441
X53.161 Y10.408
X53.426 Y10.382
X53.699 Y10.361
X53.98 Y10.346
X54.269 Y10.334
X54.566 Y10.326
X54.87 Y10.32
X55.181 Y10.316
X55.466 Y10.314
X55.639 Y10.318
X55.84 Y10.323
X56.037 Y10.329
X56.231 Y10.336
X56.42 Y10.345
X56.605 Y10.355
X56.786 Y10.366
X56.963 Y10.38
X57.135 Y10.397
X57.303 Y10.415
X57.467 Y10.437
X57.626 Y10.462
X57.781 Y10.489
X57.936 Y10.521
X58.094 Y10.557
X58.256 Y10.598
X58.421 Y10.643
X58.591 Y10.692
X58.764 Y10.745
X58.942 Y10.801
X59.123 Y10.86
X59.308 Y10.922
X59.497 Y10.986
X59.559 Y11.007
X59.58 Y11.018
X59.72 Y11.09
X59.853 Y11.16
X59.981 Y11.229
X60.103 Y11.296
X60.219 Y11.362
X60.328 Y11.427
X60.43 Y11.49
X60.525 Y11.553
X60.613 Y11.614
X60.694 Y11.674
X60.769 Y11.734
X60.841 Y11.795
X60.913 Y11.861
X60.988 Y11.935
X61.067 Y12.015
X61.147 Y12.103
X61.229 Y12.196
X61.315 Y12.296
X61.402 Y12.403
X61.493 Y12.515
X61.586 Y12.633
X61.682 Y12.756
X61.695 Y12.772
X61.702 Y12.785
X61.775 Y12.916
X61.844 Y13.042
X61.909 Y13.163
X61.97 Y13.281
X62.027 Y13.393
X62.078 Y13.5
X62.125 Y13.602
X62.167 Y13.7
X62.203 Y13.793
X62.234 Y13.879
X62.261 Y13.963
X62.285 Y14.048
X62.307 Y14.137
X62.327 Y14.234
X62.346 Y14.339
X62.364 Y14.45
X62.38 Y14.567
X62.394 Y14.691
X62.407 Y14.823
X62.42 Y14.96
X62.431 Y15.104
X62.442 Y15.253
X62.445 Y15.284
X62.437 Y15.41
X62.429 Y15.527
X62.42 Y15.638
X62.411 Y15.745
X62.401 Y15.845
X62.39 Y15.939
X62.378 Y16.028
X62.365 Y16.109
X62.351 Y16.185
X62.335 Y16.255
X62.319 Y16.319
X62.302 Y16.381
X62.286 Y16.431
X62.262 Y16.487 Z-2.988
X62.227 Y16.537 Z-2.976
X62.191 Y16.574 Z-2.941
X62.15 Y16.604 Z-2.907
X62.088 Y16.634 Z-2.804
X62.065 Y16.641 Z-2.683
G0 Z3
X58.987 Y25.476
G1 Z2.5 F333.3
Z-2.683
X58.978 Y25.453 Z-2.804
X58.961 Y25.386 Z-2.907
X58.959 Y25.335 Z-2.941
X58.964 Y25.284 Z-2.976
X58.982 Y25.226 Z-2.988
X59.01 Y25.172 Z-3
X59.033 Y25.135 F1000
X59.082 Y25.057
X59.123 Y24.987
X59.167 Y24.907
X59.206 Y24.834
X59.22 Y24.807
X61.243 Y24.925
X61.237 Y24.935
X61.175 Y25.036
X61.103 Y25.141
X61.02 Y25.252
X60.925 Y25.369
X60.82 Y25.491
X60.703 Y25.618
X60.577 Y25.75
X60.441 Y25.887
X60.296 Y26.029
X60.183 Y26.137
X59.983 Y26.239
X59.768 Y26.347
X59.558 Y26.449
X59.354 Y26.544
X59.156 Y26.633
X58.962 Y26.715
X58.774 Y26.789
X58.591 Y26.856
X58.414 Y26.913
X58.239 Y26.963
X58.061 Y27.007
X57.876 Y27.046
X57.684 Y27.08
X57.484 Y27.11
X57.278 Y27.136
X57.065 Y27.157
X56.844 Y27.175
X56.618 Y27.189
X56.385 Y27.201
X56.146 Y27.211
X55.939 Y27.217
X56.002 Y27.206
X56.091 Y27.189
X56.152 Y27.177
X56.239 Y27.157
X56.31 Y27.14
X56.397 Y27.117
X56.469 Y27.096
X56.555 Y27.07
X56.634 Y27.044
X56.718 Y27.014
X56.789 Y26.987
X56.872 Y26.954
X56.934 Y26.928
X57.016 Y26.891
X57.071 Y26.866
X57.153 Y26.827
X57.2 Y26.803
X57.28 Y26.762
X57.32 Y26.741
X57.4 Y26.697
X57.431 Y26.68
X57.51 Y26.635
X57.536 Y26.62
X57.615 Y26.573
X57.634 Y26.561
X57.713 Y26.514
X57.725 Y26.506
X57.803 Y26.458
X57.889 Y26.405
G2 X58.296 Y26.065 I-1.007 J-1.617
G1 X58.359 Y25.994
X58.427 Y25.918
X58.438 Y25.907
X58.5 Y25.836
X58.515 Y25.819
X58.576 Y25.748
X58.596 Y25.724
X58.656 Y25.652
X58.679 Y25.624
X58.738 Y25.551
X58.767 Y25.513
X58.823 Y25.439
X58.854 Y25.397
X58.908 Y25.322
X58.945 Y25.269
X58.996 Y25.193
X59.01 Y25.172
G2 X59.002 Y24.878 I-0.218 J-0.142
G3 X58.976 Y24.584 I0.233 J-0.169
G1 X58.992 Y24.551
X59.025 Y24.477
X61.723 Y24.635
X61.691 Y24.722
X61.634 Y24.855
X61.575 Y24.979
X61.512 Y25.094
X61.442 Y25.209
X61.362 Y25.326
X61.271 Y25.448
X61.169 Y25.573
X61.057 Y25.703
X60.935 Y25.835
X60.804 Y25.972
X60.664 Y26.112
X60.517 Y26.257
X60.369 Y26.399
X60.348 Y26.41
X60.126 Y26.523
X59.908 Y26.631
X59.695 Y26.735
X59.487 Y26.833
X59.282 Y26.924
X59.082 Y27.009
X58.886 Y27.086
X58.694 Y27.156
X58.507 Y27.217
X58.321 Y27.27
X58.132 Y27.317
X57.937 Y27.358
X57.735 Y27.394
X57.527 Y27.425
X57.313 Y27.451
X57.093 Y27.473
X56.867 Y27.492
X56.636 Y27.506
X56.399 Y27.518
X56.157 Y27.528
X55.91 Y27.536
X55.658 Y27.542
X55.433 Y27.548
X55.255 Y27.545
X55.049 Y27.541
X54.846 Y27.537
X54.646 Y27.532
X54.449 Y27.525
X54.256 Y27.517
X54.066 Y27.507
X53.88 Y27.494
X53.696 Y27.479
X53.517 Y27.462
X53.341 Y27.441
X53.168 Y27.417
X52.999 Y27.39
X52.832 Y27.359
X52.663 Y27.323
X52.492 Y27.283
X52.317 Y27.239
X52.138 Y27.191
X51.957 Y27.139
X51.772 Y27.084
X51.584 Y27.026
X51.393 Y26.966
X51.198 Y26.903
X51.112 Y26.875
X51.087 Y26.863
X50.961 Y26.8
X50.84 Y26.738
X50.723 Y26.678
X50.612 Y26.619
X50.505 Y26.56
X50.405 Y26.502
X50.31 Y26.445
X50.221 Y26.389
X50.138 Y26.333
X50.06 Y26.278
X49.988 Y26.223
X49.921 Y26.168
X49.853 Y26.108
X49.784 Y26.042
X49.712 Y25.971
X49.638 Y25.893
X49.563 Y25.81
X49.484 Y25.721
X49.404 Y25.627
X49.322 Y25.527
X49.237 Y25.422
X49.15 Y25.314
X49.138 Y25.298
X49.076 Y25.188
X49.018 Y25.084
X48.964 Y24.985
X48.913 Y24.888
X48.866 Y24.796
X48.823 Y24.708
X48.784 Y24.624
X48.75 Y24.544
X48.719 Y24.467
X48.693 Y24.396
X48.67 Y24.327
X48.65 Y24.258
X48.632 Y24.185
X48.615 Y24.107
X48.598 Y24.022
X48.584 Y23.932
X48.57 Y23.836
X48.557 Y23.734
X48.546 Y23.627
X48.535 Y23.514
X48.525 Y23.397
X48.516 Y23.284
X48.52 Y23.24
X48.538 Y23.064
X48.556 Y22.896
X48.576 Y22.736
X48.597 Y22.584
X48.62 Y22.44
X48.645 Y22.307
X48.673 Y22.184
X48.703 Y22.07
X48.735 Y21.967
X48.768 Y21.873
X48.803 Y21.789
X48.843 Y21.706
X48.891 Y21.62
X48.947 Y21.529
X49.012 Y21.432
X49.087 Y21.33
X49.17 Y21.223
X49.261 Y21.112
X49.361 Y20.996
X49.469 Y20.875
X49.583 Y20.751
X49.701 Y20.625
X49.764 Y20.583
X49.981 Y20.441
X50.195 Y20.303
X50.406 Y20.17
X50.614 Y20.042
X50.82 Y19.919
X51.023 Y19.802
X51.224 Y19.692
X51.423 Y19.589
X51.62 Y19.493
X51.819 Y19.404
X52.021 Y19.319
X52.23 Y19.238
X52.444 Y19.161
X52.663 Y19.087
X52.888 Y19.016
X53.117 Y18.948
X53.352 Y18.882
X53.59 Y18.818
X53.833 Y18.756
X54.081 Y18.694
X54.332 Y18.634
X54.587 Y18.573
X54.825 Y18.518
X54.945 Y18.493
X55.088 Y18.463
X55.232 Y18.432
X55.38 Y18.4
X55.391 Y18.397
X55.53 Y18.366
X55.544 Y18.363
X55.682 Y18.33
X55.697 Y18.327
X55.835 Y18.293
X55.856 Y18.287
X55.993 Y18.252
X56.014 Y18.246
X56.151 Y18.209
X56.175 Y18.202
X56.311 Y18.162
X56.338 Y18.154
X56.473 Y18.112
X56.504 Y18.102
X56.638 Y18.057
X56.668 Y18.046
X56.801 Y17.999
X56.837 Y17.986
X56.968 Y17.935
X57.005 Y17.921
X57.135 Y17.867
X57.174 Y17.85
X57.302 Y17.793
X57.336 Y17.777
X57.463 Y17.717
X57.493 Y17.703
X57.62 Y17.64
X57.645 Y17.627
X57.77 Y17.561
X57.791 Y17.55
X57.916 Y17.483
X57.931 Y17.474
X58.055 Y17.405
X58.068 Y17.398
X58.192 Y17.328
X58.323 Y17.253
X58.449 Y17.179
G2 X58.794 Y16.91 I-0.795 J-1.374
G1 X58.842 Y16.861
X58.894 Y16.807
X58.902 Y16.799
X58.949 Y16.749
X58.962 Y16.735
X59.008 Y16.685
X59.025 Y16.666
X59.07 Y16.616
X59.09 Y16.593
X59.134 Y16.542
X59.161 Y16.51
X59.203 Y16.459
X59.232 Y16.422
X59.272 Y16.369
X59.303 Y16.328
X59.341 Y16.275
X59.377 Y16.223
X59.413 Y16.168
X59.449 Y16.11
X59.483 Y16.054
X59.52 Y15.989
X59.551 Y15.932
X59.589 Y15.854
X59.617 Y15.796
X59.65 Y15.721
X59.674 Y15.66
X59.701 Y15.59
X59.722 Y15.529
X59.744 Y15.463
X59.763 Y15.4
X59.779 Y15.342
X59.796 Y15.278
X59.808 Y15.23
X59.823 Y15.165
X59.832 Y15.123
X59.845 Y15.057
X59.852 Y15.019
X59.864 Y14.953
X59.868 Y14.929
X59.878 Y14.862
X59.882 Y14.84
X59.891 Y14.773
X59.893 Y14.758
X59.903 Y14.691
X59.912 Y14.616
G2 Y14.207 I-1.574 J-0.205
G1 X59.903 Y14.136
X59.893 Y14.059
X59.891 Y14.048
X59.881 Y13.978
X59.878 Y13.954
X59.867 Y13.885
X59.862 Y13.856
X59.85 Y13.787
X59.843 Y13.752
X59.83 Y13.684
X59.821 Y13.642
X59.806 Y13.574
X59.793 Y13.522
X59.775 Y13.455
X59.759 Y13.399
X59.739 Y13.334
X59.717 Y13.267
X59.695 Y13.204
X59.667 Y13.13
X59.641 Y13.068
X59.607 Y12.99
X59.578 Y12.929
X59.539 Y12.853
X59.507 Y12.794
X59.467 Y12.725
X59.432 Y12.667
X59.395 Y12.608
X59.357 Y12.552
X59.319 Y12.498
X59.279 Y12.443
X59.247 Y12.401
X59.205 Y12.347
X59.174 Y12.309
X59.13 Y12.256
X59.103 Y12.225
X59.056 Y12.173
X59.035 Y12.148
X58.987 Y12.097
X58.969 Y12.077
X58.92 Y12.026
X58.908 Y12.013
X58.859 Y11.962
X58.849 Y11.952
X58.799 Y11.902
X58.743 Y11.846
G2 X58.478 Y11.633 I-1.123 J1.123
G1 X58.401 Y11.583
X58.316 Y11.529
X58.308 Y11.524
X58.23 Y11.475
X58.213 Y11.465
X58.135 Y11.417
X58.114 Y11.404
X58.035 Y11.358
X58.007 Y11.342
X57.928 Y11.298
X57.894 Y11.279
X57.814 Y11.237
X57.774 Y11.217
X57.694 Y11.177
X57.646 Y11.154
X57.565 Y11.117
X57.51 Y11.094
X57.427 Y11.06
X57.367 Y11.037
X57.283 Y11.006
X57.215 Y10.984
X57.13 Y10.957
X57.066 Y10.939
X56.98 Y10.916
X56.923 Y10.902
X56.836 Y10.882
X56.78 Y10.87
X56.692 Y10.854
X56.647 Y10.846
X56.558 Y10.831
X56.513 Y10.825
X56.423 Y10.813
X56.387 Y10.809
X56.297 Y10.799
X56.266 Y10.796
X56.175 Y10.788
X56.147 Y10.786
X56.056 Y10.78
X56.036 Y10.778
X55.945 Y10.773
X55.929 Y10.772
X55.837 Y10.768
X55.826 Y10.767
X55.734 Y10.764
X55.636 Y10.76
X55.545 Y10.759
X55.454 Y10.763
X55.322 Y10.774
X55.184 Y10.785
X55.169 Y10.786
X55.037 Y10.798
X55.017 Y10.8
X54.886 Y10.813
X54.86 Y10.816
X54.73 Y10.832
X54.693 Y10.837
X54.565 Y10.855
X54.524 Y10.862
X54.396 Y10.884
X54.346 Y10.893
X54.22 Y10.919
X54.163 Y10.931
X54.04 Y10.961
X53.975 Y10.979
X53.854 Y11.013
X53.782 Y11.036
X53.663 Y11.076
X53.584 Y11.106
X53.469 Y11.152
X53.383 Y11.189
X53.27 Y11.242
X53.19 Y11.283
X53.08 Y11.342
X53.008 Y11.384
X52.901 Y11.449
X52.839 Y11.489
X52.734 Y11.56
X52.682 Y11.597
X52.58 Y11.673
X52.536 Y11.706
X52.435 Y11.786
X52.398 Y11.816
X52.299 Y11.899
X52.271 Y11.924
X52.173 Y12.011
X52.15 Y12.031
X52.054 Y12.12
X52.038 Y12.135
X51.942 Y12.225
X51.931 Y12.236
X51.836 Y12.327
X51.735 Y12.425
G2 X51.483 Y12.743 I1.107 J1.138
G1 X51.432 Y12.827
X51.38 Y12.914
X51.374 Y12.923
X51.324 Y13.007
X51.317 Y13.02
X51.268 Y13.105
X51.259 Y13.12
X51.211 Y13.206
X51.199 Y13.226
X51.152 Y13.312
X51.138 Y13.338
X51.093 Y13.425
X51.078 Y13.455
X51.035 Y13.543
X51.018 Y13.577
X50.977 Y13.665
X50.96 Y13.705
X50.921 Y13.793
X50.903 Y13.838
X50.867 Y13.928
X50.849 Y13.976
X50.816 Y14.067
X50.811 Y14.082
X48.073 Y13.91
X48.109 Y13.787
X48.163 Y13.621
X48.221 Y13.464
X48.283 Y13.315
X48.35 Y13.17
X48.426 Y13.025
X48.511 Y12.876
X48.604 Y12.725
X48.707 Y12.569
X48.818 Y12.411
X48.936 Y12.249
X49.062 Y12.083
X49.195 Y11.914
X49.333 Y11.742
X49.465 Y11.58
X49.516 Y11.548
X49.775 Y11.385
X50.029 Y11.228
X50.277 Y11.079
X50.521 Y10.938
X50.76 Y10.808
X50.994 Y10.689
X51.223 Y10.581
X51.447 Y10.486
X51.668 Y10.403
X51.891 Y10.331
X52.12 Y10.268
X52.359 Y10.214
X52.606 Y10.166
X52.862 Y10.126
X53.126 Y10.093
X53.398 Y10.066
X53.678 Y10.045
X53.965 Y10.028
X54.259 Y10.017
X54.559 Y10.008
X54.865 Y10.003
X55.177 Y9.999
X55.468 Y9.996
X55.647 Y10.001
X55.849 Y10.006
X56.048 Y10.012
X56.243 Y10.019
X56.435 Y10.027
X56.624 Y10.038
X56.809 Y10.05
X56.99 Y10.064
X57.168 Y10.081
X57.342 Y10.1
X57.512 Y10.123
X57.678 Y10.148
X57.841 Y10.178
X58.003 Y10.211
X58.168 Y10.249
X58.336 Y10.291
X58.507 Y10.337
X58.681 Y10.388
X58.858 Y10.441
X59.039 Y10.498
X59.223 Y10.558
X59.409 Y10.621
X59.6 Y10.686
X59.684 Y10.714
X59.726 Y10.736
X59.866 Y10.809
X60.002 Y10.88
X60.133 Y10.95
X60.258 Y11.019
X60.379 Y11.088
X60.493 Y11.156
X60.601 Y11.223
X60.703 Y11.29
X60.798 Y11.356
X60.887 Y11.422
X60.971 Y11.489
X61.051 Y11.557
X61.131 Y11.631
X61.213 Y11.711
X61.297 Y11.797
X61.383 Y11.89
X61.469 Y11.988
X61.558 Y12.092
X61.649 Y12.202
X61.741 Y12.317
X61.836 Y12.437
X61.933 Y12.561
X61.96 Y12.597
X61.979 Y12.63
X62.053 Y12.762
X62.123 Y12.89
X62.19 Y13.015
X62.253 Y13.136
X62.312 Y13.253
X62.366 Y13.365
X62.415 Y13.474
X62.46 Y13.58
X62.5 Y13.681
X62.535 Y13.778
X62.565 Y13.872
X62.592 Y13.967
X62.616 Y14.067
X62.639 Y14.173
X62.659 Y14.285
X62.678 Y14.404
X62.695 Y14.528
X62.71 Y14.657
X62.723 Y14.792
X62.736 Y14.933
X62.748 Y15.079
X62.759 Y15.23
X62.763 Y15.282
X62.761 Y15.307
X62.754 Y15.43
X62.746 Y15.55
X62.737 Y15.664
X62.727 Y15.775
X62.717 Y15.879
X62.705 Y15.979
X62.692 Y16.075
X62.678 Y16.163
X62.662 Y16.248
X62.645 Y16.327
X62.626 Y16.401
X62.605 Y16.473
X62.581 Y16.549
X62.553 Y16.629
X62.521 Y16.712
X62.485 Y16.799
X62.446 Y16.891
X62.402 Y16.987
X62.355 Y17.086
X62.305 Y17.189
X62.252 Y17.296
X62.201 Y17.398
X62.116 Y17.511
X62.036 Y17.616
X61.958 Y17.715
X61.882 Y17.81
X61.808 Y17.9
X61.737 Y17.984
X61.667 Y18.063
X61.598 Y18.136
X61.532 Y18.203
X61.467 Y18.264
X61.402 Y18.322
X61.332 Y18.38
X61.257 Y18.438
X61.175 Y18.498
X61.089 Y18.558
X60.998 Y18.619
X60.9 Y18.681
X60.799 Y18.744
X60.691 Y18.808
X60.58 Y18.873
X60.464 Y18.939
X60.344 Y19.006
X60.305 Y19.028
X60.162 Y19.087
X59.93 Y19.182
X59.7 Y19.275
X59.472 Y19.366
X59.245 Y19.454
X59.02 Y19.54
X58.797 Y19.624
X58.575 Y19.704
X58.354 Y19.781
X58.135 Y19.854
X57.914 Y19.924
X57.691 Y19.991
X57.466 Y20.056
X57.238 Y20.119
X57.008 Y20.18
X56.776 Y20.24
X56.542 Y20.298
X56.305 Y20.354
X56.066 Y20.41
X55.825 Y20.464
X55.582 Y20.519
X55.338 Y20.572
X55.092 Y20.626
X54.86 Y20.676
X54.785 Y20.691
X54.69 Y20.709
X54.594 Y20.729
X54.494 Y20.749
X54.483 Y20.751
X54.392 Y20.771
X54.378 Y20.774
X54.287 Y20.794
X54.271 Y20.798
X54.181 Y20.819
X54.162 Y20.823
X54.072 Y20.846
X54.049 Y20.852
X53.959 Y20.875
X53.934 Y20.882
X53.845 Y20.907
X53.818 Y20.915
X53.729 Y20.941
X53.699 Y20.951
X53.612 Y20.979
X53.578 Y20.99
X53.491 Y21.02
X53.457 Y21.033
X53.371 Y21.065
X53.332 Y21.08
X53.247 Y21.114
X53.208 Y21.13
X53.124 Y21.167
X53.088 Y21.183
X53.005 Y21.221
X52.975 Y21.235
X52.893 Y21.276
X52.866 Y21.289
X52.784 Y21.331
X52.761 Y21.343
X52.679 Y21.387
X52.665 Y21.395
X52.583 Y21.439
X52.57 Y21.446
X52.489 Y21.492
X52.4 Y21.542
X52.316 Y21.59
G2 X52.002 Y21.825 I0.786 J1.379
G1 X51.971 Y21.855
X51.936 Y21.888
X51.925 Y21.899
X51.895 Y21.929
X51.883 Y21.94
X51.853 Y21.97
X51.833 Y21.991
X51.804 Y22.022
X51.782 Y22.045
X51.753 Y22.076
X51.728 Y22.105
X51.7 Y22.136
X51.668 Y22.174
X51.642 Y22.206
X51.609 Y22.248
X51.584 Y22.28
X51.548 Y22.328
X51.524 Y22.362
X51.483 Y22.423
X51.461 Y22.458
X51.42 Y22.524
X51.4 Y22.56
X51.359 Y22.635
X51.341 Y22.671
X51.305 Y22.749
X51.288 Y22.786
X51.257 Y22.862
X51.243 Y22.9
X51.22 Y22.965
X51.207 Y23.004
X51.188 Y23.066
X51.177 Y23.105
X51.163 Y23.158
X51.153 Y23.199
X51.143 Y23.243
X51.134 Y23.284
X51.126 Y23.319
X51.118 Y23.361
X51.113 Y23.393
X51.105 Y23.435
X51.102 Y23.454
X51.095 Y23.496
X51.093 Y23.512
X51.087 Y23.554
X51.08 Y23.6
G2 X51.074 Y24.017 I1.571 J0.23
G1 X51.08 Y24.071
X51.088 Y24.134
X51.09 Y24.146
X51.097 Y24.2
X51.1 Y24.222
X51.108 Y24.276
X51.112 Y24.303
X51.121 Y24.356
X51.127 Y24.394
X51.137 Y24.446
X51.146 Y24.49
X51.157 Y24.542
X51.169 Y24.593
X51.182 Y24.644
X51.198 Y24.704
X51.213 Y24.754
X51.234 Y24.818
X51.25 Y24.868
X51.278 Y24.943
X51.297 Y24.991
X51.331 Y25.069
X51.353 Y25.116
X51.392 Y25.196
X51.417 Y25.242
X51.457 Y25.313
X51.484 Y25.358
X51.525 Y25.423
X51.554 Y25.466
X51.591 Y25.52
X51.622 Y25.562
X51.657 Y25.608
X51.69 Y25.65
X51.72 Y25.687
X51.754 Y25.728
X51.783 Y25.762
X51.819 Y25.802
X51.842 Y25.827
X51.878 Y25.867
X51.897 Y25.887
X51.935 Y25.926
X51.948 Y25.939
X51.986 Y25.978
X51.997 Y25.99
X52.036 Y26.029
X52.079 Y26.072
G2 X52.378 Y26.304 I1.118 J-1.127
G1 X52.44 Y26.342
X52.51 Y26.383
X52.52 Y26.389
X52.582 Y26.426
X52.598 Y26.435
X52.661 Y26.471
X52.683 Y26.483
X52.746 Y26.518
X52.773 Y26.532
X52.837 Y26.566
X52.871 Y26.583
X52.935 Y26.615
X52.975 Y26.634
X53.039 Y26.663
X53.088 Y26.685
X53.153 Y26.712
X53.205 Y26.733
X53.271 Y26.758
X53.333 Y26.78
X53.4 Y26.802
X53.465 Y26.822
X53.533 Y26.842
X53.593 Y26.857
X53.661 Y26.874
X53.718 Y26.887
X53.787 Y26.901
X53.838 Y26.911
X53.908 Y26.923
X53.953 Y26.93
X54.024 Y26.94
X54.062 Y26.945
X54.134 Y26.953
X54.169 Y26.957
X54.241 Y26.963
X54.27 Y26.966
X54.342 Y26.971
X54.369 Y26.973
X54.441 Y26.977
X54.459 Y26.978
X54.532 Y26.982
X54.547
X54.62 Y26.985
X54.701 Y26.988
X54.781 Y26.99
X54.888 Y26.989
X54.98 Y26.985
X55.078 Y26.981
X55.089
X55.181 Y26.976
X55.197 Y26.975
X55.289 Y26.97
X55.308 Y26.969
X55.4 Y26.962
X55.426 Y26.96
X55.517 Y26.952
X55.547 Y26.949
X55.638 Y26.939
X55.676 Y26.934
X55.766 Y26.923
X55.805 Y26.917
X55.895 Y26.903
X55.943 Y26.894
X56.032 Y26.877
X56.082 Y26.867
X56.17 Y26.847
X56.229 Y26.833
X56.316 Y26.81
X56.376 Y26.793
X56.462 Y26.766
X56.528 Y26.745
X56.612 Y26.715
X56.671 Y26.692
X56.754 Y26.659
X56.805 Y26.637
X56.888 Y26.601
X56.934 Y26.58
X57.015 Y26.541
X57.054 Y26.521
X57.135 Y26.479
X57.168 Y26.462
X57.248 Y26.418
X57.274 Y26.404
X57.353 Y26.359
X57.374 Y26.346
X57.453 Y26.3
X57.47 Y26.29
X57.548 Y26.242
X57.558 Y26.236
X57.637 Y26.188
X57.721 Y26.135
G2 X58.06 Y25.852 I-0.839 J-1.348
G1 X58.124 Y25.782
X58.191 Y25.707
X58.2 Y25.697
X58.262 Y25.626
X58.274 Y25.612
X58.335 Y25.541
X58.352 Y25.521
X58.412 Y25.449
X58.431 Y25.425
X58.49 Y25.353
X58.514 Y25.321
X58.571 Y25.247
X58.597 Y25.212
X58.651 Y25.137
X58.681 Y25.093
X58.732 Y25.016
X58.763 Y24.968
X58.811 Y24.89
X58.846 Y24.832
X58.89 Y24.752
X58.923 Y24.691
X58.964 Y24.609
X58.976 Y24.584
X58.995 Y24.558 Z-2.994
X59.018 Y24.544 Z-2.975
X59.035 Y24.538 Z-2.948
X59.042 Y24.537 Z-2.916
G0 Z3
X74.107 Y24.981
G1 Z2.5 F333.3
Z-2.683
X74.095 Y24.96 Z-2.804
X74.071 Y24.896 Z-2.907
X74.062 Y24.845 Z-2.941
X74.061 Y24.794 Z-2.976
X74.071 Y24.734 Z-2.988
X74.092 Y24.677 Z-3
G2 X74.284 Y23.844 I-1.713 J-0.833 F1000
G1 Y10.656
X76.668
Y23.844
G2 X78.573 Y25.749 I1.905
G1 X82.984
Y26.889
X67.968
Y25.749
X72.379
G2 X74.092 Y24.677 J-1.905
X74.042 Y24.376 I-0.237 J-0.115
G3 X73.948 Y24.086 I0.241 J-0.239
G1 X73.962 Y23.965
X73.967 Y23.844
Y10.338
X76.985
Y23.844
G2 X78.573 Y25.432 I1.588
G1 X83.301
Y27.206
X67.65
Y25.432
X72.379
G2 X73.948 Y24.086 J-1.588
G1 X73.963 Y24.027 Z-2.988
X73.989 Y23.972 Z-2.976
X74.019 Y23.93 Z-2.941
X74.055 Y23.893 Z-2.907
X74.111 Y23.854 Z-2.804
X74.133 Y23.844 Z-2.683
G0 Z4
G53 G0 X0 Y0
M30
%
