%
(1001)
(Test program)
(Machine)
(  vendor: Banggood)
(  model: 3018)
(  description: Generic 3-axis)
(T1  D=3.175 CR=0 - ZMIN=-3 - flat end mill)
G90 G94
G17
G21

(Face1)
M9
T1 M6
S5000 M3
G54
G0 X90.364 Y1.121
Z5
Z2.5
G1 Z1.467 F1000
G18 G3 X90.046 Z1.15 I-0.317
G1 X88.3
X0
G17 G2 Y3.801 J1.34
G1 X88.3
G3 Y6.481 J1.34
G1 X0
G2 Y9.162 J1.34
G1 X88.3
G3 Y11.842 J1.34
G1 X0
G2 Y14.522 J1.34
G1 X88.3
G3 Y17.202 J1.34
G1 X0
G2 Y19.882 J1.34
G1 X88.3
G3 Y22.563 J1.34
G1 X0
G2 Y25.243 J1.34
G1 X88.3
G3 Y27.923 J1.34
G1 X0
G2 Y30.603 J1.34
G1 X88.3
G3 Y33.283 J1.34
G1 X0
G2 Y35.964 J1.34
G1 X88.3
G18 G2 X88.618 Z1.467 K0.317
G0 Z3
X90.364 Y1.121
Z2.5
G1 Z0.468 F1000
G3 X90.046 Z0.15 I-0.317
G1 X88.3
X0
G17 G2 Y3.801 J1.34
G1 X88.3
G3 Y6.481 J1.34
G1 X0
G2 Y9.162 J1.34
G1 X88.3
G3 Y11.842 J1.34
G1 X0
G2 Y14.522 J1.34
G1 X88.3
G3 Y17.202 J1.34
G1 X0
G2 Y19.882 J1.34
G1 X88.3
G3 Y22.563 J1.34
G1 X0
G2 Y25.243 J1.34
G1 X88.3
G3 Y27.923 J1.34
G1 X0
G2 Y30.603 J1.34
G1 X88.3
G3 Y33.283 J1.34
G1 X0
G2 Y35.964 J1.34
G1 X88.3
G18 G2 X88.618 Z0.468 K0.317
G0 Z3
X90.364 Y1.121
Z2.5
G1 Z0.317 F1000
G3 X90.046 Z0 I-0.317
G1 X88.3
X0 F600
G17 G2 Y3.801 J1.34 F1000
G1 X88.3 F600
G3 Y6.481 J1.34 F1000
G1 X0 F600
G2 Y9.162 J1.34 F1000
G1 X88.3 F600
G3 Y11.842 J1.34 F1000
G1 X0 F600
G2 Y14.522 J1.34 F1000
G1 X88.3 F600
G3 Y17.202 J1.34 F1000
G1 X0 F600
G2 Y19.882 J1.34 F1000
G1 X88.3 F600
G3 Y22.563 J1.34 F1000
G1 X0 F600
G2 Y25.243 J1.34 F1000
G1 X88.3 F600
G3 Y27.923 J1.34 F1000
G1 X0 F600
G2 Y30.603 J1.34 F1000
G1 X88.3 F600
G3 Y33.283 J1.34 F1000
G1 X0 F600
G2 Y35.964 J1.34 F1000
G1 X88.3 F600
G18 G2 X88.618 Z0.317 K0.317 F1000
G0 Z5
G17

(2D Pocket3)
G0 X60.252 Y11.246
Z4
Z3
G1 Z2.817 F1000
X60.258 Y11.25 Z2.748 F333.3
X60.278 Y11.261 Z2.683
X60.306 Y11.278 Z2.627
X60.344 Y11.3 Z2.58
X60.389 Y11.326 Z2.542
X60.439 Y11.358 Z2.516
X60.493 Y11.391 Z2.502
X60.514 Y11.405 Z2.5
X60.591 Y11.456 Z2.497
X60.682 Y11.519 Z2.493
X60.766 Y11.581 Z2.489
X60.844 Y11.643 Z2.486
X60.919 Y11.707 Z2.482
X60.994 Y11.776 Z2.479
X61.072 Y11.852 Z2.475
X61.152 Y11.935 Z2.471
X61.234 Y12.024 Z2.467
X61.318 Y12.119 Z2.462
X61.405 Y12.221 Z2.458
X61.494 Y12.328 Z2.453
X61.585 Y12.442 Z2.448
X61.679 Y12.561 Z2.442
X61.775 Y12.684 Z2.437
X61.793 Y12.707 Z2.436
X61.805 Y12.728 Z2.435
X61.878 Y12.859 Z2.43
X61.947 Y12.986 Z2.425
X62.013 Y13.108 Z2.42
X62.075 Y13.227 Z2.415
X62.132 Y13.341 Z2.411
X62.185 Y13.45 Z2.407
X62.232 Y13.554 Z2.403
X62.275 Y13.655 Z2.399
X62.313 Y13.751 Z2.395
X62.346 Y13.842 Z2.392
X62.373 Y13.929 Z2.389
X62.398 Y14.018 Z2.385
X62.421 Y14.111 Z2.382
X62.442 Y14.212 Z2.378
X62.462 Y14.319 Z2.375
X62.48 Y14.433 Z2.371
X62.496 Y14.553 Z2.366
X62.511 Y14.679 Z2.362
X62.524 Y14.811 Z2.357
X62.537 Y14.95 Z2.352
X62.548 Y15.094 Z2.347
X62.56 Y15.244 Z2.342
X62.562 Y15.283 Z2.341
Y15.295 Z2.34
X62.554 Y15.418 Z2.336
X62.546 Y15.535 Z2.332
X62.538 Y15.648 Z2.328
X62.528 Y15.756 Z2.324
X62.518 Y15.858 Z2.321
X62.507 Y15.954 Z2.317
X62.494 Y16.045 Z2.314
X62.481 Y16.129 Z2.311
X62.466 Y16.208 Z2.308
X62.45 Y16.282 Z2.306
X62.433 Y16.349 Z2.303
X62.414 Y16.415 Z2.301
X62.392 Y16.485 Z2.298
X62.365 Y16.56 Z2.295
X62.335 Y16.639 Z2.292
X62.301 Y16.721 Z2.289
X62.263 Y16.809 Z2.286
X62.22 Y16.902 Z2.282
X62.175 Y16.999 Z2.279
X62.126 Y17.101 Z2.275
X62.073 Y17.206 Z2.271
X62.03 Y17.292 Z2.267
X61.956 Y17.39 Z2.263
X61.877 Y17.494 Z2.258
X61.801 Y17.592 Z2.254
X61.727 Y17.685 Z2.25
X61.655 Y17.772 Z2.246
X61.586 Y17.853 Z2.242
X61.519 Y17.928 Z2.239
X61.454 Y17.997 Z2.236
X61.392 Y18.06 Z2.232
X61.332 Y18.116 Z2.23
X61.272 Y18.17 Z2.227
X61.206 Y18.224 Z2.224
X61.136 Y18.279 Z2.221
X61.059 Y18.335 Z2.217
X60.976 Y18.393 Z2.214
X60.888 Y18.451 Z2.21
X60.794 Y18.511 Z2.206
X60.695 Y18.573 Z2.202
X60.59 Y18.635 Z2.198
X60.48 Y18.7 Z2.193
X60.365 Y18.765 Z2.189
X60.246 Y18.832 Z2.184
X60.218 Y18.848 Z2.183
X60.086 Y18.902 Z2.178
X59.855 Y18.996 Z2.169
X59.625 Y19.089 Z2.161
X59.398 Y19.18 Z2.152
X59.173 Y19.268 Z2.144
X58.949 Y19.353 Z2.135
X58.728 Y19.436 Z2.127
X58.508 Y19.516 Z2.119
X58.29 Y19.591 Z2.111
X58.073 Y19.664 Z2.103
X57.855 Y19.733 Z2.095
X57.635 Y19.799 Z2.087
X57.412 Y19.864 Z2.079
X57.186 Y19.926 Z2.07
X56.958 Y19.987 Z2.062
X56.727 Y20.046 Z2.054
X56.494 Y20.103 Z2.045
X56.259 Y20.16 Z2.037
X56.021 Y20.215 Z2.029
X55.781 Y20.269 Z2.02
X55.539 Y20.323 Z2.011
X55.296 Y20.377 Z2.003
X55.05 Y20.43 Z1.994
X54.82 Y20.48 Z1.986
X54.747 Y20.494 Z1.983
X54.652 Y20.513 Z1.98
X54.554 Y20.532 Z1.976
X54.545 Y20.535
X54.453 Y20.553 Z1.972
X54.442 Y20.556
X54.351 Y20.575 Z1.969
X54.335 Y20.579 Z1.968
X54.244 Y20.599 Z1.965
X54.226 Y20.603 Z1.964
X54.135 Y20.624 Z1.961
X54.114 Y20.629 Z1.96
X54.024 Y20.652 Z1.957
X53.998 Y20.658 Z1.956
X53.908 Y20.682 Z1.953
X53.88 Y20.689 Z1.952
X53.791 Y20.714 Z1.949
X53.76 Y20.723 Z1.948
X53.672 Y20.75 Z1.944
X53.638 Y20.76 Z1.943
X53.55 Y20.788 Z1.94
X53.513 Y20.801 Z1.939
X53.426 Y20.831 Z1.935
X53.387 Y20.845 Z1.934
X53.301 Y20.877 Z1.931
X53.258 Y20.894 Z1.929
X53.173 Y20.928 Z1.926
X53.128 Y20.947 Z1.924
X53.044 Y20.983 Z1.921
X53.004 Y21.001 Z1.919
X52.921 Y21.04 Z1.916
X52.888 Y21.056 Z1.915
X52.805 Y21.096 Z1.912
X52.775 Y21.111 Z1.911
X52.692 Y21.153 Z1.907
X52.667 Y21.167 Z1.906
X52.585 Y21.21 Z1.903
X52.569 Y21.219 Z1.902
X52.487 Y21.264 Z1.899
X52.472 Y21.272
X52.391 Y21.317 Z1.895
X52.382 Y21.322
X52.301 Y21.368 Z1.892
X52.217 Y21.416 Z1.888
G2 X51.863 Y21.681 Z1.873 I0.885 J1.553
G1 X51.832 Y21.71 Z1.871
X51.797 Y21.744 Z1.87
X51.784 Y21.757 Z1.869
X51.754 Y21.787 Z1.868
X51.741 Y21.799 Z1.867
X51.711 Y21.829 Z1.865
X51.689 Y21.853 Z1.864
X51.659 Y21.883 Z1.863
X51.634 Y21.91 Z1.862
X51.606 Y21.941 Z1.86
X51.577 Y21.973 Z1.859
X51.55 Y22.004 Z1.857
X51.514 Y22.047 Z1.855
X51.487 Y22.079 Z1.854
X51.45 Y22.126 Z1.852
X51.425 Y22.159 Z1.85
X51.385 Y22.212 Z1.848
X51.361 Y22.246 Z1.846
X51.314 Y22.315 Z1.844
X51.292 Y22.35 Z1.842
X51.247 Y22.425 Z1.839
X51.227 Y22.46 Z1.838
X51.181 Y22.545 Z1.834
X51.163 Y22.581 Z1.833
X51.121 Y22.669 Z1.829
X51.105 Y22.706 Z1.828
X51.07 Y22.791 Z1.825
X51.056 Y22.829 Z1.823
X51.03 Y22.902 Z1.821
X51.017 Y22.941 Z1.819
X50.996 Y23.011 Z1.817
X50.985 Y23.05 Z1.815
X50.969 Y23.11 Z1.813
X50.959 Y23.151 Z1.812
X50.947 Y23.2 Z1.81
X50.938 Y23.241 Z1.808
X50.93 Y23.281 Z1.807
X50.922 Y23.322 Z1.805
X50.915 Y23.359 Z1.804
X50.908 Y23.401 Z1.803
X50.905 Y23.423 Z1.802
X50.898 Y23.465 Z1.8
X50.895 Y23.482
X50.889 Y23.524 Z1.798
X50.882 Y23.571 Z1.797
G2 X50.875 Y24.04 Z1.78 I1.769 J0.259
G1 X50.882 Y24.094 Z1.778
X50.883 Y24.104
X50.89 Y24.158 Z1.776
X50.891 Y24.172
X50.898 Y24.226 Z1.774
X50.902 Y24.251 Z1.773
X50.91 Y24.304 Z1.771
X50.914 Y24.335 Z1.77
X50.923 Y24.388 Z1.768
X50.931 Y24.431 Z1.766
X50.941 Y24.483 Z1.765
X50.95 Y24.532 Z1.763
X50.962 Y24.584 Z1.761
X50.975 Y24.642 Z1.759
X50.988 Y24.693 Z1.757
X51.007 Y24.761 Z1.755
X51.021 Y24.811 Z1.753
X51.044 Y24.883 Z1.75
X51.061 Y24.932 Z1.748
X51.092 Y25.017 Z1.745
X51.112 Y25.065 Z1.743
X51.149 Y25.153 Z1.74
X51.171 Y25.2 Z1.738
X51.216 Y25.29 Z1.735
X51.24 Y25.336 Z1.733
X51.285 Y25.416 Z1.73
X51.312 Y25.461 Z1.728
X51.359 Y25.534 Z1.725
X51.388 Y25.578 Z1.723
X51.43 Y25.638 Z1.72
X51.461 Y25.68 Z1.719
X51.5 Y25.732 Z1.716
X51.532 Y25.773 Z1.715
X51.566 Y25.815 Z1.713
X51.601 Y25.856 Z1.711
X51.634 Y25.894 Z1.709
X51.669 Y25.935 Z1.707
X51.695 Y25.963 Z1.706
X51.732 Y26.003 Z1.704
X51.753 Y26.025 Z1.703
X51.79 Y26.064 Z1.701
X51.805 Y26.079 Z1.7
X51.843 Y26.118 Z1.698
X51.856 Y26.132
X51.895 Y26.17 Z1.696
X51.938 Y26.214 Z1.694
G2 X52.275 Y26.476 Z1.679 I1.259 J-1.269
G1 X52.337 Y26.513 Z1.676
X52.407 Y26.555 Z1.673
X52.419 Y26.562
X52.481 Y26.599 Z1.67
X52.499 Y26.609
X52.562 Y26.645 Z1.667
X52.587 Y26.659 Z1.666
X52.65 Y26.693 Z1.664
X52.68 Y26.71 Z1.662
X52.744 Y26.743 Z1.66
X52.782 Y26.763 Z1.658
X52.846 Y26.794 Z1.656
X52.891 Y26.815 Z1.654
X52.956 Y26.845 Z1.652
X53.011 Y26.869 Z1.65
X53.076 Y26.897 Z1.647
X53.135 Y26.92 Z1.645
X53.201 Y26.945 Z1.642
X53.27 Y26.97 Z1.64
X53.337 Y26.992 Z1.637
X53.41 Y27.015 Z1.635
X53.478 Y27.034 Z1.632
X53.545 Y27.052 Z1.63
X53.614 Y27.068 Z1.627
X53.677 Y27.083 Z1.625
X53.747 Y27.097 Z1.623
X53.804 Y27.108 Z1.621
X53.874 Y27.12 Z1.618
X53.925 Y27.128 Z1.616
X53.995 Y27.138 Z1.614
X54.039 Y27.143 Z1.612
X54.11 Y27.152 Z1.61
X54.151 Y27.156 Z1.608
X54.222 Y27.163 Z1.606
X54.255 Y27.165 Z1.605
X54.327 Y27.171 Z1.602
X54.357 Y27.173 Z1.601
X54.43 Y27.177 Z1.599
X54.45 Y27.178 Z1.598
X54.522 Y27.181 Z1.595
X54.54 Y27.182
X54.612 Y27.185 Z1.592
X54.695 Y27.188 Z1.589
X54.775 Y27.19 Z1.586
X54.896 Y27.189 Z1.582
X54.988 Y27.185 Z1.579
X55.087 Y27.181 Z1.576
X55.098 Y27.18 Z1.575
X55.191 Y27.176 Z1.572
X55.209 Y27.175 Z1.571
X55.301 Y27.169 Z1.568
X55.322 Y27.168 Z1.567
X55.414 Y27.161 Z1.564
X55.444 Y27.159 Z1.563
X55.535 Y27.151 Z1.56
X55.569 Y27.148 Z1.559
X55.66 Y27.138 Z1.556
X55.702 Y27.133 Z1.554
X55.792 Y27.121 Z1.551
X55.836 Y27.114 Z1.549
X55.926 Y27.1 Z1.546
X55.981 Y27.091 Z1.544
X56.069 Y27.074 Z1.541
X56.126 Y27.062 Z1.539
X56.214 Y27.043 Z1.536
X56.28 Y27.026 Z1.533
X56.367 Y27.003 Z1.53
X56.435 Y26.984 Z1.528
X56.52 Y26.958 Z1.525
X56.595 Y26.933 Z1.522
X56.679 Y26.903 Z1.519
X56.745 Y26.878 Z1.516
X56.828 Y26.845 Z1.513
X56.886 Y26.82 Z1.511
X56.968 Y26.784 Z1.508
X57.02 Y26.76 Z1.506
X57.102 Y26.721 Z1.503
X57.146 Y26.699 Z1.501
X57.227 Y26.657 Z1.498
X57.264 Y26.638 Z1.496
X57.344 Y26.594 Z1.493
X57.373 Y26.578 Z1.492
X57.452 Y26.532 Z1.489
X57.476 Y26.519 Z1.488
X57.555 Y26.472 Z1.485
X57.573 Y26.461 Z1.484
X57.652 Y26.413 Z1.481
X57.663 Y26.406 Z1.48
X57.742 Y26.358 Z1.477
X57.827 Y26.305 Z1.474
G2 X58.208 Y25.986 Z1.456 I-0.945 J-1.518
G1 X58.272 Y25.916 Z1.453
X58.34 Y25.84 Z1.449
X58.35 Y25.829
X58.412 Y25.758 Z1.446
X58.425 Y25.743 Z1.445
X58.487 Y25.671 Z1.442
X58.506 Y25.649 Z1.44
X58.566 Y25.577 Z1.437
X58.587 Y25.55 Z1.436
X58.646 Y25.478 Z1.433
X58.673 Y25.442 Z1.431
X58.73 Y25.368 Z1.428
X58.759 Y25.329 Z1.426
X58.813 Y25.253 Z1.423
X58.847 Y25.204 Z1.421
X58.898 Y25.128 Z1.418
X58.933 Y25.073 Z1.415
X58.982 Y24.995 Z1.412
X59.02 Y24.929 Z1.41
X59.065 Y24.849 Z1.406
X59.101 Y24.781 Z1.404
X59.143 Y24.699 Z1.4
X59.15 Y24.685
X61.43 Y24.819 Z1.32
X61.397 Y24.888 Z1.317
X61.339 Y24.994 Z1.313
X61.274 Y25.1 Z1.309
X61.199 Y25.21 Z1.304
X61.113 Y25.325 Z1.299
X61.016 Y25.445 Z1.294
X60.907 Y25.57 Z1.288
X60.789 Y25.699 Z1.282
X60.661 Y25.832 Z1.275
X60.524 Y25.97 Z1.269
X60.378 Y26.113 Z1.262
X60.252 Y26.234 Z1.255
X60.036 Y26.344 Z1.247
X59.82 Y26.452 Z1.239
X59.609 Y26.555 Z1.23
X59.403 Y26.651 Z1.222
X59.202 Y26.741 Z1.215
X59.007 Y26.824 Z1.207
X58.816 Y26.899 Z1.2
X58.629 Y26.967 Z1.193
X58.448 Y27.026 Z1.187
X58.269 Y27.077 Z1.18
X58.087 Y27.122 Z1.174
X57.898 Y27.161 Z1.167
X57.702 Y27.196 Z1.16
X57.5 Y27.227 Z1.153
X57.291 Y27.252 Z1.145
X57.075 Y27.274 Z1.138
X56.853 Y27.292 Z1.13
X56.624 Y27.307 Z1.122
X56.39 Y27.319 Z1.114
X56.15 Y27.328 Z1.105
X55.905 Y27.336 Z1.097
X55.653 Y27.342 Z1.088
X55.433 Y27.348 Z1.08
X55.259 Y27.345 Z1.074
X55.052 Y27.341 Z1.067
X54.851 Y27.337 Z1.06
X54.652 Y27.332 Z1.053
X54.457 Y27.325 Z1.046
X54.266 Y27.317 Z1.04
X54.078 Y27.307 Z1.033
X53.894 Y27.295 Z1.027
X53.714 Y27.28 Z1.02
X53.538 Y27.263 Z1.014
X53.366 Y27.243 Z1.008
X53.198 Y27.219 Z1.002
X53.034 Y27.193 Z0.996
X52.871 Y27.163 Z0.991
X52.706 Y27.128 Z0.985
X52.539 Y27.089 Z0.979
X52.367 Y27.046 Z0.972
X52.192 Y26.998 Z0.966
X52.013 Y26.947 Z0.96
X51.83 Y26.893 Z0.953
X51.644 Y26.835 Z0.946
X51.454 Y26.775 Z0.939
X51.259 Y26.713 Z0.932
X51.188 Y26.689 Z0.929
X51.176 Y26.684
X51.051 Y26.621 Z0.924
X50.931 Y26.56 Z0.919
X50.816 Y26.501 Z0.915
X50.707 Y26.443 Z0.911
X50.603 Y26.386 Z0.906
X50.506 Y26.33 Z0.903
X50.415 Y26.275 Z0.899
X50.33 Y26.221 Z0.895
X50.251 Y26.169 Z0.892
X50.179 Y26.117 Z0.889
X50.113 Y26.066 Z0.886
X50.051 Y26.015 Z0.883
X49.988 Y25.96 Z0.88
X49.923 Y25.899 Z0.877
X49.855 Y25.831 Z0.874
X49.785 Y25.757 Z0.87
X49.712 Y25.677 Z0.866
X49.636 Y25.59 Z0.862
X49.558 Y25.498 Z0.858
X49.477 Y25.4 Z0.854
X49.392 Y25.297 Z0.849
X49.306 Y25.189 Z0.844
X49.25 Y25.091 Z0.84
X49.193 Y24.988 Z0.836
X49.14 Y24.89 Z0.832
X49.091 Y24.796 Z0.829
X49.045 Y24.707 Z0.825
X49.004 Y24.622 Z0.822
X48.967 Y24.542 Z0.819
X48.934 Y24.467 Z0.816
X48.906 Y24.396 Z0.813
X48.882 Y24.33 Z0.811
X48.861 Y24.268 Z0.808
X48.843 Y24.206 Z0.806
X48.827 Y24.14 Z0.804
X48.811 Y24.067 Z0.801
X48.795 Y23.987 Z0.798
X48.781 Y23.902 Z0.795
X48.768 Y23.81 Z0.792
X48.756 Y23.711 Z0.789
X48.745 Y23.607 Z0.785
X48.734 Y23.496 Z0.781
X48.724 Y23.38 Z0.777
X48.716 Y23.286 Z0.774
X48.719 Y23.26 Z0.773
X48.737 Y23.085 Z0.767
X48.755 Y22.919 Z0.761
X48.774 Y22.762 Z0.755
X48.795 Y22.614 Z0.75
X48.817 Y22.475 Z0.745
X48.841 Y22.348 Z0.741
X48.867 Y22.231 Z0.736
X48.895 Y22.125 Z0.733
X48.924 Y22.03 Z0.729
X48.954 Y21.946 Z0.726
X48.986 Y21.871 Z0.723
X49.021 Y21.798 Z0.72
X49.063 Y21.721 Z0.717
X49.115 Y21.637 Z0.714
X49.176 Y21.547 Z0.71
X49.247 Y21.45 Z0.706
X49.326 Y21.348 Z0.701
X49.414 Y21.241 Z0.697
X49.512 Y21.128 Z0.691
X49.617 Y21.01 Z0.686
X49.73 Y20.887 Z0.68
X49.83 Y20.779 Z0.675
X49.874 Y20.75 Z0.673
X50.09 Y20.609 Z0.664
X50.303 Y20.472 Z0.655
X50.512 Y20.34 Z0.647
X50.718 Y20.213 Z0.638
X50.921 Y20.091 Z0.63
X51.121 Y19.976 Z0.622
X51.318 Y19.868 Z0.614
X51.512 Y19.768 Z0.606
X51.705 Y19.674 Z0.599
X51.898 Y19.587 Z0.591
X52.096 Y19.505 Z0.584
X52.3 Y19.425 Z0.576
X52.51 Y19.35 Z0.568
X52.725 Y19.277 Z0.561
X52.946 Y19.207 Z0.552
X53.173 Y19.14 Z0.544
X53.405 Y19.075 Z0.536
X53.641 Y19.011 Z0.527
X53.882 Y18.95 Z0.519
X54.128 Y18.889 Z0.51
X54.379 Y18.828 Z0.501
X54.633 Y18.768 Z0.492
X54.868 Y18.713 Z0.483
X54.985 Y18.689 Z0.479
X55.129 Y18.659 Z0.474
X55.274 Y18.628 Z0.469
X55.422 Y18.595 Z0.463
X55.435 Y18.593
X55.574 Y18.561 Z0.458
X55.59 Y18.557 Z0.457
X55.728 Y18.525 Z0.452
X55.745 Y18.521
X55.883 Y18.487 Z0.447
X55.907 Y18.481 Z0.446
X56.044 Y18.445 Z0.441
X56.067 Y18.439 Z0.44
X56.204 Y18.402 Z0.435
X56.231 Y18.394 Z0.434
X56.367 Y18.354 Z0.429
X56.398 Y18.345 Z0.428
X56.533 Y18.303 Z0.423
X56.568 Y18.291 Z0.422
X56.701 Y18.247 Z0.417
X56.736 Y18.235 Z0.416
X56.868 Y18.187 Z0.411
X56.908 Y18.173 Z0.409
X57.04 Y18.122 Z0.404
X57.082 Y18.105 Z0.403
X57.212 Y18.052 Z0.398
X57.255 Y18.033 Z0.396
X57.384 Y17.976 Z0.391
X57.421 Y17.958 Z0.39
X57.549 Y17.898 Z0.385
X57.582 Y17.882 Z0.384
X57.709 Y17.818 Z0.379
X57.737 Y17.804 Z0.378
X57.862 Y17.739 Z0.373
X57.886 Y17.726 Z0.372
X58.011 Y17.659 Z0.367
X58.028 Y17.649 Z0.366
X58.152 Y17.58 Z0.361
X58.167 Y17.572
X58.29 Y17.502 Z0.356
X58.422 Y17.426 Z0.35
X58.549 Y17.353 Z0.345
G2 X58.938 Y17.049 Z0.328 I-0.895 J-1.547
G1 X58.985 Y17 Z0.326
X59.038 Y16.946 Z0.323
X59.047 Y16.936 Z0.322
X59.094 Y16.887 Z0.32
X59.109 Y16.87 Z0.319
X59.155 Y16.821 Z0.317
X59.174 Y16.8 Z0.316
X59.219 Y16.75 Z0.314
X59.242 Y16.723 Z0.312
X59.286 Y16.673 Z0.31
X59.316 Y16.637 Z0.308
X59.358 Y16.585 Z0.306
X59.391 Y16.544 Z0.304
X59.431 Y16.491 Z0.302
X59.466 Y16.445 Z0.3
X59.504 Y16.391 Z0.298
X59.544 Y16.333 Z0.295
X59.58 Y16.278 Z0.293
X59.621 Y16.213 Z0.29
X59.654 Y16.157 Z0.288
X59.696 Y16.083 Z0.285
X59.727 Y16.026 Z0.283
X59.771 Y15.939 Z0.279
X59.798 Y15.881 Z0.277
X59.835 Y15.796 Z0.274
X59.859 Y15.736 Z0.271
X59.889 Y15.656 Z0.269
X59.911 Y15.595 Z0.266
X59.935 Y15.521 Z0.264
X59.954 Y15.458 Z0.261
X59.973 Y15.393 Z0.259
X59.989 Y15.329 Z0.257
X60.003 Y15.274 Z0.255
X60.018 Y15.209 Z0.252
X60.028 Y15.162 Z0.251
X60.041 Y15.097 Z0.248
X60.049 Y15.054 Z0.247
X60.061 Y14.988 Z0.244
X60.065 Y14.96 Z0.243
X60.076 Y14.894 Z0.241
X60.08 Y14.868 Z0.24
X60.089 Y14.801 Z0.238
X60.092 Y14.785 Z0.237
X60.101 Y14.717 Z0.235
X60.111 Y14.642 Z0.232
G2 Y14.181 Z0.216 I-1.772 J-0.231
G1 X60.102 Y14.111 Z0.214
X60.091 Y14.033 Z0.211
X60.089 Y14.019 Z0.21
X60.079 Y13.95 Z0.208
X60.076 Y13.923 Z0.207
X60.065 Y13.854 Z0.205
X60.059 Y13.821 Z0.203
X60.047 Y13.753 Z0.201
X60.04 Y13.713 Z0.199
X60.026 Y13.644 Z0.197
X60.016 Y13.597 Z0.195
X60.001 Y13.53 Z0.193
X59.986 Y13.471 Z0.191
X59.968 Y13.404 Z0.188
X59.95 Y13.34 Z0.186
X59.93 Y13.275 Z0.184
X59.906 Y13.201 Z0.181
X59.883 Y13.137 Z0.179
X59.852 Y13.054 Z0.176
X59.826 Y12.992 Z0.173
X59.787 Y12.904 Z0.17
X59.759 Y12.843 Z0.167
X59.715 Y12.757 Z0.164
X59.683 Y12.698 Z0.162
X59.638 Y12.62 Z0.159
X59.603 Y12.563 Z0.156
X59.561 Y12.497 Z0.154
X59.523 Y12.44 Z0.151
X59.481 Y12.38 Z0.149
X59.44 Y12.325 Z0.146
X59.404 Y12.278 Z0.144
X59.362 Y12.224 Z0.142
X59.327 Y12.181 Z0.14
X59.283 Y12.128 Z0.137
X59.253 Y12.093 Z0.136
X59.207 Y12.04 Z0.133
X59.182 Y12.013 Z0.132
X59.135 Y11.961 Z0.13
X59.114 Y11.939 Z0.129
X59.065 Y11.888 Z0.126
X59.051 Y11.874 Z0.125
X59.002 Y11.823 Z0.123
X58.991 Y11.811 Z0.122
X58.941 Y11.761 Z0.12
X58.884 Y11.704 Z0.117
G2 X58.587 Y11.465 Z0.104 I-1.264 J1.264
G1 X58.509 Y11.415 Z0.101
X58.424 Y11.361 Z0.097
X58.414 Y11.354
X58.336 Y11.305 Z0.093
X58.317 Y11.294
X58.239 Y11.246 Z0.089
X58.215 Y11.232 Z0.088
X58.136 Y11.186 Z0.085
X58.105 Y11.168 Z0.084
X58.025 Y11.123 Z0.081
X57.988 Y11.103 Z0.079
X57.908 Y11.06 Z0.076
X57.863 Y11.037 Z0.074
X57.782 Y10.998 Z0.071
X57.729 Y10.972 Z0.069
X57.647 Y10.935 Z0.066
X57.586 Y10.909 Z0.064
X57.503 Y10.875 Z0.061
X57.435 Y10.849 Z0.058
X57.351 Y10.818 Z0.055
X57.275 Y10.793 Z0.052
X57.19 Y10.766 Z0.049
X57.117 Y10.745 Z0.046
X57.031 Y10.722 Z0.043
X56.968 Y10.707 Z0.041
X56.88 Y10.687 Z0.038
X56.818 Y10.674 Z0.036
X56.729 Y10.657 Z0.032
X56.678 Y10.648 Z0.031
X56.589 Y10.634 Z0.027
X56.539 Y10.627 Z0.026
X56.449 Y10.615 Z0.023
X56.409 Y10.61 Z0.021
X56.318 Y10.6 Z0.018
X56.284 Y10.597 Z0.017
X56.193 Y10.589 Z0.014
X56.161 Y10.587 Z0.012
X56.07 Y10.58 Z0.009
X56.048 Y10.579 Z0.008
X55.956 Y10.573 Z0.005
X55.938
X55.846 Y10.568 Z0.001
X55.835
X55.742 Y10.564 Z-0.002
X55.644 Y10.56 Z-0.006
X55.542 Y10.559 Z-0.009
X55.439 Y10.564 Z-0.013
X55.307 Y10.574 Z-0.017
X55.168 Y10.586 Z-0.022
X55.151 Y10.587 Z-0.023
X55.019 Y10.599 Z-0.028
X54.997 Y10.601
X54.866 Y10.615 Z-0.033
X54.836 Y10.618 Z-0.034
X54.706 Y10.633 Z-0.039
X54.665 Y10.639 Z-0.04
X54.536 Y10.657 Z-0.045
X54.49 Y10.665 Z-0.046
X54.363 Y10.686 Z-0.051
X54.306 Y10.697 Z-0.053
X54.18 Y10.723 Z-0.057
X54.116 Y10.737 Z-0.059
X53.992 Y10.767 Z-0.064
X53.92 Y10.786 Z-0.067
X53.799 Y10.821 Z-0.071
X53.718 Y10.847 Z-0.074
X53.599 Y10.887 Z-0.078
X53.51 Y10.92 Z-0.082
X53.394 Y10.966 Z-0.086
X53.298 Y11.008 Z-0.09
X53.185 Y11.061 Z-0.094
X53.095 Y11.107 Z-0.097
X52.985 Y11.166 Z-0.102
X52.904 Y11.213 Z-0.105
X52.797 Y11.278 Z-0.109
X52.727 Y11.324 Z-0.112
X52.622 Y11.395 Z-0.117
X52.563 Y11.436 Z-0.119
X52.461 Y11.512 Z-0.124
X52.412 Y11.549 Z-0.126
X52.311 Y11.629 Z-0.13
X52.269 Y11.663 Z-0.132
X52.17 Y11.746 Z-0.137
X52.138 Y11.774 Z-0.138
X52.04 Y11.861 Z-0.143
X52.015 Y11.884 Z-0.144
X51.918 Y11.973 Z-0.149
X51.9 Y11.989
X51.805 Y12.08 Z-0.154
X51.792 Y12.092 Z-0.155
X51.697 Y12.183 Z-0.159
X51.596 Y12.282 Z-0.164
G2 X51.312 Y12.639 Z-0.18 I1.246 J1.281
G1 X51.261 Y12.723 Z-0.184
X51.209 Y12.81 Z-0.187
X51.202 Y12.821 Z-0.188
X51.152 Y12.905 Z-0.191
X51.144 Y12.92 Z-0.192
X51.095 Y13.005 Z-0.195
X51.085 Y13.022 Z-0.196
X51.037 Y13.107 Z-0.199
X51.024 Y13.131 Z-0.2
X50.977 Y13.216 Z-0.204
X50.961 Y13.246 Z-0.205
X50.916 Y13.332 Z-0.208
X50.899 Y13.367 Z-0.209
X50.855 Y13.454 Z-0.213
X50.837 Y13.493 Z-0.214
X50.796 Y13.581 Z-0.218
X50.776 Y13.625 Z-0.219
X50.738 Y13.714 Z-0.223
X50.717 Y13.764 Z-0.225
X50.681 Y13.854 Z-0.228
X50.674 Y13.873 Z-0.229
X48.339 Y13.726 Z-0.31
X48.352 Y13.687 Z-0.312
X48.407 Y13.537 Z-0.318
X48.466 Y13.396 Z-0.323
X48.53 Y13.259 Z-0.328
X48.602 Y13.12 Z-0.334
X48.683 Y12.978 Z-0.339
X48.773 Y12.832 Z-0.345
X48.872 Y12.682 Z-0.352
X48.98 Y12.527 Z-0.358
X49.097 Y12.368 Z-0.365
X49.221 Y12.205 Z-0.372
X49.352 Y12.039 Z-0.38
X49.489 Y11.868 Z-0.387
X49.6 Y11.732 Z-0.393
X49.623 Y11.717 Z-0.394
X49.881 Y11.554 Z-0.405
X50.133 Y11.399 Z-0.415
X50.379 Y11.251 Z-0.425
X50.619 Y11.113 Z-0.435
X50.853 Y10.985 Z-0.444
X51.082 Y10.868 Z-0.453
X51.304 Y10.764 Z-0.462
X51.521 Y10.672 Z-0.47
X51.734 Y10.592 Z-0.478
X51.948 Y10.523 Z-0.486
X52.169 Y10.462 Z-0.494
X52.4 Y10.409 Z-0.502
X52.64 Y10.363 Z-0.511
X52.89 Y10.324 Z-0.52
X53.148 Y10.292 Z-0.529
X53.415 Y10.265 Z-0.538
X53.691 Y10.244 Z-0.548
X53.974 Y10.228 Z-0.558
X54.265 Y10.216 Z-0.568
X54.563 Y10.208 Z-0.578
X54.868 Y10.203 Z-0.589
X55.179 Y10.199 Z-0.6
X55.467 Y10.196 Z-0.61
X55.642 Y10.201 Z-0.616
X55.843 Y10.206 Z-0.623
X56.041 Y10.212 Z-0.63
X56.235 Y10.219 Z-0.637
X56.426 Y10.227 Z-0.643
X56.612 Y10.237 Z-0.65
X56.794 Y10.249 Z-0.656
X56.973 Y10.263 Z-0.662
X57.147 Y10.28 Z-0.668
X57.317 Y10.299 Z-0.674
X57.483 Y10.321 Z-0.68
X57.645 Y10.346 Z-0.686
X57.803 Y10.374 Z-0.692
X57.961 Y10.406 Z-0.697
X58.121 Y10.443 Z-0.703
X58.285 Y10.484 Z-0.709
X58.453 Y10.53 Z-0.715
X58.624 Y10.579 Z-0.721
X58.799 Y10.632 Z-0.728
X58.978 Y10.689 Z-0.734
X59.16 Y10.748 Z-0.741
X59.346 Y10.81 Z-0.748
X59.535 Y10.875 Z-0.755
X59.605 Y10.899 Z-0.757
X59.634 Y10.914 Z-0.758
X59.774 Y10.986 Z-0.764
X59.908 Y11.057 Z-0.769
X60.037 Y11.126 Z-0.774
X60.161 Y11.194 Z-0.779
X60.278 Y11.261 Z-0.784
X60.389 Y11.326 Z-0.788
X60.493 Y11.391 Z-0.793
X60.591 Y11.456 Z-0.797
X60.682 Y11.519 Z-0.801
X60.766 Y11.581 Z-0.804
X60.844 Y11.643 Z-0.808
X60.919 Y11.707 Z-0.811
X60.994 Y11.776 Z-0.815
X61.072 Y11.852 Z-0.819
X61.152 Y11.935 Z-0.823
X61.234 Y12.024 Z-0.827
X61.318 Y12.119 Z-0.831
X61.405 Y12.221 Z-0.836
X61.494 Y12.328 Z-0.841
X61.585 Y12.442 Z-0.846
X61.679 Y12.561 Z-0.851
X61.775 Y12.684 Z-0.857
X61.793 Y12.707 Z-0.858
X61.805 Y12.728 Z-0.859
X61.878 Y12.859 Z-0.864
X61.947 Y12.986 Z-0.869
X62.013 Y13.108 Z-0.874
X62.075 Y13.227 Z-0.878
X62.132 Y13.341 Z-0.883
X62.185 Y13.45 Z-0.887
X62.232 Y13.554 Z-0.891
X62.275 Y13.655 Z-0.895
X62.313 Y13.751 Z-0.898
X62.346 Y13.842 Z-0.902
X62.373 Y13.929 Z-0.905
X62.398 Y14.018 Z-0.908
X62.421 Y14.111 Z-0.912
X62.442 Y14.212 Z-0.915
X62.462 Y14.319 Z-0.919
X62.48 Y14.433 Z-0.923
X62.496 Y14.553 Z-0.927
X62.511 Y14.679 Z-0.932
X62.524 Y14.811 Z-0.936
X62.537 Y14.95 Z-0.941
X62.548 Y15.094 Z-0.946
X62.56 Y15.244 Z-0.951
X62.562 Y15.283 Z-0.953
Y15.295
X62.554 Y15.418 Z-0.958
X62.546 Y15.535 Z-0.962
X62.538 Y15.648 Z-0.966
X62.528 Y15.756 Z-0.969
X62.518 Y15.858 Z-0.973
X62.507 Y15.954 Z-0.976
X62.494 Y16.045 Z-0.98
X62.481 Y16.129 Z-0.983
X62.466 Y16.208 Z-0.985
X62.45 Y16.282 Z-0.988
X62.433 Y16.349 Z-0.99
X62.414 Y16.415 Z-0.993
X62.392 Y16.485 Z-0.995
X62.365 Y16.56 Z-0.998
X62.346 Y16.61 Z-1
X62.335 Y16.639 F1000
X62.301 Y16.721
X62.263 Y16.809
X62.22 Y16.902
X62.175 Y16.999
X62.126 Y17.101
X62.073 Y17.206
X62.03 Y17.292
X61.956 Y17.39
X61.877 Y17.494
X61.801 Y17.592
X61.727 Y17.685
X61.655 Y17.772
X61.586 Y17.853
X61.519 Y17.928
X61.454 Y17.997
X61.392 Y18.06
X61.332 Y18.116
X61.272 Y18.17
X61.206 Y18.224
X61.136 Y18.279
X61.059 Y18.335
X60.976 Y18.393
X60.888 Y18.451
X60.794 Y18.511
X60.695 Y18.573
X60.59 Y18.635
X60.48 Y18.7
X60.365 Y18.765
X60.246 Y18.832
X60.218 Y18.848
X60.086 Y18.902
X59.855 Y18.996
X59.625 Y19.089
X59.398 Y19.18
X59.173 Y19.268
X58.949 Y19.353
X58.728 Y19.436
X58.508 Y19.516
X58.29 Y19.591
X58.073 Y19.664
X57.855 Y19.733
X57.635 Y19.799
X57.412 Y19.864
X57.186 Y19.926
X56.958 Y19.987
X56.727 Y20.046
X56.494 Y20.103
X56.259 Y20.16
X56.021 Y20.215
X55.781 Y20.269
X55.539 Y20.323
X55.296 Y20.377
X55.05 Y20.43
X54.82 Y20.48
X54.747 Y20.494
X54.652 Y20.513
X54.554 Y20.532
X54.545 Y20.535
X54.453 Y20.553
X54.442 Y20.556
X54.351 Y20.575
X54.335 Y20.579
X54.244 Y20.599
X54.226 Y20.603
X54.135 Y20.624
X54.114 Y20.629
X54.024 Y20.652
X53.998 Y20.658
X53.908 Y20.682
X53.88 Y20.689
X53.791 Y20.714
X53.76 Y20.723
X53.672 Y20.75
X53.638 Y20.76
X53.55 Y20.788
X53.513 Y20.801
X53.426 Y20.831
X53.387 Y20.845
X53.301 Y20.877
X53.258 Y20.894
X53.173 Y20.928
X53.128 Y20.947
X53.044 Y20.983
X53.004 Y21.001
X52.921 Y21.04
X52.888 Y21.056
X52.805 Y21.096
X52.775 Y21.111
X52.692 Y21.153
X52.667 Y21.167
X52.585 Y21.21
X52.569 Y21.219
X52.487 Y21.264
X52.472 Y21.272
X52.391 Y21.317
X52.382 Y21.322
X52.301 Y21.368
X52.217 Y21.416
G2 X51.863 Y21.681 I0.885 J1.553
G1 X51.832 Y21.71
X51.797 Y21.744
X51.784 Y21.757
X51.754 Y21.787
X51.741 Y21.799
X51.711 Y21.829
X51.689 Y21.853
X51.659 Y21.883
X51.634 Y21.91
X51.606 Y21.941
X51.577 Y21.973
X51.55 Y22.004
X51.514 Y22.047
X51.487 Y22.079
X51.45 Y22.126
X51.425 Y22.159
X51.385 Y22.212
X51.361 Y22.246
X51.314 Y22.315
X51.292 Y22.35
X51.247 Y22.425
X51.227 Y22.46
X51.181 Y22.545
X51.163 Y22.581
X51.121 Y22.669
X51.105 Y22.706
X51.07 Y22.791
X51.056 Y22.829
X51.03 Y22.902
X51.017 Y22.941
X50.996 Y23.011
X50.985 Y23.05
X50.969 Y23.11
X50.959 Y23.151
X50.947 Y23.2
X50.938 Y23.241
X50.93 Y23.281
X50.922 Y23.322
X50.915 Y23.359
X50.908 Y23.401
X50.905 Y23.423
X50.898 Y23.465
X50.895 Y23.482
X50.889 Y23.524
X50.882 Y23.571
G2 X50.875 Y24.04 I1.769 J0.259
G1 X50.882 Y24.094
X50.883 Y24.104
X50.89 Y24.158
X50.891 Y24.172
X50.898 Y24.226
X50.902 Y24.251
X50.91 Y24.304
X50.914 Y24.335
X50.923 Y24.388
X50.931 Y24.431
X50.941 Y24.483
X50.95 Y24.532
X50.962 Y24.584
X50.975 Y24.642
X50.988 Y24.693
X51.007 Y24.761
X51.021 Y24.811
X51.044 Y24.883
X51.061 Y24.932
X51.092 Y25.017
X51.112 Y25.065
X51.149 Y25.153
X51.171 Y25.2
X51.216 Y25.29
X51.24 Y25.336
X51.285 Y25.416
X51.312 Y25.461
X51.359 Y25.534
X51.388 Y25.578
X51.43 Y25.638
X51.461 Y25.68
X51.5 Y25.732
X51.532 Y25.773
X51.566 Y25.815
X51.601 Y25.856
X51.634 Y25.894
X51.669 Y25.935
X51.695 Y25.963
X51.732 Y26.003
X51.753 Y26.025
X51.79 Y26.064
X51.805 Y26.079
X51.843 Y26.118
X51.856 Y26.132
X51.895 Y26.17
X51.938 Y26.214
G2 X52.275 Y26.476 I1.259 J-1.269
G1 X52.337 Y26.513
X52.407 Y26.555
X52.419 Y26.562
X52.481 Y26.599
X52.499 Y26.609
X52.562 Y26.645
X52.587 Y26.659
X52.65 Y26.693
X52.68 Y26.71
X52.744 Y26.743
X52.782 Y26.763
X52.846 Y26.794
X52.891 Y26.815
X52.956 Y26.845
X53.011 Y26.869
X53.076 Y26.897
X53.135 Y26.92
X53.201 Y26.945
X53.27 Y26.97
X53.337 Y26.992
X53.41 Y27.015
X53.478 Y27.034
X53.545 Y27.052
X53.614 Y27.068
X53.677 Y27.083
X53.747 Y27.097
X53.804 Y27.108
X53.874 Y27.12
X53.925 Y27.128
X53.995 Y27.138
X54.039 Y27.143
X54.11 Y27.152
X54.151 Y27.156
X54.222 Y27.163
X54.255 Y27.165
X54.327 Y27.171
X54.357 Y27.173
X54.43 Y27.177
X54.45 Y27.178
X54.522 Y27.181
X54.54 Y27.182
X54.612 Y27.185
X54.695 Y27.188
X54.775 Y27.19
X54.896 Y27.189
X54.988 Y27.185
X55.087 Y27.181
X55.098 Y27.18
X55.191 Y27.176
X55.209 Y27.175
X55.301 Y27.169
X55.322 Y27.168
X55.414 Y27.161
X55.444 Y27.159
X55.535 Y27.151
X55.569 Y27.148
X55.66 Y27.138
X55.702 Y27.133
X55.792 Y27.121
X55.836 Y27.114
X55.926 Y27.1
X55.981 Y27.091
X56.069 Y27.074
X56.126 Y27.062
X56.214 Y27.043
X56.28 Y27.026
X56.367 Y27.003
X56.435 Y26.984
X56.52 Y26.958
X56.595 Y26.933
X56.679 Y26.903
X56.745 Y26.878
X56.828 Y26.845
X56.886 Y26.82
X56.968 Y26.784
X57.02 Y26.76
X57.102 Y26.721
X57.146 Y26.699
X57.227 Y26.657
X57.264 Y26.638
X57.344 Y26.594
X57.373 Y26.578
X57.452 Y26.532
X57.476 Y26.519
X57.555 Y26.472
X57.573 Y26.461
X57.652 Y26.413
X57.663 Y26.406
X57.742 Y26.358
X57.827 Y26.305
G2 X58.208 Y25.986 I-0.945 J-1.518
G1 X58.272 Y25.916
X58.34 Y25.84
X58.35 Y25.829
X58.412 Y25.758
X58.425 Y25.743
X58.487 Y25.671
X58.506 Y25.649
X58.566 Y25.577
X58.587 Y25.55
X58.646 Y25.478
X58.673 Y25.442
X58.73 Y25.368
X58.759 Y25.329
X58.813 Y25.253
X58.847 Y25.204
X58.898 Y25.128
X58.933 Y25.073
X58.982 Y24.995
X59.02 Y24.929
X59.065 Y24.849
X59.101 Y24.781
X59.143 Y24.699
X59.15 Y24.685
X61.43 Y24.819
X61.397 Y24.888
X61.339 Y24.994
X61.274 Y25.1
X61.199 Y25.21
X61.113 Y25.325
X61.016 Y25.445
X60.907 Y25.57
X60.789 Y25.699
X60.661 Y25.832
X60.524 Y25.97
X60.378 Y26.113
X60.252 Y26.234
X60.036 Y26.344
X59.82 Y26.452
X59.609 Y26.555
X59.403 Y26.651
X59.202 Y26.741
X59.007 Y26.824
X58.816 Y26.899
X58.629 Y26.967
X58.448 Y27.026
X58.269 Y27.077
X58.087 Y27.122
X57.898 Y27.161
X57.702 Y27.196
X57.5 Y27.227
X57.291 Y27.252
X57.075 Y27.274
X56.853 Y27.292
X56.624 Y27.307
X56.39 Y27.319
X56.15 Y27.328
X55.905 Y27.336
X55.653 Y27.342
X55.433 Y27.348
X55.259 Y27.345
X55.052 Y27.341
X54.851 Y27.337
X54.652 Y27.332
X54.457 Y27.325
X54.266 Y27.317
X54.078 Y27.307
X53.894 Y27.295
X53.714 Y27.28
X53.538 Y27.263
X53.366 Y27.243
X53.198 Y27.219
X53.034 Y27.193
X52.871 Y27.163
X52.706 Y27.128
X52.539 Y27.089
X52.367 Y27.046
X52.192 Y26.998
X52.013 Y26.947
X51.83 Y26.893
X51.644 Y26.835
X51.454 Y26.775
X51.259 Y26.713
X51.188 Y26.689
X51.176 Y26.684
X51.051 Y26.621
X50.931 Y26.56
X50.816 Y26.501
X50.707 Y26.443
X50.603 Y26.386
X50.506 Y26.33
X50.415 Y26.275
X50.33 Y26.221
X50.251 Y26.169
X50.179 Y26.117
X50.113 Y26.066
X50.051 Y26.015
X49.988 Y25.96
X49.923 Y25.899
X49.855 Y25.831
X49.785 Y25.757
X49.712 Y25.677
X49.636 Y25.59
X49.558 Y25.498
X49.477 Y25.4
X49.392 Y25.297
X49.306 Y25.189
X49.25 Y25.091
X49.193 Y24.988
X49.14 Y24.89
X49.091 Y24.796
X49.045 Y24.707
X49.004 Y24.622
X48.967 Y24.542
X48.934 Y24.467
X48.906 Y24.396
X48.882 Y24.33
X48.861 Y24.268
X48.843 Y24.206
X48.827 Y24.14
X48.811 Y24.067
X48.795 Y23.987
X48.781 Y23.902
X48.768 Y23.81
X48.756 Y23.711
X48.745 Y23.607
X48.734 Y23.496
X48.724 Y23.38
X48.716 Y23.286
X48.719 Y23.26
X48.737 Y23.085
X48.755 Y22.919
X48.774 Y22.762
X48.795 Y22.614
X48.817 Y22.475
X48.841 Y22.348
X48.867 Y22.231
X48.895 Y22.125
X48.924 Y22.03
X48.954 Y21.946
X48.986 Y21.871
X49.021 Y21.798
X49.063 Y21.721
X49.115 Y21.637
X49.176 Y21.547
X49.247 Y21.45
X49.326 Y21.348
X49.414 Y21.241
X49.512 Y21.128
X49.617 Y21.01
X49.73 Y20.887
X49.83 Y20.779
X49.874 Y20.75
X50.09 Y20.609
X50.303 Y20.472
X50.512 Y20.34
X50.718 Y20.213
X50.921 Y20.091
X51.121 Y19.976
X51.318 Y19.868
X51.512 Y19.768
X51.705 Y19.674
X51.898 Y19.587
X52.096 Y19.505
X52.3 Y19.425
X52.51 Y19.35
X52.725 Y19.277
X52.946 Y19.207
X53.173 Y19.14
X53.405 Y19.075
X53.641 Y19.011
X53.882 Y18.95
X54.128 Y18.889
X54.379 Y18.828
X54.633 Y18.768
X54.868 Y18.713
X54.985 Y18.689
X55.129 Y18.659
X55.274 Y18.628
X55.422 Y18.595
X55.435 Y18.593
X55.574 Y18.561
X55.59 Y18.557
X55.728 Y18.525
X55.745 Y18.521
X55.883 Y18.487
X55.907 Y18.481
X56.044 Y18.445
X56.067 Y18.439
X56.204 Y18.402
X56.231 Y18.394
X56.367 Y18.354
X56.398 Y18.345
X56.533 Y18.303
X56.568 Y18.291
X56.701 Y18.247
X56.736 Y18.235
X56.868 Y18.187
X56.908 Y18.173
X57.04 Y18.122
X57.082 Y18.105
X57.212 Y18.052
X57.255 Y18.033
X57.384 Y17.976
X57.421 Y17.958
X57.549 Y17.898
X57.582 Y17.882
X57.709 Y17.818
X57.737 Y17.804
X57.862 Y17.739
X57.886 Y17.726
X58.011 Y17.659
X58.028 Y17.649
X58.152 Y17.58
X58.167 Y17.572
X58.29 Y17.502
X58.422 Y17.426
X58.549 Y17.353
G2 X58.938 Y17.049 I-0.895 J-1.547
G1 X58.985 Y17
X59.038 Y16.946
X59.047 Y16.936
X59.094 Y16.887
X59.109 Y16.87
X59.155 Y16.821
X59.174 Y16.8
X59.219 Y16.75
X59.242 Y16.723
X59.286 Y16.673
X59.316 Y16.637
X59.358 Y16.585
X59.391 Y16.544
X59.431 Y16.491
X59.466 Y16.445
X59.504 Y16.391
X59.544 Y16.333
X59.58 Y16.278
X59.621 Y16.213
X59.654 Y16.157
X59.696 Y16.083
X59.727 Y16.026
X59.771 Y15.939
X59.798 Y15.881
X59.835 Y15.796
X59.859 Y15.736
X59.889 Y15.656
X59.911 Y15.595
X59.935 Y15.521
X59.954 Y15.458
X59.973 Y15.393
X59.989 Y15.329
X60.003 Y15.274
X60.018 Y15.209
X60.028 Y15.162
X60.041 Y15.097
X60.049 Y15.054
X60.061 Y14.988
X60.065 Y14.96
X60.076 Y14.894
X60.08 Y14.868
X60.089 Y14.801
X60.092 Y14.785
X60.101 Y14.717
X60.111 Y14.642
G2 Y14.181 I-1.772 J-0.231
G1 X60.102 Y14.111
X60.091 Y14.033
X60.089 Y14.019
X60.079 Y13.95
X60.076 Y13.923
X60.065 Y13.854
X60.059 Y13.821
X60.047 Y13.753
X60.04 Y13.713
X60.026 Y13.644
X60.016 Y13.597
X60.001 Y13.53
X59.986 Y13.471
X59.968 Y13.404
X59.95 Y13.34
X59.93 Y13.275
X59.906 Y13.201
X59.883 Y13.137
X59.852 Y13.054
X59.826 Y12.992
X59.787 Y12.904
X59.759 Y12.843
X59.715 Y12.757
X59.683 Y12.698
X59.638 Y12.62
X59.603 Y12.563
X59.561 Y12.497
X59.523 Y12.44
X59.481 Y12.38
X59.44 Y12.325
X59.404 Y12.278
X59.362 Y12.224
X59.327 Y12.181
X59.283 Y12.128
X59.253 Y12.093
X59.207 Y12.04
X59.182 Y12.013
X59.135 Y11.961
X59.114 Y11.939
X59.065 Y11.888
X59.051 Y11.874
X59.002 Y11.823
X58.991 Y11.811
X58.941 Y11.761
X58.884 Y11.704
G2 X58.587 Y11.465 I-1.264 J1.264
G1 X58.509 Y11.415
X58.424 Y11.361
X58.414 Y11.354
X58.336 Y11.305
X58.317 Y11.294
X58.239 Y11.246
X58.215 Y11.232
X58.136 Y11.186
X58.105 Y11.168
X58.025 Y11.123
X57.988 Y11.103
X57.908 Y11.06
X57.863 Y11.037
X57.782 Y10.998
X57.729 Y10.972
X57.647 Y10.935
X57.586 Y10.909
X57.503 Y10.875
X57.435 Y10.849
X57.351 Y10.818
X57.275 Y10.793
X57.19 Y10.766
X57.117 Y10.745
X57.031 Y10.722
X56.968 Y10.707
X56.88 Y10.687
X56.818 Y10.674
X56.729 Y10.657
X56.678 Y10.648
X56.589 Y10.634
X56.539 Y10.627
X56.449 Y10.615
X56.409 Y10.61
X56.318 Y10.6
X56.284 Y10.597
X56.193 Y10.589
X56.161 Y10.587
X56.07 Y10.58
X56.048 Y10.579
X55.956 Y10.573
X55.938
X55.846 Y10.568
X55.835
X55.742 Y10.564
X55.644 Y10.56
X55.542 Y10.559
X55.439 Y10.564
X55.307 Y10.574
X55.168 Y10.586
X55.151 Y10.587
X55.019 Y10.599
X54.997 Y10.601
X54.866 Y10.615
X54.836 Y10.618
X54.706 Y10.633
X54.665 Y10.639
X54.536 Y10.657
X54.49 Y10.665
X54.363 Y10.686
X54.306 Y10.697
X54.18 Y10.723
X54.116 Y10.737
X53.992 Y10.767
X53.92 Y10.786
X53.799 Y10.821
X53.718 Y10.847
X53.599 Y10.887
X53.51 Y10.92
X53.394 Y10.966
X53.298 Y11.008
X53.185 Y11.061
X53.095 Y11.107
X52.985 Y11.166
X52.904 Y11.213
X52.797 Y11.278
X52.727 Y11.324
X52.622 Y11.395
X52.563 Y11.436
X52.461 Y11.512
X52.412 Y11.549
X52.311 Y11.629
X52.269 Y11.663
X52.17 Y11.746
X52.138 Y11.774
X52.04 Y11.861
X52.015 Y11.884
X51.918 Y11.973
X51.9 Y11.989
X51.805 Y12.08
X51.792 Y12.092
X51.697 Y12.183
X51.596 Y12.282
G2 X51.312 Y12.639 I1.246 J1.281
G1 X51.261 Y12.723
X51.209 Y12.81
X51.202 Y12.821
X51.152 Y12.905
X51.144 Y12.92
X51.095 Y13.005
X51.085 Y13.022
X51.037 Y13.107
X51.024 Y13.131
X50.977 Y13.216
X50.961 Y13.246
X50.916 Y13.332
X50.899 Y13.367
X50.855 Y13.454
X50.837 Y13.493
X50.796 Y13.581
X50.776 Y13.625
X50.738 Y13.714
X50.717 Y13.764
X50.681 Y13.854
X50.674 Y13.873
X48.339 Y13.726
X48.352 Y13.687
X48.407 Y13.537
X48.466 Y13.396
X48.53 Y13.259
X48.602 Y13.12
X48.683 Y12.978
X48.773 Y12.832
X48.872 Y12.682
X48.98 Y12.527
X49.097 Y12.368
X49.221 Y12.205
X49.352 Y12.039
X49.489 Y11.868
X49.6 Y11.732
X49.623 Y11.717
X49.881 Y11.554
X50.133 Y11.399
X50.379 Y11.251
X50.619 Y11.113
X50.853 Y10.985
X51.082 Y10.868
X51.304 Y10.764
X51.521 Y10.672
X51.734 Y10.592
X51.948 Y10.523
X52.169 Y10.462
X52.4 Y10.409
X52.64 Y10.363
X52.89 Y10.324
X53.148 Y10.292
X53.415 Y10.265
X53.691 Y10.244
X53.974 Y10.228
X54.265 Y10.216
X54.563 Y10.208
X54.868 Y10.203
X55.179 Y10.199
X55.467 Y10.196
X55.642 Y10.201
X55.843 Y10.206
X56.041 Y10.212
X56.235 Y10.219
X56.426 Y10.227
X56.612 Y10.237
X56.794 Y10.249
X56.973 Y10.263
X57.147 Y10.28
X57.317 Y10.299
X57.483 Y10.321
X57.645 Y10.346
X57.803 Y10.374
X57.961 Y10.406
X58.121 Y10.443
X58.285 Y10.484
X58.453 Y10.53
X58.624 Y10.579
X58.799 Y10.632
X58.978 Y10.689
X59.16 Y10.748
X59.346 Y10.81
X59.535 Y10.875
X59.605 Y10.899
X59.634 Y10.914
X59.774 Y10.986
X59.908 Y11.057
X60.037 Y11.126
X60.161 Y11.194
X60.278 Y11.261
X60.389 Y11.326
X60.493 Y11.391
X60.591 Y11.456
X60.682 Y11.519
X60.766 Y11.581
X60.844 Y11.643
X60.919 Y11.707
X60.994 Y11.776
X61.072 Y11.852
X61.152 Y11.935
X61.234 Y12.024
X61.318 Y12.119
X61.405 Y12.221
X61.494 Y12.328
X61.585 Y12.442
X61.679 Y12.561
X61.775 Y12.684
X61.793 Y12.707
X61.805 Y12.728
X61.878 Y12.859
X61.947 Y12.986
X62.013 Y13.108
X62.075 Y13.227
X62.132 Y13.341
X62.185 Y13.45
X62.232 Y13.554
X62.275 Y13.655
X62.313 Y13.751
X62.346 Y13.842
X62.373 Y13.929
X62.398 Y14.018
X62.421 Y14.111
X62.442 Y14.212
X62.462 Y14.319
X62.48 Y14.433
X62.496 Y14.553
X62.511 Y14.679
X62.524 Y14.811
X62.537 Y14.95
X62.548 Y15.094
X62.56 Y15.244
X62.562 Y15.283
Y15.295
X62.554 Y15.418
X62.546 Y15.535
X62.538 Y15.648
X62.528 Y15.756
X62.518 Y15.858
X62.507 Y15.954
X62.494 Y16.045
X62.481 Y16.129
X62.466 Y16.208
X62.45 Y16.282
X62.433 Y16.349
X62.414 Y16.415
X62.392 Y16.485
X62.365 Y16.56
X62.346 Y16.61
X62.335 Y16.639 Z-1.001 F333.3
X62.301 Y16.721 Z-1.004
X62.263 Y16.809 Z-1.008
X62.22 Y16.902 Z-1.011
X62.175 Y16.999 Z-1.015
X62.126 Y17.101 Z-1.019
X62.073 Y17.206 Z-1.023
X62.03 Y17.292 Z-1.026
X61.956 Y17.39 Z-1.031
X61.877 Y17.494 Z-1.035
X61.801 Y17.592 Z-1.039
X61.727 Y17.685 Z-1.044
X61.655 Y17.772 Z-1.048
X61.586 Y17.853 Z-1.051
X61.519 Y17.928 Z-1.055
X61.454 Y17.997 Z-1.058
X61.392 Y18.06 Z-1.061
X61.332 Y18.116 Z-1.064
X61.272 Y18.17 Z-1.067
X61.206 Y18.224 Z-1.07
X61.136 Y18.279 Z-1.073
X61.059 Y18.335 Z-1.076
X60.976 Y18.393 Z-1.08
X60.888 Y18.451 Z-1.083
X60.794 Y18.511 Z-1.087
X60.695 Y18.573 Z-1.091
X60.59 Y18.635 Z-1.096
X60.48 Y18.7 Z-1.1
X60.365 Y18.765 Z-1.105
X60.246 Y18.832 Z-1.11
X60.218 Y18.848 Z-1.111
X60.086 Y18.902 Z-1.116
X59.855 Y18.996 Z-1.124
X59.625 Y19.089 Z-1.133
X59.398 Y19.18 Z-1.142
X59.173 Y19.268 Z-1.15
X58.949 Y19.353 Z-1.158
X58.728 Y19.436 Z-1.167
X58.508 Y19.516 Z-1.175
X58.29 Y19.591 Z-1.183
X58.073 Y19.664 Z-1.191
X57.855 Y19.733 Z-1.199
X57.635 Y19.799 Z-1.207
X57.412 Y19.864 Z-1.215
X57.186 Y19.926 Z-1.223
X56.958 Y19.987 Z-1.231
X56.727 Y20.046 Z-1.24
X56.494 Y20.103 Z-1.248
X56.259 Y20.16 Z-1.257
X56.021 Y20.215 Z-1.265
X55.781 Y20.269 Z-1.274
X55.539 Y20.323 Z-1.282
X55.296 Y20.377 Z-1.291
X55.05 Y20.43 Z-1.3
X54.82 Y20.48 Z-1.308
X54.747 Y20.494 Z-1.311
X54.652 Y20.513 Z-1.314
X54.554 Y20.532 Z-1.317
X54.545 Y20.535 Z-1.318
X54.453 Y20.553 Z-1.321
X54.442 Y20.556
X54.351 Y20.575 Z-1.325
X54.335 Y20.579
X54.244 Y20.599 Z-1.329
X54.226 Y20.603
X54.135 Y20.624 Z-1.332
X54.114 Y20.629 Z-1.333
X54.024 Y20.652 Z-1.336
X53.998 Y20.658 Z-1.337
X53.908 Y20.682 Z-1.341
X53.88 Y20.689 Z-1.342
X53.791 Y20.714 Z-1.345
X53.76 Y20.723 Z-1.346
X53.672 Y20.75 Z-1.349
X53.638 Y20.76 Z-1.35
X53.55 Y20.788 Z-1.354
X53.513 Y20.801 Z-1.355
X53.426 Y20.831 Z-1.358
X53.387 Y20.845 Z-1.36
X53.301 Y20.877 Z-1.363
X53.258 Y20.894 Z-1.365
X53.173 Y20.928 Z-1.368
X53.128 Y20.947 Z-1.369
X53.044 Y20.983 Z-1.373
X53.004 Y21.001 Z-1.374
X52.921 Y21.04 Z-1.377
X52.888 Y21.056 Z-1.379
X52.805 Y21.096 Z-1.382
X52.775 Y21.111 Z-1.383
X52.692 Y21.153 Z-1.386
X52.667 Y21.167 Z-1.387
X52.585 Y21.21 Z-1.39
X52.569 Y21.219 Z-1.391
X52.487 Y21.264 Z-1.394
X52.472 Y21.272 Z-1.395
X52.391 Y21.317 Z-1.398
X52.382 Y21.322 Z-1.399
X52.301 Y21.368 Z-1.402
X52.217 Y21.416 Z-1.405
G2 X51.863 Y21.681 Z-1.421 I0.885 J1.553
G1 X51.832 Y21.71 Z-1.422
X51.797 Y21.744 Z-1.424
X51.784 Y21.757 Z-1.425
X51.754 Y21.787 Z-1.426
X51.741 Y21.799 Z-1.427
X51.711 Y21.829 Z-1.428
X51.689 Y21.853 Z-1.429
X51.659 Y21.883 Z-1.431
X51.634 Y21.91 Z-1.432
X51.606 Y21.941 Z-1.433
X51.577 Y21.973 Z-1.435
X51.55 Y22.004 Z-1.436
X51.514 Y22.047 Z-1.438
X51.487 Y22.079 Z-1.44
X51.45 Y22.126 Z-1.442
X51.425 Y22.159 Z-1.443
X51.385 Y22.212 Z-1.446
X51.361 Y22.246 Z-1.447
X51.314 Y22.315 Z-1.45
X51.292 Y22.35 Z-1.451
X51.247 Y22.425 Z-1.455
X51.227 Y22.46 Z-1.456
X51.181 Y22.545 Z-1.459
X51.163 Y22.581 Z-1.461
X51.121 Y22.669 Z-1.464
X51.105 Y22.706 Z-1.466
X51.07 Y22.791 Z-1.469
X51.056 Y22.829 Z-1.47
X51.03 Y22.902 Z-1.473
X51.017 Y22.941 Z-1.474
X50.996 Y23.011 Z-1.477
X50.985 Y23.05 Z-1.478
X50.969 Y23.11 Z-1.48
X50.959 Y23.151 Z-1.482
X50.947 Y23.2 Z-1.484
X50.938 Y23.241 Z-1.485
X50.93 Y23.281 Z-1.487
X50.922 Y23.322 Z-1.488
X50.915 Y23.359 Z-1.489
X50.908 Y23.401 Z-1.491
X50.905 Y23.423 Z-1.492
X50.898 Y23.465 Z-1.493
X50.895 Y23.482 Z-1.494
X50.889 Y23.524 Z-1.495
X50.882 Y23.571 Z-1.497
G2 X50.875 Y24.04 Z-1.513 I1.769 J0.259
G1 X50.882 Y24.094 Z-1.515
X50.883 Y24.104 Z-1.516
X50.89 Y24.158 Z-1.517
X50.891 Y24.172 Z-1.518
X50.898 Y24.226 Z-1.52
X50.902 Y24.251 Z-1.521
X50.91 Y24.304 Z-1.523
X50.914 Y24.335 Z-1.524
X50.923 Y24.388 Z-1.526
X50.931 Y24.431 Z-1.527
X50.941 Y24.483 Z-1.529
X50.95 Y24.532 Z-1.531
X50.962 Y24.584 Z-1.533
X50.975 Y24.642 Z-1.535
X50.988 Y24.693 Z-1.536
X51.007 Y24.761 Z-1.539
X51.021 Y24.811 Z-1.541
X51.044 Y24.883 Z-1.543
X51.061 Y24.932 Z-1.545
X51.092 Y25.017 Z-1.548
X51.112 Y25.065 Z-1.55
X51.149 Y25.153 Z-1.553
X51.171 Y25.2 Z-1.555
X51.216 Y25.29 Z-1.559
X51.24 Y25.336 Z-1.561
X51.285 Y25.416 Z-1.564
X51.312 Y25.461 Z-1.566
X51.359 Y25.534 Z-1.569
X51.388 Y25.578 Z-1.571
X51.43 Y25.638 Z-1.573
X51.461 Y25.68 Z-1.575
X51.5 Y25.732 Z-1.577
X51.532 Y25.773 Z-1.579
X51.566 Y25.815 Z-1.581
X51.601 Y25.856 Z-1.583
X51.634 Y25.894 Z-1.585
X51.669 Y25.935 Z-1.586
X51.695 Y25.963 Z-1.588
X51.732 Y26.003 Z-1.59
X51.753 Y26.025 Z-1.591
X51.79 Y26.064 Z-1.593
X51.805 Y26.079
X51.843 Y26.118 Z-1.595
X51.856 Y26.132 Z-1.596
X51.895 Y26.17 Z-1.598
X51.938 Y26.214 Z-1.6
G2 X52.275 Y26.476 Z-1.615 I1.259 J-1.269
G1 X52.337 Y26.513 Z-1.617
X52.407 Y26.555 Z-1.62
X52.419 Y26.562 Z-1.621
X52.481 Y26.599 Z-1.623
X52.499 Y26.609 Z-1.624
X52.562 Y26.645 Z-1.627
X52.587 Y26.659 Z-1.628
X52.65 Y26.693 Z-1.63
X52.68 Y26.71 Z-1.631
X52.744 Y26.743 Z-1.634
X52.782 Y26.763 Z-1.635
X52.846 Y26.794 Z-1.638
X52.891 Y26.815 Z-1.639
X52.956 Y26.845 Z-1.642
X53.011 Y26.869 Z-1.644
X53.076 Y26.897 Z-1.647
X53.135 Y26.92 Z-1.649
X53.201 Y26.945 Z-1.651
X53.27 Y26.97 Z-1.654
X53.337 Y26.992 Z-1.656
X53.41 Y27.015 Z-1.659
X53.478 Y27.034 Z-1.661
X53.545 Y27.052 Z-1.664
X53.614 Y27.068 Z-1.666
X53.677 Y27.083 Z-1.669
X53.747 Y27.097 Z-1.671
X53.804 Y27.108 Z-1.673
X53.874 Y27.12 Z-1.676
X53.925 Y27.128 Z-1.677
X53.995 Y27.138 Z-1.68
X54.039 Y27.143 Z-1.681
X54.11 Y27.152 Z-1.684
X54.151 Y27.156 Z-1.685
X54.222 Y27.163 Z-1.688
X54.255 Y27.165 Z-1.689
X54.327 Y27.171 Z-1.691
X54.357 Y27.173 Z-1.693
X54.43 Y27.177 Z-1.695
X54.45 Y27.178 Z-1.696
X54.522 Y27.181 Z-1.698
X54.54 Y27.182 Z-1.699
X54.612 Y27.185 Z-1.701
X54.695 Y27.188 Z-1.704
X54.775 Y27.19 Z-1.707
X54.896 Y27.189 Z-1.711
X54.988 Y27.185 Z-1.715
X55.087 Y27.181 Z-1.718
X55.098 Y27.18
X55.191 Y27.176 Z-1.722
X55.209 Y27.175
X55.301 Y27.169 Z-1.725
X55.322 Y27.168 Z-1.726
X55.414 Y27.161 Z-1.729
X55.444 Y27.159 Z-1.73
X55.535 Y27.151 Z-1.734
X55.569 Y27.148 Z-1.735
X55.66 Y27.138 Z-1.738
X55.702 Y27.133 Z-1.74
X55.792 Y27.121 Z-1.743
X55.836 Y27.114 Z-1.744
X55.926 Y27.1 Z-1.747
X55.981 Y27.091 Z-1.749
X56.069 Y27.074 Z-1.753
X56.126 Y27.062 Z-1.755
X56.214 Y27.043 Z-1.758
X56.28 Y27.026 Z-1.76
X56.367 Y27.003 Z-1.763
X56.435 Y26.984 Z-1.766
X56.52 Y26.958 Z-1.769
X56.595 Y26.933 Z-1.772
X56.679 Y26.903 Z-1.775
X56.745 Y26.878 Z-1.777
X56.828 Y26.845 Z-1.78
X56.886 Y26.82 Z-1.782
X56.968 Y26.784 Z-1.786
X57.02 Y26.76 Z-1.788
X57.102 Y26.721 Z-1.791
X57.146 Y26.699 Z-1.792
X57.227 Y26.657 Z-1.796
X57.264 Y26.638 Z-1.797
X57.344 Y26.594 Z-1.8
X57.373 Y26.578 Z-1.801
X57.452 Y26.532 Z-1.805
X57.476 Y26.519 Z-1.806
X57.555 Y26.472 Z-1.809
X57.573 Y26.461 Z-1.81
X57.652 Y26.413 Z-1.813
X57.663 Y26.406
X57.742 Y26.358 Z-1.816
X57.827 Y26.305 Z-1.82
G2 X58.208 Y25.986 Z-1.837 I-0.945 J-1.518
G1 X58.272 Y25.916 Z-1.841
X58.34 Y25.84 Z-1.844
X58.35 Y25.829 Z-1.845
X58.412 Y25.758 Z-1.848
X58.425 Y25.743 Z-1.849
X58.487 Y25.671 Z-1.852
X58.506 Y25.649 Z-1.853
X58.566 Y25.577 Z-1.856
X58.587 Y25.55 Z-1.858
X58.646 Y25.478 Z-1.861
X58.673 Y25.442 Z-1.862
X58.73 Y25.368 Z-1.866
X58.759 Y25.329 Z-1.867
X58.813 Y25.253 Z-1.871
X58.847 Y25.204 Z-1.873
X58.898 Y25.128 Z-1.876
X58.933 Y25.073 Z-1.878
X58.982 Y24.995 Z-1.881
X59.02 Y24.929 Z-1.884
X59.065 Y24.849 Z-1.887
X59.101 Y24.781 Z-1.89
X59.143 Y24.699 Z-1.893
X59.15 Y24.685 Z-1.894
X61.43 Y24.819 Z-1.973
X61.397 Y24.888 Z-1.976
X61.339 Y24.994 Z-1.98
X61.274 Y25.1 Z-1.985
X61.199 Y25.21 Z-1.989
X61.113 Y25.325 Z-1.994
X61.016 Y25.445 Z-2
X61.011 Y25.45
X60.907 Y25.57 F1000
X60.789 Y25.699
X60.661 Y25.832
X60.524 Y25.97
X60.378 Y26.113
X60.252 Y26.234
X60.036 Y26.344
X59.82 Y26.452
X59.609 Y26.555
X59.403 Y26.651
X59.202 Y26.741
X59.007 Y26.824
X58.816 Y26.899
X58.629 Y26.967
X58.448 Y27.026
X58.269 Y27.077
X58.087 Y27.122
X57.898 Y27.161
X57.702 Y27.196
X57.5 Y27.227
X57.291 Y27.252
X57.075 Y27.274
X56.853 Y27.292
X56.624 Y27.307
X56.39 Y27.319
X56.15 Y27.328
X55.905 Y27.336
X55.653 Y27.342
X55.433 Y27.348
X55.259 Y27.345
X55.052 Y27.341
X54.851 Y27.337
X54.652 Y27.332
X54.457 Y27.325
X54.266 Y27.317
X54.078 Y27.307
X53.894 Y27.295
X53.714 Y27.28
X53.538 Y27.263
X53.366 Y27.243
X53.198 Y27.219
X53.034 Y27.193
X52.871 Y27.163
X52.706 Y27.128
X52.539 Y27.089
X52.367 Y27.046
X52.192 Y26.998
X52.013 Y26.947
X51.83 Y26.893
X51.644 Y26.835
X51.454 Y26.775
X51.259 Y26.713
X51.188 Y26.689
X51.176 Y26.684
X51.051 Y26.621
X50.931 Y26.56
X50.816 Y26.501
X50.707 Y26.443
X50.603 Y26.386
X50.506 Y26.33
X50.415 Y26.275
X50.33 Y26.221
X50.251 Y26.169
X50.179 Y26.117
X50.113 Y26.066
X50.051 Y26.015
X49.988 Y25.96
X49.923 Y25.899
X49.855 Y25.831
X49.785 Y25.757
X49.712 Y25.677
X49.636 Y25.59
X49.558 Y25.498
X49.477 Y25.4
X49.392 Y25.297
X49.306 Y25.189
X49.25 Y25.091
X49.193 Y24.988
X49.14 Y24.89
X49.091 Y24.796
X49.045 Y24.707
X49.004 Y24.622
X48.967 Y24.542
X48.934 Y24.467
X48.906 Y24.396
X48.882 Y24.33
X48.861 Y24.268
X48.843 Y24.206
X48.827 Y24.14
X48.811 Y24.067
X48.795 Y23.987
X48.781 Y23.902
X48.768 Y23.81
X48.756 Y23.711
X48.745 Y23.607
X48.734 Y23.496
X48.724 Y23.38
X48.716 Y23.286
X48.719 Y23.26
X48.737 Y23.085
X48.755 Y22.919
X48.774 Y22.762
X48.795 Y22.614
X48.817 Y22.475
X48.841 Y22.348
X48.867 Y22.231
X48.895 Y22.125
X48.924 Y22.03
X48.954 Y21.946
X48.986 Y21.871
X49.021 Y21.798
X49.063 Y21.721
X49.115 Y21.637
X49.176 Y21.547
X49.247 Y21.45
X49.326 Y21.348
X49.414 Y21.241
X49.512 Y21.128
X49.617 Y21.01
X49.73 Y20.887
X49.83 Y20.779
X49.874 Y20.75
X50.09 Y20.609
X50.303 Y20.472
X50.512 Y20.34
X50.718 Y20.213
X50.921 Y20.091
X51.121 Y19.976
X51.318 Y19.868
X51.512 Y19.768
X51.705 Y19.674
X51.898 Y19.587
X52.096 Y19.505
X52.3 Y19.425
X52.51 Y19.35
X52.725 Y19.277
X52.946 Y19.207
X53.173 Y19.14
X53.405 Y19.075
X53.641 Y19.011
X53.882 Y18.95
X54.128 Y18.889
X54.379 Y18.828
X54.633 Y18.768
X54.868 Y18.713
X54.985 Y18.689
X55.129 Y18.659
X55.274 Y18.628
X55.422 Y18.595
X55.435 Y18.593
X55.574 Y18.561
X55.59 Y18.557
X55.728 Y18.525
X55.745 Y18.521
X55.883 Y18.487
X55.907 Y18.481
X56.044 Y18.445
X56.067 Y18.439
X56.204 Y18.402
X56.231 Y18.394
X56.367 Y18.354
X56.398 Y18.345
X56.533 Y18.303
X56.568 Y18.291
X56.701 Y18.247
X56.736 Y18.235
X56.868 Y18.187
X56.908 Y18.173
X57.04 Y18.122
X57.082 Y18.105
X57.212 Y18.052
X57.255 Y18.033
X57.384 Y17.976
X57.421 Y17.958
X57.549 Y17.898
X57.582 Y17.882
X57.709 Y17.818
X57.737 Y17.804
X57.862 Y17.739
X57.886 Y17.726
X58.011 Y17.659
X58.028 Y17.649
X58.152 Y17.58
X58.167 Y17.572
X58.29 Y17.502
X58.422 Y17.426
X58.549 Y17.353
G2 X58.938 Y17.049 I-0.895 J-1.547
G1 X58.985 Y17
X59.038 Y16.946
X59.047 Y16.936
X59.094 Y16.887
X59.109 Y16.87
X59.155 Y16.821
X59.174 Y16.8
X59.219 Y16.75
X59.242 Y16.723
X59.286 Y16.673
X59.316 Y16.637
X59.358 Y16.585
X59.391 Y16.544
X59.431 Y16.491
X59.466 Y16.445
X59.504 Y16.391
X59.544 Y16.333
X59.58 Y16.278
X59.621 Y16.213
X59.654 Y16.157
X59.696 Y16.083
X59.727 Y16.026
X59.771 Y15.939
X59.798 Y15.881
X59.835 Y15.796
X59.859 Y15.736
X59.889 Y15.656
X59.911 Y15.595
X59.935 Y15.521
X59.954 Y15.458
X59.973 Y15.393
X59.989 Y15.329
X60.003 Y15.274
X60.018 Y15.209
X60.028 Y15.162
X60.041 Y15.097
X60.049 Y15.054
X60.061 Y14.988
X60.065 Y14.96
X60.076 Y14.894
X60.08 Y14.868
X60.089 Y14.801
X60.092 Y14.785
X60.101 Y14.717
X60.111 Y14.642
G2 Y14.181 I-1.772 J-0.231
G1 X60.102 Y14.111
X60.091 Y14.033
X60.089 Y14.019
X60.079 Y13.95
X60.076 Y13.923
X60.065 Y13.854
X60.059 Y13.821
X60.047 Y13.753
X60.04 Y13.713
X60.026 Y13.644
X60.016 Y13.597
X60.001 Y13.53
X59.986 Y13.471
X59.968 Y13.404
X59.95 Y13.34
X59.93 Y13.275
X59.906 Y13.201
X59.883 Y13.137
X59.852 Y13.054
X59.826 Y12.992
X59.787 Y12.904
X59.759 Y12.843
X59.715 Y12.757
X59.683 Y12.698
X59.638 Y12.62
X59.603 Y12.563
X59.561 Y12.497
X59.523 Y12.44
X59.481 Y12.38
X59.44 Y12.325
X59.404 Y12.278
X59.362 Y12.224
X59.327 Y12.181
X59.283 Y12.128
X59.253 Y12.093
X59.207 Y12.04
X59.182 Y12.013
X59.135 Y11.961
X59.114 Y11.939
X59.065 Y11.888
X59.051 Y11.874
X59.002 Y11.823
X58.991 Y11.811
X58.941 Y11.761
X58.884 Y11.704
G2 X58.587 Y11.465 I-1.264 J1.264
G1 X58.509 Y11.415
X58.424 Y11.361
X58.414 Y11.354
X58.336 Y11.305
X58.317 Y11.294
X58.239 Y11.246
X58.215 Y11.232
X58.136 Y11.186
X58.105 Y11.168
X58.025 Y11.123
X57.988 Y11.103
X57.908 Y11.06
X57.863 Y11.037
X57.782 Y10.998
X57.729 Y10.972
X57.647 Y10.935
X57.586 Y10.909
X57.503 Y10.875
X57.435 Y10.849
X57.351 Y10.818
X57.275 Y10.793
X57.19 Y10.766
X57.117 Y10.745
X57.031 Y10.722
X56.968 Y10.707
X56.88 Y10.687
X56.818 Y10.674
X56.729 Y10.657
X56.678 Y10.648
X56.589 Y10.634
X56.539 Y10.627
X56.449 Y10.615
X56.409 Y10.61
X56.318 Y10.6
X56.284 Y10.597
X56.193 Y10.589
X56.161 Y10.587
X56.07 Y10.58
X56.048 Y10.579
X55.956 Y10.573
X55.938
X55.846 Y10.568
X55.835
X55.742 Y10.564
X55.644 Y10.56
X55.542 Y10.559
X55.439 Y10.564
X55.307 Y10.574
X55.168 Y10.586
X55.151 Y10.587
X55.019 Y10.599
X54.997 Y10.601
X54.866 Y10.615
X54.836 Y10.618
X54.706 Y10.633
X54.665 Y10.639
X54.536 Y10.657
X54.49 Y10.665
X54.363 Y10.686
X54.306 Y10.697
X54.18 Y10.723
X54.116 Y10.737
X53.992 Y10.767
X53.92 Y10.786
X53.799 Y10.821
X53.718 Y10.847
X53.599 Y10.887
X53.51 Y10.92
X53.394 Y10.966
X53.298 Y11.008
X53.185 Y11.061
X53.095 Y11.107
X52.985 Y11.166
X52.904 Y11.213
X52.797 Y11.278
X52.727 Y11.324
X52.622 Y11.395
X52.563 Y11.436
X52.461 Y11.512
X52.412 Y11.549
X52.311 Y11.629
X52.269 Y11.663
X52.17 Y11.746
X52.138 Y11.774
X52.04 Y11.861
X52.015 Y11.884
X51.918 Y11.973
X51.9 Y11.989
X51.805 Y12.08
X51.792 Y12.092
X51.697 Y12.183
X51.596 Y12.282
G2 X51.312 Y12.639 I1.246 J1.281
G1 X51.261 Y12.723
X51.209 Y12.81
X51.202 Y12.821
X51.152 Y12.905
X51.144 Y12.92
X51.095 Y13.005
X51.085 Y13.022
X51.037 Y13.107
X51.024 Y13.131
X50.977 Y13.216
X50.961 Y13.246
X50.916 Y13.332
X50.899 Y13.367
X50.855 Y13.454
X50.837 Y13.493
X50.796 Y13.581
X50.776 Y13.625
X50.738 Y13.714
X50.717 Y13.764
X50.681 Y13.854
X50.674 Y13.873
X48.339 Y13.726
X48.352 Y13.687
X48.407 Y13.537
X48.466 Y13.396
X48.53 Y13.259
X48.602 Y13.12
X48.683 Y12.978
X48.773 Y12.832
X48.872 Y12.682
X48.98 Y12.527
X49.097 Y12.368
X49.221 Y12.205
X49.352 Y12.039
X49.489 Y11.868
X49.6 Y11.732
X49.623 Y11.717
X49.881 Y11.554
X50.133 Y11.399
X50.379 Y11.251
X50.619 Y11.113
X50.853 Y10.985
X51.082 Y10.868
X51.304 Y10.764
X51.521 Y10.672
X51.734 Y10.592
X51.948 Y10.523
X52.169 Y10.462
X52.4 Y10.409
X52.64 Y10.363
X52.89 Y10.324
X53.148 Y10.292
X53.415 Y10.265
X53.691 Y10.244
X53.974 Y10.228
X54.265 Y10.216
X54.563 Y10.208
X54.868 Y10.203
X55.179 Y10.199
X55.467 Y10.196
X55.642 Y10.201
X55.843 Y10.206
X56.041 Y10.212
X56.235 Y10.219
X56.426 Y10.227
X56.612 Y10.237
X56.794 Y10.249
X56.973 Y10.263
X57.147 Y10.28
X57.317 Y10.299
X57.483 Y10.321
X57.645 Y10.346
X57.803 Y10.374
X57.961 Y10.406
X58.121 Y10.443
X58.285 Y10.484
X58.453 Y10.53
X58.624 Y10.579
X58.799 Y10.632
X58.978 Y10.689
X59.16 Y10.748
X59.346 Y10.81
X59.535 Y10.875
X59.605 Y10.899
X59.634 Y10.914
X59.774 Y10.986
X59.908 Y11.057
X60.037 Y11.126
X60.161 Y11.194
X60.278 Y11.261
X60.389 Y11.326
X60.493 Y11.391
X60.591 Y11.456
X60.682 Y11.519
X60.766 Y11.581
X60.844 Y11.643
X60.919 Y11.707
X60.994 Y11.776
X61.072 Y11.852
X61.152 Y11.935
X61.234 Y12.024
X61.318 Y12.119
X61.405 Y12.221
X61.494 Y12.328
X61.585 Y12.442
X61.679 Y12.561
X61.775 Y12.684
X61.793 Y12.707
X61.805 Y12.728
X61.878 Y12.859
X61.947 Y12.986
X62.013 Y13.108
X62.075 Y13.227
X62.132 Y13.341
X62.185 Y13.45
X62.232 Y13.554
X62.275 Y13.655
X62.313 Y13.751
X62.346 Y13.842
X62.373 Y13.929
X62.398 Y14.018
X62.421 Y14.111
X62.442 Y14.212
X62.462 Y14.319
X62.48 Y14.433
X62.496 Y14.553
X62.511 Y14.679
X62.524 Y14.811
X62.537 Y14.95
X62.548 Y15.094
X62.56 Y15.244
X62.562 Y15.283
Y15.295
X62.554 Y15.418
X62.546 Y15.535
X62.538 Y15.648
X62.528 Y15.756
X62.518 Y15.858
X62.507 Y15.954
X62.494 Y16.045
X62.481 Y16.129
X62.466 Y16.208
X62.45 Y16.282
X62.433 Y16.349
X62.414 Y16.415
X62.392 Y16.485
X62.365 Y16.56
X62.346 Y16.61
X62.335 Y16.639
X62.301 Y16.721
X62.263 Y16.809
X62.22 Y16.902
X62.175 Y16.999
X62.126 Y17.101
X62.073 Y17.206
X62.03 Y17.292
X61.956 Y17.39
X61.877 Y17.494
X61.801 Y17.592
X61.727 Y17.685
X61.655 Y17.772
X61.586 Y17.853
X61.519 Y17.928
X61.454 Y17.997
X61.392 Y18.06
X61.332 Y18.116
X61.272 Y18.17
X61.206 Y18.224
X61.136 Y18.279
X61.059 Y18.335
X60.976 Y18.393
X60.888 Y18.451
X60.794 Y18.511
X60.695 Y18.573
X60.59 Y18.635
X60.48 Y18.7
X60.365 Y18.765
X60.246 Y18.832
X60.218 Y18.848
X60.086 Y18.902
X59.855 Y18.996
X59.625 Y19.089
X59.398 Y19.18
X59.173 Y19.268
X58.949 Y19.353
X58.728 Y19.436
X58.508 Y19.516
X58.29 Y19.591
X58.073 Y19.664
X57.855 Y19.733
X57.635 Y19.799
X57.412 Y19.864
X57.186 Y19.926
X56.958 Y19.987
X56.727 Y20.046
X56.494 Y20.103
X56.259 Y20.16
X56.021 Y20.215
X55.781 Y20.269
X55.539 Y20.323
X55.296 Y20.377
X55.05 Y20.43
X54.82 Y20.48
X54.747 Y20.494
X54.652 Y20.513
X54.554 Y20.532
X54.545 Y20.535
X54.453 Y20.553
X54.442 Y20.556
X54.351 Y20.575
X54.335 Y20.579
X54.244 Y20.599
X54.226 Y20.603
X54.135 Y20.624
X54.114 Y20.629
X54.024 Y20.652
X53.998 Y20.658
X53.908 Y20.682
X53.88 Y20.689
X53.791 Y20.714
X53.76 Y20.723
X53.672 Y20.75
X53.638 Y20.76
X53.55 Y20.788
X53.513 Y20.801
X53.426 Y20.831
X53.387 Y20.845
X53.301 Y20.877
X53.258 Y20.894
X53.173 Y20.928
X53.128 Y20.947
X53.044 Y20.983
X53.004 Y21.001
X52.921 Y21.04
X52.888 Y21.056
X52.805 Y21.096
X52.775 Y21.111
X52.692 Y21.153
X52.667 Y21.167
X52.585 Y21.21
X52.569 Y21.219
X52.487 Y21.264
X52.472 Y21.272
X52.391 Y21.317
X52.382 Y21.322
X52.301 Y21.368
X52.217 Y21.416
G2 X51.863 Y21.681 I0.885 J1.553
G1 X51.832 Y21.71
X51.797 Y21.744
X51.784 Y21.757
X51.754 Y21.787
X51.741 Y21.799
X51.711 Y21.829
X51.689 Y21.853
X51.659 Y21.883
X51.634 Y21.91
X51.606 Y21.941
X51.577 Y21.973
X51.55 Y22.004
X51.514 Y22.047
X51.487 Y22.079
X51.45 Y22.126
X51.425 Y22.159
X51.385 Y22.212
X51.361 Y22.246
X51.314 Y22.315
X51.292 Y22.35
X51.247 Y22.425
X51.227 Y22.46
X51.181 Y22.545
X51.163 Y22.581
X51.121 Y22.669
X51.105 Y22.706
X51.07 Y22.791
X51.056 Y22.829
X51.03 Y22.902
X51.017 Y22.941
X50.996 Y23.011
X50.985 Y23.05
X50.969 Y23.11
X50.959 Y23.151
X50.947 Y23.2
X50.938 Y23.241
X50.93 Y23.281
X50.922 Y23.322
X50.915 Y23.359
X50.908 Y23.401
X50.905 Y23.423
X50.898 Y23.465
X50.895 Y23.482
X50.889 Y23.524
X50.882 Y23.571
G2 X50.875 Y24.04 I1.769 J0.259
G1 X50.882 Y24.094
X50.883 Y24.104
X50.89 Y24.158
X50.891 Y24.172
X50.898 Y24.226
X50.902 Y24.251
X50.91 Y24.304
X50.914 Y24.335
X50.923 Y24.388
X50.931 Y24.431
X50.941 Y24.483
X50.95 Y24.532
X50.962 Y24.584
X50.975 Y24.642
X50.988 Y24.693
X51.007 Y24.761
X51.021 Y24.811
X51.044 Y24.883
X51.061 Y24.932
X51.092 Y25.017
X51.112 Y25.065
X51.149 Y25.153
X51.171 Y25.2
X51.216 Y25.29
X51.24 Y25.336
X51.285 Y25.416
X51.312 Y25.461
X51.359 Y25.534
X51.388 Y25.578
X51.43 Y25.638
X51.461 Y25.68
X51.5 Y25.732
X51.532 Y25.773
X51.566 Y25.815
X51.601 Y25.856
X51.634 Y25.894
X51.669 Y25.935
X51.695 Y25.963
X51.732 Y26.003
X51.753 Y26.025
X51.79 Y26.064
X51.805 Y26.079
X51.843 Y26.118
X51.856 Y26.132
X51.895 Y26.17
X51.938 Y26.214
G2 X52.275 Y26.476 I1.259 J-1.269
G1 X52.337 Y26.513
X52.407 Y26.555
X52.419 Y26.562
X52.481 Y26.599
X52.499 Y26.609
X52.562 Y26.645
X52.587 Y26.659
X52.65 Y26.693
X52.68 Y26.71
X52.744 Y26.743
X52.782 Y26.763
X52.846 Y26.794
X52.891 Y26.815
X52.956 Y26.845
X53.011 Y26.869
X53.076 Y26.897
X53.135 Y26.92
X53.201 Y26.945
X53.27 Y26.97
X53.337 Y26.992
X53.41 Y27.015
X53.478 Y27.034
X53.545 Y27.052
X53.614 Y27.068
X53.677 Y27.083
X53.747 Y27.097
X53.804 Y27.108
X53.874 Y27.12
X53.925 Y27.128
X53.995 Y27.138
X54.039 Y27.143
X54.11 Y27.152
X54.151 Y27.156
X54.222 Y27.163
X54.255 Y27.165
X54.327 Y27.171
X54.357 Y27.173
X54.43 Y27.177
X54.45 Y27.178
X54.522 Y27.181
X54.54 Y27.182
X54.612 Y27.185
X54.695 Y27.188
X54.775 Y27.19
X54.896 Y27.189
X54.988 Y27.185
X55.087 Y27.181
X55.098 Y27.18
X55.191 Y27.176
X55.209 Y27.175
X55.301 Y27.169
X55.322 Y27.168
X55.414 Y27.161
X55.444 Y27.159
X55.535 Y27.151
X55.569 Y27.148
X55.66 Y27.138
X55.702 Y27.133
X55.792 Y27.121
X55.836 Y27.114
X55.926 Y27.1
X55.981 Y27.091
X56.069 Y27.074
X56.126 Y27.062
X56.214 Y27.043
X56.28 Y27.026
X56.367 Y27.003
X56.435 Y26.984
X56.52 Y26.958
X56.595 Y26.933
X56.679 Y26.903
X56.745 Y26.878
X56.828 Y26.845
X56.886 Y26.82
X56.968 Y26.784
X57.02 Y26.76
X57.102 Y26.721
X57.146 Y26.699
X57.227 Y26.657
X57.264 Y26.638
X57.344 Y26.594
X57.373 Y26.578
X57.452 Y26.532
X57.476 Y26.519
X57.555 Y26.472
X57.573 Y26.461
X57.652 Y26.413
X57.663 Y26.406
X57.742 Y26.358
X57.827 Y26.305
G2 X58.208 Y25.986 I-0.945 J-1.518
G1 X58.272 Y25.916
X58.34 Y25.84
X58.35 Y25.829
X58.412 Y25.758
X58.425 Y25.743
X58.487 Y25.671
X58.506 Y25.649
X58.566 Y25.577
X58.587 Y25.55
X58.646 Y25.478
X58.673 Y25.442
X58.73 Y25.368
X58.759 Y25.329
X58.813 Y25.253
X58.847 Y25.204
X58.898 Y25.128
X58.933 Y25.073
X58.982 Y24.995
X59.02 Y24.929
X59.065 Y24.849
X59.101 Y24.781
X59.143 Y24.699
X59.15 Y24.685
X61.43 Y24.819
X61.397 Y24.888
X61.339 Y24.994
X61.274 Y25.1
X61.199 Y25.21
X61.113 Y25.325
X61.016 Y25.445
X61.011 Y25.45
X60.907 Y25.57 Z-2.006 F333.3
X60.789 Y25.699 Z-2.012
X60.661 Y25.832 Z-2.018
X60.524 Y25.97 Z-2.025
X60.378 Y26.113 Z-2.032
X60.252 Y26.234 Z-2.038
X60.036 Y26.344 Z-2.047
X59.82 Y26.452 Z-2.055
X59.609 Y26.555 Z-2.063
X59.403 Y26.651 Z-2.071
X59.202 Y26.741 Z-2.079
X59.007 Y26.824 Z-2.086
X58.816 Y26.899 Z-2.093
X58.629 Y26.967 Z-2.1
X58.448 Y27.026 Z-2.107
X58.269 Y27.077 Z-2.113
X58.087 Y27.122 Z-2.12
X57.898 Y27.161 Z-2.127
X57.702 Y27.196 Z-2.134
X57.5 Y27.227 Z-2.141
X57.291 Y27.252 Z-2.148
X57.075 Y27.274 Z-2.156
X56.853 Y27.292 Z-2.164
X56.624 Y27.307 Z-2.172
X56.39 Y27.319 Z-2.18
X56.15 Y27.328 Z-2.188
X55.905 Y27.336 Z-2.197
X55.653 Y27.342 Z-2.206
X55.433 Y27.348 Z-2.213
X55.259 Y27.345 Z-2.219
X55.052 Y27.341 Z-2.227
X54.851 Y27.337 Z-2.234
X54.652 Y27.332 Z-2.24
X54.457 Y27.325 Z-2.247
X54.266 Y27.317 Z-2.254
X54.078 Y27.307 Z-2.261
X53.894 Y27.295 Z-2.267
X53.714 Y27.28 Z-2.273
X53.538 Y27.263 Z-2.279
X53.366 Y27.243 Z-2.286
X53.198 Y27.219 Z-2.291
X53.034 Y27.193 Z-2.297
X52.871 Y27.163 Z-2.303
X52.706 Y27.128 Z-2.309
X52.539 Y27.089 Z-2.315
X52.367 Y27.046 Z-2.321
X52.192 Y26.998 Z-2.327
X52.013 Y26.947 Z-2.334
X51.83 Y26.893 Z-2.341
X51.644 Y26.835 Z-2.347
X51.454 Y26.775 Z-2.354
X51.259 Y26.713 Z-2.362
X51.188 Y26.689 Z-2.364
X51.176 Y26.684 Z-2.365
X51.051 Y26.621 Z-2.369
X50.931 Y26.56 Z-2.374
X50.816 Y26.501 Z-2.379
X50.707 Y26.443 Z-2.383
X50.603 Y26.386 Z-2.387
X50.506 Y26.33 Z-2.391
X50.415 Y26.275 Z-2.395
X50.33 Y26.221 Z-2.398
X50.251 Y26.169 Z-2.402
X50.179 Y26.117 Z-2.405
X50.113 Y26.066 Z-2.408
X50.051 Y26.015 Z-2.41
X49.988 Y25.96 Z-2.413
X49.923 Y25.899 Z-2.416
X49.855 Y25.831 Z-2.42
X49.785 Y25.757 Z-2.423
X49.712 Y25.677 Z-2.427
X49.636 Y25.59 Z-2.431
X49.558 Y25.498 Z-2.435
X49.477 Y25.4 Z-2.44
X49.392 Y25.297 Z-2.444
X49.306 Y25.189 Z-2.449
X49.25 Y25.091 Z-2.453
X49.193 Y24.988 Z-2.457
X49.14 Y24.89 Z-2.461
X49.091 Y24.796 Z-2.465
X49.045 Y24.707 Z-2.468
X49.004 Y24.622 Z-2.472
X48.967 Y24.542 Z-2.475
X48.934 Y24.467 Z-2.478
X48.906 Y24.396 Z-2.48
X48.882 Y24.33 Z-2.483
X48.861 Y24.268 Z-2.485
X48.843 Y24.206 Z-2.487
X48.827 Y24.14 Z-2.49
X48.811 Y24.067 Z-2.492
X48.795 Y23.987 Z-2.495
X48.781 Y23.902 Z-2.498
X48.768 Y23.81 Z-2.501
X48.756 Y23.711 Z-2.505
X48.745 Y23.607 Z-2.509
X48.734 Y23.496 Z-2.512
X48.724 Y23.38 Z-2.517
X48.716 Y23.286 Z-2.52
X48.719 Y23.26 Z-2.521
X48.737 Y23.085 Z-2.527
X48.755 Y22.919 Z-2.533
X48.774 Y22.762 Z-2.538
X48.795 Y22.614 Z-2.543
X48.817 Y22.475 Z-2.548
X48.841 Y22.348 Z-2.553
X48.867 Y22.231 Z-2.557
X48.895 Y22.125 Z-2.561
X48.924 Y22.03 Z-2.564
X48.954 Y21.946 Z-2.567
X48.986 Y21.871 Z-2.57
X49.021 Y21.798 Z-2.573
X49.063 Y21.721 Z-2.576
X49.115 Y21.637 Z-2.58
X49.176 Y21.547 Z-2.583
X49.247 Y21.45 Z-2.588
X49.326 Y21.348 Z-2.592
X49.414 Y21.241 Z-2.597
X49.512 Y21.128 Z-2.602
X49.617 Y21.01 Z-2.608
X49.73 Y20.887 Z-2.614
X49.83 Y20.779 Z-2.619
X49.874 Y20.75 Z-2.621
X50.09 Y20.609 Z-2.63
X50.303 Y20.472 Z-2.638
X50.512 Y20.34 Z-2.647
X50.718 Y20.213 Z-2.655
X50.921 Y20.091 Z-2.664
X51.121 Y19.976 Z-2.672
X51.318 Y19.868 Z-2.68
X51.512 Y19.768 Z-2.687
X51.705 Y19.674 Z-2.695
X51.898 Y19.587 Z-2.702
X52.096 Y19.505 Z-2.71
X52.3 Y19.425 Z-2.717
X52.51 Y19.35 Z-2.725
X52.725 Y19.277 Z-2.733
X52.946 Y19.207 Z-2.741
X53.173 Y19.14 Z-2.749
X53.405 Y19.075 Z-2.758
X53.641 Y19.011 Z-2.766
X53.882 Y18.95 Z-2.775
X54.128 Y18.889 Z-2.784
X54.379 Y18.828 Z-2.793
X54.577 Y18.781 Z-2.8
X54.633 Y18.768 F1000
X54.868 Y18.713
X54.985 Y18.689
X55.129 Y18.659
X55.274 Y18.628
X55.422 Y18.595
X55.435 Y18.593
X55.574 Y18.561
X55.59 Y18.557
X55.728 Y18.525
X55.745 Y18.521
X55.883 Y18.487
X55.907 Y18.481
X56.044 Y18.445
X56.067 Y18.439
X56.204 Y18.402
X56.231 Y18.394
X56.367 Y18.354
X56.398 Y18.345
X56.533 Y18.303
X56.568 Y18.291
X56.701 Y18.247
X56.736 Y18.235
X56.868 Y18.187
X56.908 Y18.173
X57.04 Y18.122
X57.082 Y18.105
X57.212 Y18.052
X57.255 Y18.033
X57.384 Y17.976
X57.421 Y17.958
X57.549 Y17.898
X57.582 Y17.882
X57.709 Y17.818
X57.737 Y17.804
X57.862 Y17.739
X57.886 Y17.726
X58.011 Y17.659
X58.028 Y17.649
X58.152 Y17.58
X58.167 Y17.572
X58.29 Y17.502
X58.422 Y17.426
X58.549 Y17.353
G2 X58.938 Y17.049 I-0.895 J-1.547
G1 X58.985 Y17
X59.038 Y16.946
X59.047 Y16.936
X59.094 Y16.887
X59.109 Y16.87
X59.155 Y16.821
X59.174 Y16.8
X59.219 Y16.75
X59.242 Y16.723
X59.286 Y16.673
X59.316 Y16.637
X59.358 Y16.585
X59.391 Y16.544
X59.431 Y16.491
X59.466 Y16.445
X59.504 Y16.391
X59.544 Y16.333
X59.58 Y16.278
X59.621 Y16.213
X59.654 Y16.157
X59.696 Y16.083
X59.727 Y16.026
X59.771 Y15.939
X59.798 Y15.881
X59.835 Y15.796
X59.859 Y15.736
X59.889 Y15.656
X59.911 Y15.595
X59.935 Y15.521
X59.954 Y15.458
X59.973 Y15.393
X59.989 Y15.329
X60.003 Y15.274
X60.018 Y15.209
X60.028 Y15.162
X60.041 Y15.097
X60.049 Y15.054
X60.061 Y14.988
X60.065 Y14.96
X60.076 Y14.894
X60.08 Y14.868
X60.089 Y14.801
X60.092 Y14.785
X60.101 Y14.717
X60.111 Y14.642
G2 Y14.181 I-1.772 J-0.231
G1 X60.102 Y14.111
X60.091 Y14.033
X60.089 Y14.019
X60.079 Y13.95
X60.076 Y13.923
X60.065 Y13.854
X60.059 Y13.821
X60.047 Y13.753
X60.04 Y13.713
X60.026 Y13.644
X60.016 Y13.597
X60.001 Y13.53
X59.986 Y13.471
X59.968 Y13.404
X59.95 Y13.34
X59.93 Y13.275
X59.906 Y13.201
X59.883 Y13.137
X59.852 Y13.054
X59.826 Y12.992
X59.787 Y12.904
X59.759 Y12.843
X59.715 Y12.757
X59.683 Y12.698
X59.638 Y12.62
X59.603 Y12.563
X59.561 Y12.497
X59.523 Y12.44
X59.481 Y12.38
X59.44 Y12.325
X59.404 Y12.278
X59.362 Y12.224
X59.327 Y12.181
X59.283 Y12.128
X59.253 Y12.093
X59.207 Y12.04
X59.182 Y12.013
X59.135 Y11.961
X59.114 Y11.939
X59.065 Y11.888
X59.051 Y11.874
X59.002 Y11.823
X58.991 Y11.811
X58.941 Y11.761
X58.884 Y11.704
G2 X58.587 Y11.465 I-1.264 J1.264
G1 X58.509 Y11.415
X58.424 Y11.361
X58.414 Y11.354
X58.336 Y11.305
X58.317 Y11.294
X58.239 Y11.246
X58.215 Y11.232
X58.136 Y11.186
X58.105 Y11.168
X58.025 Y11.123
X57.988 Y11.103
X57.908 Y11.06
X57.863 Y11.037
X57.782 Y10.998
X57.729 Y10.972
X57.647 Y10.935
X57.586 Y10.909
X57.503 Y10.875
X57.435 Y10.849
X57.351 Y10.818
X57.275 Y10.793
X57.19 Y10.766
X57.117 Y10.745
X57.031 Y10.722
X56.968 Y10.707
X56.88 Y10.687
X56.818 Y10.674
X56.729 Y10.657
X56.678 Y10.648
X56.589 Y10.634
X56.539 Y10.627
X56.449 Y10.615
X56.409 Y10.61
X56.318 Y10.6
X56.284 Y10.597
X56.193 Y10.589
X56.161 Y10.587
X56.07 Y10.58
X56.048 Y10.579
X55.956 Y10.573
X55.938
X55.846 Y10.568
X55.835
X55.742 Y10.564
X55.644 Y10.56
X55.542 Y10.559
X55.439 Y10.564
X55.307 Y10.574
X55.168 Y10.586
X55.151 Y10.587
X55.019 Y10.599
X54.997 Y10.601
X54.866 Y10.615
X54.836 Y10.618
X54.706 Y10.633
X54.665 Y10.639
X54.536 Y10.657
X54.49 Y10.665
X54.363 Y10.686
X54.306 Y10.697
X54.18 Y10.723
X54.116 Y10.737
X53.992 Y10.767
X53.92 Y10.786
X53.799 Y10.821
X53.718 Y10.847
X53.599 Y10.887
X53.51 Y10.92
X53.394 Y10.966
X53.298 Y11.008
X53.185 Y11.061
X53.095 Y11.107
X52.985 Y11.166
X52.904 Y11.213
X52.797 Y11.278
X52.727 Y11.324
X52.622 Y11.395
X52.563 Y11.436
X52.461 Y11.512
X52.412 Y11.549
X52.311 Y11.629
X52.269 Y11.663
X52.17 Y11.746
X52.138 Y11.774
X52.04 Y11.861
X52.015 Y11.884
X51.918 Y11.973
X51.9 Y11.989
X51.805 Y12.08
X51.792 Y12.092
X51.697 Y12.183
X51.596 Y12.282
G2 X51.312 Y12.639 I1.246 J1.281
G1 X51.261 Y12.723
X51.209 Y12.81
X51.202 Y12.821
X51.152 Y12.905
X51.144 Y12.92
X51.095 Y13.005
X51.085 Y13.022
X51.037 Y13.107
X51.024 Y13.131
X50.977 Y13.216
X50.961 Y13.246
X50.916 Y13.332
X50.899 Y13.367
X50.855 Y13.454
X50.837 Y13.493
X50.796 Y13.581
X50.776 Y13.625
X50.738 Y13.714
X50.717 Y13.764
X50.681 Y13.854
X50.674 Y13.873
X48.339 Y13.726
X48.352 Y13.687
X48.407 Y13.537
X48.466 Y13.396
X48.53 Y13.259
X48.602 Y13.12
X48.683 Y12.978
X48.773 Y12.832
X48.872 Y12.682
X48.98 Y12.527
X49.097 Y12.368
X49.221 Y12.205
X49.352 Y12.039
X49.489 Y11.868
X49.6 Y11.732
X49.623 Y11.717
X49.881 Y11.554
X50.133 Y11.399
X50.379 Y11.251
X50.619 Y11.113
X50.853 Y10.985
X51.082 Y10.868
X51.304 Y10.764
X51.521 Y10.672
X51.734 Y10.592
X51.948 Y10.523
X52.169 Y10.462
X52.4 Y10.409
X52.64 Y10.363
X52.89 Y10.324
X53.148 Y10.292
X53.415 Y10.265
X53.691 Y10.244
X53.974 Y10.228
X54.265 Y10.216
X54.563 Y10.208
X54.868 Y10.203
X55.179 Y10.199
X55.467 Y10.196
X55.642 Y10.201
X55.843 Y10.206
X56.041 Y10.212
X56.235 Y10.219
X56.426 Y10.227
X56.612 Y10.237
X56.794 Y10.249
X56.973 Y10.263
X57.147 Y10.28
X57.317 Y10.299
X57.483 Y10.321
X57.645 Y10.346
X57.803 Y10.374
X57.961 Y10.406
X58.121 Y10.443
X58.285 Y10.484
X58.453 Y10.53
X58.624 Y10.579
X58.799 Y10.632
X58.978 Y10.689
X59.16 Y10.748
X59.346 Y10.81
X59.535 Y10.875
X59.605 Y10.899
X59.634 Y10.914
X59.774 Y10.986
X59.908 Y11.057
X60.037 Y11.126
X60.161 Y11.194
X60.278 Y11.261
X60.389 Y11.326
X60.493 Y11.391
X60.591 Y11.456
X60.682 Y11.519
X60.766 Y11.581
X60.844 Y11.643
X60.919 Y11.707
X60.994 Y11.776
X61.072 Y11.852
X61.152 Y11.935
X61.234 Y12.024
X61.318 Y12.119
X61.405 Y12.221
X61.494 Y12.328
X61.585 Y12.442
X61.679 Y12.561
X61.775 Y12.684
X61.793 Y12.707
X61.805 Y12.728
X61.878 Y12.859
X61.947 Y12.986
X62.013 Y13.108
X62.075 Y13.227
X62.132 Y13.341
X62.185 Y13.45
X62.232 Y13.554
X62.275 Y13.655
X62.313 Y13.751
X62.346 Y13.842
X62.373 Y13.929
X62.398 Y14.018
X62.421 Y14.111
X62.442 Y14.212
X62.462 Y14.319
X62.48 Y14.433
X62.496 Y14.553
X62.511 Y14.679
X62.524 Y14.811
X62.537 Y14.95
X62.548 Y15.094
X62.56 Y15.244
X62.562 Y15.283
Y15.295
X62.554 Y15.418
X62.546 Y15.535
X62.538 Y15.648
X62.528 Y15.756
X62.518 Y15.858
X62.507 Y15.954
X62.494 Y16.045
X62.481 Y16.129
X62.466 Y16.208
X62.45 Y16.282
X62.433 Y16.349
X62.414 Y16.415
X62.392 Y16.485
X62.365 Y16.56
X62.335 Y16.639
X62.301 Y16.721
X62.263 Y16.809
X62.22 Y16.902
X62.175 Y16.999
X62.126 Y17.101
X62.073 Y17.206
X62.03 Y17.292
X61.956 Y17.39
X61.877 Y17.494
X61.801 Y17.592
X61.727 Y17.685
X61.655 Y17.772
X61.586 Y17.853
X61.519 Y17.928
X61.454 Y17.997
X61.392 Y18.06
X61.332 Y18.116
X61.272 Y18.17
X61.206 Y18.224
X61.136 Y18.279
X61.059 Y18.335
X60.976 Y18.393
X60.888 Y18.451
X60.794 Y18.511
X60.695 Y18.573
X60.59 Y18.635
X60.48 Y18.7
X60.365 Y18.765
X60.246 Y18.832
X60.218 Y18.848
X60.086 Y18.902
X59.855 Y18.996
X59.625 Y19.089
X59.398 Y19.18
X59.173 Y19.268
X58.949 Y19.353
X58.728 Y19.436
X58.508 Y19.516
X58.29 Y19.591
X58.073 Y19.664
X57.855 Y19.733
X57.635 Y19.799
X57.412 Y19.864
X57.186 Y19.926
X56.958 Y19.987
X56.727 Y20.046
X56.494 Y20.103
X56.259 Y20.16
X56.021 Y20.215
X55.781 Y20.269
X55.539 Y20.323
X55.296 Y20.377
X55.05 Y20.43
X54.82 Y20.48
X54.747 Y20.494
X54.652 Y20.513
X54.554 Y20.532
X54.545 Y20.535
X54.453 Y20.553
X54.442 Y20.556
X54.351 Y20.575
X54.335 Y20.579
X54.244 Y20.599
X54.226 Y20.603
X54.135 Y20.624
X54.114 Y20.629
X54.024 Y20.652
X53.998 Y20.658
X53.908 Y20.682
X53.88 Y20.689
X53.791 Y20.714
X53.76 Y20.723
X53.672 Y20.75
X53.638 Y20.76
X53.55 Y20.788
X53.513 Y20.801
X53.426 Y20.831
X53.387 Y20.845
X53.301 Y20.877
X53.258 Y20.894
X53.173 Y20.928
X53.128 Y20.947
X53.044 Y20.983
X53.004 Y21.001
X52.921 Y21.04
X52.888 Y21.056
X52.805 Y21.096
X52.775 Y21.111
X52.692 Y21.153
X52.667 Y21.167
X52.585 Y21.21
X52.569 Y21.219
X52.487 Y21.264
X52.472 Y21.272
X52.391 Y21.317
X52.382 Y21.322
X52.301 Y21.368
X52.217 Y21.416
G2 X51.863 Y21.681 I0.885 J1.553
G1 X51.832 Y21.71
X51.797 Y21.744
X51.784 Y21.757
X51.754 Y21.787
X51.741 Y21.799
X51.711 Y21.829
X51.689 Y21.853
X51.659 Y21.883
X51.634 Y21.91
X51.606 Y21.941
X51.577 Y21.973
X51.55 Y22.004
X51.514 Y22.047
X51.487 Y22.079
X51.45 Y22.126
X51.425 Y22.159
X51.385 Y22.212
X51.361 Y22.246
X51.314 Y22.315
X51.292 Y22.35
X51.247 Y22.425
X51.227 Y22.46
X51.181 Y22.545
X51.163 Y22.581
X51.121 Y22.669
X51.105 Y22.706
X51.07 Y22.791
X51.056 Y22.829
X51.03 Y22.902
X51.017 Y22.941
X50.996 Y23.011
X50.985 Y23.05
X50.969 Y23.11
X50.959 Y23.151
X50.947 Y23.2
X50.938 Y23.241
X50.93 Y23.281
X50.922 Y23.322
X50.915 Y23.359
X50.908 Y23.401
X50.905 Y23.423
X50.898 Y23.465
X50.895 Y23.482
X50.889 Y23.524
X50.882 Y23.571
G2 X50.875 Y24.04 I1.769 J0.259
G1 X50.882 Y24.094
X50.883 Y24.104
X50.89 Y24.158
X50.891 Y24.172
X50.898 Y24.226
X50.902 Y24.251
X50.91 Y24.304
X50.914 Y24.335
X50.923 Y24.388
X50.931 Y24.431
X50.941 Y24.483
X50.95 Y24.532
X50.962 Y24.584
X50.975 Y24.642
X50.988 Y24.693
X51.007 Y24.761
X51.021 Y24.811
X51.044 Y24.883
X51.061 Y24.932
X51.092 Y25.017
X51.112 Y25.065
X51.149 Y25.153
X51.171 Y25.2
X51.216 Y25.29
X51.24 Y25.336
X51.285 Y25.416
X51.312 Y25.461
X51.359 Y25.534
X51.388 Y25.578
X51.43 Y25.638
X51.461 Y25.68
X51.5 Y25.732
X51.532 Y25.773
X51.566 Y25.815
X51.601 Y25.856
X51.634 Y25.894
X51.669 Y25.935
X51.695 Y25.963
X51.732 Y26.003
X51.753 Y26.025
X51.79 Y26.064
X51.805 Y26.079
X51.843 Y26.118
X51.856 Y26.132
X51.895 Y26.17
X51.938 Y26.214
G2 X52.275 Y26.476 I1.259 J-1.269
G1 X52.337 Y26.513
X52.407 Y26.555
X52.419 Y26.562
X52.481 Y26.599
X52.499 Y26.609
X52.562 Y26.645
X52.587 Y26.659
X52.65 Y26.693
X52.68 Y26.71
X52.744 Y26.743
X52.782 Y26.763
X52.846 Y26.794
X52.891 Y26.815
X52.956 Y26.845
X53.011 Y26.869
X53.076 Y26.897
X53.135 Y26.92
X53.201 Y26.945
X53.27 Y26.97
X53.337 Y26.992
X53.41 Y27.015
X53.478 Y27.034
X53.545 Y27.052
X53.614 Y27.068
X53.677 Y27.083
X53.747 Y27.097
X53.804 Y27.108
X53.874 Y27.12
X53.925 Y27.128
X53.995 Y27.138
X54.039 Y27.143
X54.11 Y27.152
X54.151 Y27.156
X54.222 Y27.163
X54.255 Y27.165
X54.327 Y27.171
X54.357 Y27.173
X54.43 Y27.177
X54.45 Y27.178
X54.522 Y27.181
X54.54 Y27.182
X54.612 Y27.185
X54.695 Y27.188
X54.775 Y27.19
X54.896 Y27.189
X54.988 Y27.185
X55.087 Y27.181
X55.098 Y27.18
X55.191 Y27.176
X55.209 Y27.175
X55.301 Y27.169
X55.322 Y27.168
X55.414 Y27.161
X55.444 Y27.159
X55.535 Y27.151
X55.569 Y27.148
X55.66 Y27.138
X55.702 Y27.133
X55.792 Y27.121
X55.836 Y27.114
X55.926 Y27.1
X55.981 Y27.091
X56.069 Y27.074
X56.126 Y27.062
X56.214 Y27.043
X56.28 Y27.026
X56.367 Y27.003
X56.435 Y26.984
X56.52 Y26.958
X56.595 Y26.933
X56.679 Y26.903
X56.745 Y26.878
X56.828 Y26.845
X56.886 Y26.82
X56.968 Y26.784
X57.02 Y26.76
X57.102 Y26.721
X57.146 Y26.699
X57.227 Y26.657
X57.264 Y26.638
X57.344 Y26.594
X57.373 Y26.578
X57.452 Y26.532
X57.476 Y26.519
X57.555 Y26.472
X57.573 Y26.461
X57.652 Y26.413
X57.663 Y26.406
X57.742 Y26.358
X57.827 Y26.305
G2 X58.208 Y25.986 I-0.945 J-1.518
G1 X58.272 Y25.916
X58.34 Y25.84
X58.35 Y25.829
X58.412 Y25.758
X58.425 Y25.743
X58.487 Y25.671
X58.506 Y25.649
X58.566 Y25.577
X58.587 Y25.55
X58.646 Y25.478
X58.673 Y25.442
X58.73 Y25.368
X58.759 Y25.329
X58.813 Y25.253
X58.847 Y25.204
X58.898 Y25.128
X58.933 Y25.073
X58.982 Y24.995
X59.02 Y24.929
X59.065 Y24.849
X59.101 Y24.781
X59.143 Y24.699
X59.15 Y24.685
X61.43 Y24.819
X61.397 Y24.888
X61.339 Y24.994
X61.274 Y25.1
X61.199 Y25.21
X61.113 Y25.325
X61.016 Y25.445
X60.907 Y25.57
X60.789 Y25.699
X60.661 Y25.832
X60.524 Y25.97
X60.378 Y26.113
X60.252 Y26.234
X60.036 Y26.344
X59.82 Y26.452
X59.609 Y26.555
X59.403 Y26.651
X59.202 Y26.741
X59.007 Y26.824
X58.816 Y26.899
X58.629 Y26.967
X58.448 Y27.026
X58.269 Y27.077
X58.087 Y27.122
X57.898 Y27.161
X57.702 Y27.196
X57.5 Y27.227
X57.291 Y27.252
X57.075 Y27.274
X56.853 Y27.292
X56.624 Y27.307
X56.39 Y27.319
X56.15 Y27.328
X55.905 Y27.336
X55.653 Y27.342
X55.433 Y27.348
X55.259 Y27.345
X55.052 Y27.341
X54.851 Y27.337
X54.652 Y27.332
X54.457 Y27.325
X54.266 Y27.317
X54.078 Y27.307
X53.894 Y27.295
X53.714 Y27.28
X53.538 Y27.263
X53.366 Y27.243
X53.198 Y27.219
X53.034 Y27.193
X52.871 Y27.163
X52.706 Y27.128
X52.539 Y27.089
X52.367 Y27.046
X52.192 Y26.998
X52.013 Y26.947
X51.83 Y26.893
X51.644 Y26.835
X51.454 Y26.775
X51.259 Y26.713
X51.188 Y26.689
X51.176 Y26.684
X51.051 Y26.621
X50.931 Y26.56
X50.816 Y26.501
X50.707 Y26.443
X50.603 Y26.386
X50.506 Y26.33
X50.415 Y26.275
X50.33 Y26.221
X50.251 Y26.169
X50.179 Y26.117
X50.113 Y26.066
X50.051 Y26.015
X49.988 Y25.96
X49.923 Y25.899
X49.855 Y25.831
X49.785 Y25.757
X49.712 Y25.677
X49.636 Y25.59
X49.558 Y25.498
X49.477 Y25.4
X49.392 Y25.297
X49.306 Y25.189
X49.25 Y25.091
X49.193 Y24.988
X49.14 Y24.89
X49.091 Y24.796
X49.045 Y24.707
X49.004 Y24.622
X48.967 Y24.542
X48.934 Y24.467
X48.906 Y24.396
X48.882 Y24.33
X48.861 Y24.268
X48.843 Y24.206
X48.827 Y24.14
X48.811 Y24.067
X48.795 Y23.987
X48.781 Y23.902
X48.768 Y23.81
X48.756 Y23.711
X48.745 Y23.607
X48.734 Y23.496
X48.724 Y23.38
X48.716 Y23.286
X48.719 Y23.26
X48.737 Y23.085
X48.755 Y22.919
X48.774 Y22.762
X48.795 Y22.614
X48.817 Y22.475
X48.841 Y22.348
X48.867 Y22.231
X48.895 Y22.125
X48.924 Y22.03
X48.954 Y21.946
X48.986 Y21.871
X49.021 Y21.798
X49.063 Y21.721
X49.115 Y21.637
X49.176 Y21.547
X49.247 Y21.45
X49.326 Y21.348
X49.414 Y21.241
X49.512 Y21.128
X49.617 Y21.01
X49.73 Y20.887
X49.83 Y20.779
X49.874 Y20.75
X50.09 Y20.609
X50.303 Y20.472
X50.512 Y20.34
X50.718 Y20.213
X50.921 Y20.091
X51.121 Y19.976
X51.318 Y19.868
X51.512 Y19.768
X51.705 Y19.674
X51.898 Y19.587
X52.096 Y19.505
X52.3 Y19.425
X52.51 Y19.35
X52.725 Y19.277
X52.946 Y19.207
X53.173 Y19.14
X53.405 Y19.075
X53.641 Y19.011
X53.882 Y18.95
X54.128 Y18.889
X54.379 Y18.828
X54.577 Y18.781
X54.637 Y18.773 Z-2.788
X54.698 Y18.776 Z-2.776
X54.748 Y18.788 Z-2.741
X54.796 Y18.808 Z-2.707
X54.853 Y18.846 Z-2.604
X54.871 Y18.862 Z-2.483
G0 Z3
X75.89 Y24.084
G1 Z2.817 F1000
X75.911 Y24.094 Z2.698 F333.3
X75.97 Y24.124 Z2.597
X76.056 Y24.173 Z2.527
X76.154 Y24.239 Z2.5
G3 X74.368 Y26.67 Z2.335 I-0.893 J1.215
X76.154 Y24.239 Z2.169 I0.893 J-1.215
X74.368 Y26.67 Z2.004 I-0.893 J1.215
X76.154 Y24.239 Z1.838 I0.893 J-1.215
X74.368 Y26.67 Z1.673 I-0.893 J1.215
X76.154 Y24.239 Z1.507 I0.893 J-1.215
X74.368 Y26.67 Z1.342 I-0.893 J1.215
X76.154 Y24.239 Z1.176 I0.893 J-1.215
X74.368 Y26.67 Z1.011 I-0.893 J1.215
X76.154 Y24.239 Z0.845 I0.893 J-1.215
X74.368 Y26.67 Z0.68 I-0.893 J1.215
X76.154 Y24.239 Z0.515 I0.893 J-1.215
X74.368 Y26.67 Z0.349 I-0.893 J1.215
X76.154 Y24.239 Z0.184 I0.893 J-1.215
X74.368 Y26.67 Z0.018 I-0.893 J1.215
X76.154 Y24.239 Z-0.147 I0.893 J-1.215
X74.368 Y26.67 Z-0.313 I-0.893 J1.215
X76.154 Y24.239 Z-0.478 I0.893 J-1.215
X74.368 Y26.67 Z-0.644 I-0.893 J1.215
X76.154 Y24.239 Z-0.809 I0.893 J-1.215
X74.368 Y26.67 Z-0.974 I-0.893 J1.215
X73.905 Y26.114 Z-1 I0.893 J-1.215
X74.362 Y24.79 I0.891 J-0.433
X75.686 Y25.248 I0.433 J0.891
G1 X75.719 Y25.314 F1000
G3 X75.554 Y25.584 I-0.165 J0.085
G1 X75.397
G3 X75.233 Y25.314 J-0.185
G2 X75.345 Y25.071 I-2.853 J-1.47
G3 X75.606 I0.131 J0.054
G1 X75.686 Y25.248
G2 X77.141 Y25.873 I1.09 J-0.53
G3 X78.707 Y25.632 I1.566 J4.95
G1 X83.101
Y27.006
X67.85
Y25.632
X72.379
G2 X74.167 Y23.844 J-1.788
G1 Y10.538
X76.785
Y23.844
G2 X78.573 Y25.632 I1.787
G1 X78.707
G3 X78.722 Y26.031 J0.2
G1 X74.19 Y26.383
X74.138 Y26.38
X74.088 Y26.364
X74.044 Y26.335
X74.009 Y26.295
G3 X76.513 Y24.614 Z-1.165 I1.252 J-0.84 F333.3
X74.009 Y26.295 Z-1.331 I-1.252 J0.84
X76.513 Y24.614 Z-1.496 I1.252 J-0.84
X74.009 Y26.295 Z-1.662 I-1.252 J0.84
X76.513 Y24.614 Z-1.827 I1.252 J-0.84
X76.013 Y26.762 Z-1.914 I-1.252 J0.84
X73.905 Y26.114 Z-2 I-0.752 J-1.307
X74.362 Y24.79 I0.891 J-0.433
X75.686 Y25.248 I0.433 J0.891
G1 X75.719 Y25.314 F1000
G3 X75.554 Y25.584 I-0.165 J0.085
G1 X75.397
G3 X75.233 Y25.314 J-0.185
G2 X75.345 Y25.071 I-2.853 J-1.47
G3 X75.606 I0.131 J0.054
G1 X75.686 Y25.248
G2 X77.141 Y25.873 I1.09 J-0.53
G3 X78.707 Y25.632 I1.566 J4.95
G1 X83.101
Y27.006
X67.85
Y25.632
X72.379
G2 X74.167 Y23.844 J-1.788
G1 Y10.538
X76.785
Y23.844
G2 X78.573 Y25.632 I1.787
G1 X78.707
G3 Y26.032 J0.2
X78.633 Y26.017 J-0.2
G1 X77.04 Y25.38
G2 X76.766 Y25.553 I-0.074 J0.186
G3 X73.756 Y25.357 Z-2.165 I-1.505 J-0.098 F333.3
X76.766 Y25.553 Z-2.331 I1.505 J0.098
X73.756 Y25.357 Z-2.496 I-1.505 J-0.098
X76.766 Y25.553 Z-2.662 I1.505 J0.098
X73.905 Y26.114 Z-2.8 I-1.505 J-0.098
X74.362 Y24.79 I0.891 J-0.433
X75.686 Y25.248 I0.433 J0.891
G1 X75.719 Y25.314 F1000
G3 X75.554 Y25.584 I-0.165 J0.085
G1 X75.397
G3 X75.233 Y25.314 J-0.185
G2 X75.345 Y25.071 I-2.853 J-1.47
G3 X75.606 I0.131 J0.054
G1 X75.686 Y25.248
G2 X77.141 Y25.873 I1.09 J-0.53
G3 X78.707 Y25.632 I1.566 J4.95
G1 X83.101
Y27.006
X67.85
Y25.632
X72.379
G2 X74.167 Y23.844 J-1.788
G1 Y10.538
X76.785
Y23.844
G2 X78.573 Y25.632 I1.787
G1 X78.707
X78.767 Y25.638 Z-2.788
X78.826 Y25.655 Z-2.776
X78.872 Y25.678 Z-2.741
X78.913 Y25.708 Z-2.707
X78.96 Y25.758 Z-2.604
X78.974 Y25.778 Z-2.483
G0 Z3
X29.45 Y20.242
G1 Z2.817 F1000
X29.436 Y20.224 Z2.698 F333.3
X29.396 Y20.172 Z2.597
X29.34 Y20.089 Z2.527
X29.281 Y19.987 Z2.5
G3 X31.95 Y18.582 Z2.335 I1.335 J-0.702
X29.281 Y19.987 Z2.169 I-1.335 J0.702
X31.95 Y18.582 Z2.004 I1.335 J-0.702
X29.281 Y19.987 Z1.838 I-1.335 J0.702
X31.95 Y18.582 Z1.673 I1.335 J-0.702
X29.281 Y19.987 Z1.507 I-1.335 J0.702
X31.95 Y18.582 Z1.342 I1.335 J-0.702
X29.281 Y19.987 Z1.176 I-1.335 J0.702
X31.95 Y18.582 Z1.011 I1.335 J-0.702
X29.281 Y19.987 Z0.845 I-1.335 J0.702
X31.95 Y18.582 Z0.68 I1.335 J-0.702
X29.281 Y19.987 Z0.515 I-1.335 J0.702
X31.95 Y18.582 Z0.349 I1.335 J-0.702
X29.281 Y19.987 Z0.184 I-1.335 J0.702
X31.95 Y18.582 Z0.018 I1.335 J-0.702
X29.281 Y19.987 Z-0.147 I-1.335 J0.702
X31.95 Y18.582 Z-0.313 I1.335 J-0.702
X29.281 Y19.987 Z-0.478 I-1.335 J0.702
X31.95 Y18.582 Z-0.644 I1.335 J-0.702
X29.281 Y19.987 Z-0.809 I-1.335 J0.702
X31.95 Y18.582 Z-0.974 I1.335 J-0.702
X32.124 Y19.285 Z-1 I-1.335 J0.702
X30.225 I-0.949
G1 Y18.914 F1000
X30.232 Y18.876
X30.25 Y18.842
X30.278 Y18.815
X30.314 Y18.799
X30.353 Y18.795
X30.39 Y18.804
X30.423 Y18.824
X30.448 Y18.854
G2 X30.666 Y19.181 I2.775 J-1.613
G1 X30.688 Y19.22
X30.699 Y19.263
Y19.307
X30.688 Y19.35
X30.666 Y19.389
G2 X30.448 Y19.715 I2.557 J1.94
G1 X30.423 Y19.745
X30.39 Y19.766
X30.353 Y19.774
X30.314 Y19.771
X30.278 Y19.754
X30.25 Y19.728
X30.232 Y19.694
X30.225 Y19.655
Y19.285
G2 X29.514 Y18.218 I-1.155
G3 X28.803 Y17.152 I0.444 J-1.067
G1 Y10.538
X42.127
Y11.502
X33.223
G2 X31.435 Y13.29 J1.787
G1 Y17.241
G2 X33.223 Y19.028 I1.788
G1 X41.074
Y19.541
X33.223
G2 X31.435 Y21.329 J1.787
G1 Y24.514
G2 X33.223 Y26.302 I1.788
G1 X41.826
Y27.006
X28.803
Y17.152
G3 X29.115 Y16.985 I0.2
G1 X32.023 Y18.938
X32.064 Y18.976
X32.094 Y19.023
X32.109 Y19.077
G3 X29.122 Y19.493 Z-1.165 I-1.494 J0.208 F333.3
X32.109 Y19.077 Z-1.331 I1.494 J-0.208
X29.122 Y19.493 Z-1.496 I-1.494 J0.208
X32.109 Y19.077 Z-1.662 I1.494 J-0.208
X29.122 Y19.493 Z-1.827 I-1.494 J0.208
X30.511 Y17.78 Z-1.914 I1.494 J-0.208
X32.124 Y19.285 Z-2 I0.104 J1.505
X30.225 I-0.949
G1 Y18.914 F1000
X30.232 Y18.876
X30.25 Y18.842
X30.278 Y18.815
X30.314 Y18.799
X30.353 Y18.795
X30.39 Y18.804
X30.423 Y18.824
X30.448 Y18.854
G2 X30.666 Y19.181 I2.775 J-1.613
G1 X30.688 Y19.22
X30.699 Y19.263
Y19.307
X30.688 Y19.35
X30.666 Y19.389
G2 X30.448 Y19.715 I2.557 J1.94
G1 X30.423 Y19.745
X30.39 Y19.766
X30.353 Y19.774
X30.314 Y19.771
X30.278 Y19.754
X30.25 Y19.728
X30.232 Y19.694
X30.225 Y19.655
Y19.285
G2 X29.514 Y18.218 I-1.155
G3 X28.803 Y17.152 I0.444 J-1.067
G1 Y10.538
X42.127
Y11.502
X33.223
G2 X31.435 Y13.29 J1.787
G1 Y17.241
G2 X33.223 Y19.028 I1.788
G1 X41.074
Y19.541
X33.223
G2 X31.435 Y21.329 J1.787
G1 Y24.514
G2 X33.223 Y26.302 I1.788
G1 X41.826
Y27.006
X28.803
Y17.152
G3 X29.025 Y16.953 I0.2
X29.199 Y17.194 I-0.021 J0.199
G1 X28.936 Y18.397
G2 X29.305 Y18.539 I0.195 J0.043
G3 X31.926 Y20.031 Z-2.165 I1.311 J0.746 F333.3
X29.305 Y18.539 Z-2.331 I-1.311 J-0.746
X31.926 Y20.031 Z-2.496 I1.311 J0.746
X29.305 Y18.539 Z-2.662 I-1.311 J-0.746
X32.124 Y19.285 Z-2.8 I1.311 J0.746
X30.225 I-0.949
G1 Y18.914 F1000
X30.232 Y18.876
X30.25 Y18.842
X30.278 Y18.815
X30.314 Y18.799
X30.353 Y18.795
X30.39 Y18.804
X30.423 Y18.824
X30.448 Y18.854
G2 X30.666 Y19.181 I2.775 J-1.613
G1 X30.688 Y19.22
X30.699 Y19.263
Y19.307
X30.688 Y19.35
X30.666 Y19.389
G2 X30.448 Y19.715 I2.557 J1.94
G1 X30.423 Y19.745
X30.39 Y19.766
X30.353 Y19.774
X30.314 Y19.771
X30.278 Y19.754
X30.25 Y19.728
X30.232 Y19.694
X30.225 Y19.655
Y19.285
G2 X29.514 Y18.218 I-1.155
G3 X28.803 Y17.152 I0.444 J-1.067
G1 Y10.538
X42.127
Y11.502
X33.223
G2 X31.435 Y13.29 J1.787
G1 Y17.241
G2 X33.223 Y19.028 I1.788
G1 X41.074
Y19.541
X33.223
G2 X31.435 Y21.329 J1.787
G1 Y24.514
G2 X33.223 Y26.302 I1.788
G1 X41.826
Y27.006
X28.803
Y17.152
X28.809 Y17.091 Z-2.788
X28.826 Y17.033 Z-2.776
X28.849 Y16.987 Z-2.741
X28.879 Y16.945 Z-2.707
X28.929 Y16.898 Z-2.604
X28.949 Y16.884 Z-2.483
G0 Z3
X15.228 Y24.084
G1 Z2.817 F1000
X15.249 Y24.094 Z2.698 F333.3
X15.308 Y24.124 Z2.597
X15.394 Y24.173 Z2.527
X15.492 Y24.239 Z2.5
G3 X13.706 Y26.67 Z2.335 I-0.893 J1.215
X15.492 Y24.239 Z2.169 I0.893 J-1.215
X13.706 Y26.67 Z2.004 I-0.893 J1.215
X15.492 Y24.239 Z1.838 I0.893 J-1.215
X13.706 Y26.67 Z1.673 I-0.893 J1.215
X15.492 Y24.239 Z1.507 I0.893 J-1.215
X13.706 Y26.67 Z1.342 I-0.893 J1.215
X15.492 Y24.239 Z1.176 I0.893 J-1.215
X13.706 Y26.67 Z1.011 I-0.893 J1.215
X15.492 Y24.239 Z0.845 I0.893 J-1.215
X13.706 Y26.67 Z0.68 I-0.893 J1.215
X15.492 Y24.239 Z0.515 I0.893 J-1.215
X13.706 Y26.67 Z0.349 I-0.893 J1.215
X15.492 Y24.239 Z0.184 I0.893 J-1.215
X13.706 Y26.67 Z0.018 I-0.893 J1.215
X15.492 Y24.239 Z-0.147 I0.893 J-1.215
X13.706 Y26.67 Z-0.313 I-0.893 J1.215
X15.492 Y24.239 Z-0.478 I0.893 J-1.215
X13.706 Y26.67 Z-0.644 I-0.893 J1.215
X15.492 Y24.239 Z-0.809 I0.893 J-1.215
X13.706 Y26.67 Z-0.974 I-0.893 J1.215
X13.243 Y26.114 Z-1 I0.893 J-1.215
X15.024 Y25.248 I0.891 J-0.433
G1 X15.057 Y25.314 F1000
G3 X14.892 Y25.584 I-0.165 J0.085
G1 X14.735
G3 X14.57 Y25.314 J-0.185
G2 X14.683 Y25.071 I-2.853 J-1.47
G3 X14.944 I0.131 J0.054
G1 X15.024 Y25.248
G2 X16.479 Y25.873 I1.09 J-0.53
G3 X18.045 Y25.632 I1.566 J4.95
G1 X22.439
Y27.006
X7.188
Y25.632
X11.717
G2 X13.505 Y23.844 J-1.788
G1 Y10.538
X16.123
Y23.844
G2 X17.91 Y25.632 I1.788
G1 X18.045
G3 X18.06 Y26.031 J0.2
G1 X13.528 Y26.383
X13.475 Y26.38
X13.425 Y26.364
X13.381 Y26.335
X13.347 Y26.295
G3 X15.851 Y24.614 Z-1.165 I1.252 J-0.84 F333.3
X13.347 Y26.295 Z-1.331 I-1.252 J0.84
X15.851 Y24.614 Z-1.496 I1.252 J-0.84
X13.347 Y26.295 Z-1.662 I-1.252 J0.84
X15.851 Y24.614 Z-1.827 I1.252 J-0.84
X15.351 Y26.762 Z-1.914 I-1.252 J0.84
X13.243 Y26.114 Z-2 I-0.752 J-1.307
X15.024 Y25.248 I0.891 J-0.433
G1 X15.057 Y25.314 F1000
G3 X14.892 Y25.584 I-0.165 J0.085
G1 X14.735
G3 X14.57 Y25.314 J-0.185
G2 X14.683 Y25.071 I-2.853 J-1.47
G3 X14.944 I0.131 J0.054
G1 X15.024 Y25.248
G2 X16.479 Y25.873 I1.09 J-0.53
G3 X18.045 Y25.632 I1.566 J4.95
G1 X22.439
Y27.006
X7.188
Y25.632
X11.717
G2 X13.505 Y23.844 J-1.788
G1 Y10.538
X16.123
Y23.844
G2 X17.91 Y25.632 I1.788
G1 X18.045
G3 Y26.032 J0.2
X17.971 Y26.017 J-0.2
G1 X16.378 Y25.38
G2 X16.104 Y25.553 I-0.074 J0.186
G3 X13.094 Y25.357 Z-2.165 I-1.505 J-0.098 F333.3
X16.104 Y25.553 Z-2.331 I1.505 J0.098
X13.094 Y25.357 Z-2.496 I-1.505 J-0.098
X16.104 Y25.553 Z-2.662 I1.505 J0.098
X13.243 Y26.114 Z-2.8 I-1.505 J-0.098
X15.024 Y25.248 I0.891 J-0.433
G1 X15.057 Y25.314 F1000
G3 X14.892 Y25.584 I-0.165 J0.085
G1 X14.735
G3 X14.57 Y25.314 J-0.185
G2 X14.683 Y25.071 I-2.853 J-1.47
G3 X14.944 I0.131 J0.054
G1 X15.024 Y25.248
G2 X16.479 Y25.873 I1.09 J-0.53
G3 X18.045 Y25.632 I1.566 J4.95
G1 X22.439
Y27.006
X7.188
Y25.632
X11.717
G2 X13.505 Y23.844 J-1.788
G1 Y10.538
X16.123
Y23.844
G2 X17.91 Y25.632 I1.788
G1 X18.045
X18.105 Y25.638 Z-2.788
X18.163 Y25.655 Z-2.776
X18.209 Y25.678 Z-2.741
X18.251 Y25.708 Z-2.707
X18.298 Y25.758 Z-2.604
X18.312 Y25.778 Z-2.483
G0 Z3
X7.269 Y3.895
G1 Z2.817 F1000
G18 G2 X7.576 Z2.5 I0.317 F333.3
G1 X23.188 Z1.955
Y4.32 Z1.94
X6.763 Z1.366
Y3.895 Z1.352
X23.188 Z0.778
Y4.32 Z0.763
X6.763 Z0.19
Y3.895 Z0.175
X23.188 Z-0.399
Y4.32 Z-0.414
X6.763 Z-0.987
Y3.956 Z-1
Y3.895 F1000
X23.188
Y4.32
X6.763
Y3.956
Y3.895 Z-1.002 F333.3
X23.188 Z-1.576
Y4.32 Z-1.591
X11.463 Z-2
X6.763 F1000
Y3.956
Y3.895
X23.188
Y4.32
X11.463
X6.763 Z-2.164 F333.3
Y3.895 Z-2.179
X23.188 Z-2.753
Y4.32 Z-2.767
X22.254 Z-2.8
X11.463 F1000
X6.763
Y3.895
X23.188
Y4.32
X22.254
G3 X21.936 Z-2.483 K0.317
G0 Z4
G17

(2D Pocket4)
G0 X31.732 Y19.895
Z4
Z3
G1 Z2.5 F1000
Z-2.683 F333.3
X31.74 Y19.918 Z-2.804
X31.752 Y19.986 Z-2.907
X31.751 Y20.037 Z-2.941
X31.743 Y20.088 Z-2.976
X31.722 Y20.145 Z-2.988
X31.691 Y20.197 Z-3
G2 X31.318 Y21.329 I1.532 J1.132 F1000
G1 Y24.514
G2 X33.223 Y26.419 I1.905
G1 X41.708
Y26.889
X28.921
Y10.656
X42.009
Y11.385
X33.223
G2 X31.318 Y13.29 J1.905
G1 Y17.241
G2 X33.223 Y19.146 I1.905
G1 X40.957
Y19.424
X33.223
G2 X31.691 Y20.197 J1.905
X31.685 Y20.502 I0.212 J0.157
G3 X31.724 Y20.805 I-0.281 J0.191
G2 X31.635 Y21.329 I1.499 J0.524
G1 Y24.514
G2 X33.223 Y26.102 I1.587
G1 X42.026
Y27.206
X28.603
Y10.338
X42.327
Y11.702
X33.223
G2 X31.635 Y13.29 J1.587
G1 Y17.241
G2 X33.223 Y18.828 I1.587
G1 X41.274
Y19.741
X33.223
G2 X31.724 Y20.805 J1.587
G1 X31.699 Y20.86 Z-2.988
X31.663 Y20.909 Z-2.976
X31.627 Y20.945 Z-2.941
X31.584 Y20.975 Z-2.907
X31.522 Y21.003 Z-2.804
X31.498 Y21.009 Z-2.683
G0 Z3
X13.445 Y24.981
G1 Z2.5 F333.3
Z-2.683
X13.433 Y24.96 Z-2.804
X13.408 Y24.896 Z-2.907
X13.4 Y24.845 Z-2.941
X13.399 Y24.794 Z-2.976
X13.409 Y24.734 Z-2.988
X13.43 Y24.677 Z-3
G2 X13.622 Y23.844 I-1.713 J-0.833 F1000
G1 Y10.656
X16.005
Y23.844
G2 X17.91 Y25.749 I1.905
G1 X22.322
Y26.889
X7.306
Y25.749
X11.717
G2 X13.43 Y24.677 J-1.905
X13.38 Y24.376 I-0.237 J-0.115
G3 X13.286 Y24.086 I0.241 J-0.239
G1 X13.3 Y23.965
X13.304 Y23.844
Y10.338
X16.323
Y23.844
G2 X17.91 Y25.432 I1.587
G1 X22.639
Y27.206
X6.988
Y25.432
X11.717
G2 X13.286 Y24.086 J-1.588
G1 X13.301 Y24.027 Z-2.988
X13.327 Y23.972 Z-2.976
X13.357 Y23.93 Z-2.941
X13.393 Y23.893 Z-2.907
X13.449 Y23.854 Z-2.804
X13.471 Y23.844 Z-2.683
G0 Z3
X7.027 Y4.374
G1 Z2.5 F333.3
Z-2.683
X7.007 Y4.361 Z-2.804
X6.957 Y4.313 Z-2.907
X6.927 Y4.272 Z-2.941
X6.904 Y4.226 Z-2.976
X6.887 Y4.168 Z-2.988
X6.881 Y4.107 Z-3
Y4.012 F1000
X23.071
Y4.202
X6.881
Y4.107
X6.875 Y4.059
X6.857 Y4.013
X6.829 Y3.974
X6.792 Y3.942
X6.748 Y3.921
X6.713 Y3.901
X6.686 Y3.87
X6.672 Y3.832
X6.671 Y3.792
X6.685 Y3.753
X6.711 Y3.722
X6.746 Y3.702
X6.786 Y3.695
X23.388
Y4.52
X6.563
Y3.695
X6.786
X6.825 Y3.702 Z-2.992
X6.855 Y3.72 Z-2.969
X6.87 Y3.737 Z-2.935
X6.875 Y3.743 Z-2.894
G0 Z3
X62.228 Y16.132
G1 Z2.5 F333.3
Z-2.683
X62.243 Y16.151 Z-2.804
X62.276 Y16.212 Z-2.907
X62.292 Y16.26 Z-2.941
X62.3 Y16.311 Z-2.976
X62.298 Y16.372 Z-2.988
X62.286 Y16.431 Z-3
X62.28 Y16.448 F1000
X62.255 Y16.52
X62.226 Y16.595
X62.193 Y16.675
X62.155 Y16.761
X62.114 Y16.853
X62.069 Y16.948
X62.02 Y17.049
X61.968 Y17.154
X61.93 Y17.23
X61.863 Y17.319
X61.784 Y17.422
X61.709 Y17.519
X61.635 Y17.611
X61.565 Y17.696
X61.497 Y17.776
X61.432 Y17.849
X61.37 Y17.915
X61.31 Y17.976
X61.253 Y18.03
X61.195 Y18.081
X61.133 Y18.132
X61.065 Y18.185
X60.991 Y18.24
X60.91 Y18.296
X60.824 Y18.353
X60.732 Y18.412
X60.634 Y18.472
X60.53 Y18.534
X60.421 Y18.598
X60.307 Y18.663
X60.189 Y18.73
X60.167 Y18.742
X60.042 Y18.793
X59.81 Y18.887
X59.582 Y18.98
X59.355 Y19.07
X59.13 Y19.158
X58.908 Y19.244
X58.687 Y19.326
X58.469 Y19.405
X58.252 Y19.48
X58.037 Y19.552
X57.82 Y19.621
X57.601 Y19.687
X57.38 Y19.751
X57.155 Y19.813
X56.928 Y19.873
X56.699 Y19.932
X56.467 Y19.989
X56.232 Y20.045
X55.995 Y20.1
X55.755 Y20.155
X55.514 Y20.209
X55.271 Y20.262
X55.025 Y20.316
X54.796 Y20.365
X54.725 Y20.379
X54.629 Y20.398
X54.531 Y20.417
X54.521 Y20.419
X54.43 Y20.438
X54.417 Y20.441
X54.326 Y20.46
X54.309 Y20.464
X54.218 Y20.484
X54.199 Y20.489
X54.109 Y20.51
X54.085 Y20.515
X53.996 Y20.537
X53.968 Y20.544
X53.879 Y20.568
X53.849 Y20.576
X53.76 Y20.601
X53.727 Y20.611
X53.638 Y20.637
X53.602 Y20.648
X53.514 Y20.677
X53.474 Y20.69
X53.387 Y20.72
X53.346 Y20.735
X53.26 Y20.767
X53.214 Y20.785
X53.129 Y20.819
X53.081 Y20.839
X52.997 Y20.876
X52.955 Y20.895
X52.871 Y20.933
X52.836 Y20.95
X52.753 Y20.991
X52.721 Y21.007
X52.639 Y21.049
X52.612 Y21.063
X52.53 Y21.106
X52.512 Y21.116
X52.431 Y21.16
X52.415 Y21.169
X52.334 Y21.214
X52.324 Y21.22
X52.243 Y21.266
X52.158 Y21.314
G2 X51.782 Y21.596 I0.943 J1.655
G1 X51.751 Y21.626
X51.715 Y21.66
X51.702 Y21.673
X51.672 Y21.703
X51.658 Y21.716
X51.628 Y21.747
X51.604 Y21.772
X51.574 Y21.802
X51.548 Y21.83
X51.519 Y21.861
X51.489 Y21.896
X51.461 Y21.927
X51.423 Y21.972
X51.397 Y22.004
X51.357 Y22.054
X51.332 Y22.087
X51.289 Y22.144
X51.265 Y22.178
X51.216 Y22.252
X51.194 Y22.286
X51.145 Y22.366
X51.125 Y22.402
X51.076 Y22.492
X51.058 Y22.528
X51.014 Y22.621
X50.998 Y22.659
X50.96 Y22.75
X50.946 Y22.788
X50.918 Y22.866
X50.906 Y22.905
X50.883 Y22.979
X50.872 Y23.018
X50.855 Y23.082
X50.845 Y23.122
X50.832 Y23.175
X50.824 Y23.216
X50.815 Y23.259
X50.807 Y23.3
X50.8 Y23.339
X50.792 Y23.381
X50.789 Y23.404
X50.782 Y23.446
X50.779 Y23.465
X50.773 Y23.507
X50.766 Y23.554
G2 X50.759 Y24.054 I1.885 J0.276
G1 X50.765 Y24.108
X50.766 Y24.119
X50.773 Y24.173
X50.775 Y24.187
X50.782 Y24.241
X50.786 Y24.268
X50.793 Y24.321
X50.798 Y24.354
X50.807 Y24.407
X50.815 Y24.453
X50.825 Y24.505
X50.836 Y24.557
X50.847 Y24.609
X50.861 Y24.67
X50.874 Y24.721
X50.894 Y24.794
X50.909 Y24.844
X50.933 Y24.921
X50.95 Y24.97
X50.983 Y25.061
X51.002 Y25.109
X51.043 Y25.202
X51.064 Y25.249
X51.112 Y25.345
X51.136 Y25.391
X51.185 Y25.477
X51.211 Y25.521
X51.261 Y25.599
X51.29 Y25.643
X51.335 Y25.707
X51.366 Y25.75
X51.407 Y25.804
X51.44 Y25.846
X51.476 Y25.891
X51.51 Y25.931
X51.546 Y25.972
X51.581 Y26.013
X51.609 Y26.043
X51.645 Y26.082
X51.668 Y26.106
X51.705 Y26.146
X51.721 Y26.162
X51.759 Y26.201
X51.773 Y26.215
X51.812 Y26.253
X51.856 Y26.297
G2 X52.214 Y26.576 I1.342 J-1.352
G1 X52.276 Y26.614
X52.285 Y26.619
X52.347 Y26.656
X52.359 Y26.663
X52.422 Y26.7
X52.441 Y26.711
X52.504 Y26.747
X52.53 Y26.762
X52.593 Y26.796
X52.626 Y26.814
X52.689 Y26.847
X52.73 Y26.868
X52.794 Y26.9
X52.842 Y26.922
X52.907 Y26.952
X52.965 Y26.978
X53.031 Y27.005
X53.093 Y27.03
X53.159 Y27.055
X53.233 Y27.081
X53.3 Y27.103
X53.364 Y27.124
X53.215 Y27.103
X53.054 Y27.077
X52.894 Y27.047
X52.732 Y27.013
X52.567 Y26.975
X52.397 Y26.932
X52.223 Y26.885
X52.045 Y26.834
X51.864 Y26.78
X51.679 Y26.723
X51.489 Y26.663
X51.295 Y26.601
X51.232 Y26.58
X51.104 Y26.516
X50.985 Y26.456
X50.871 Y26.397
X50.763 Y26.339
X50.661 Y26.283
X50.566 Y26.229
X50.477 Y26.175
X50.394 Y26.123
X50.318 Y26.072
X50.249 Y26.022
X50.186 Y25.974
X50.127 Y25.926
X50.067 Y25.873
X50.005 Y25.814
X49.939 Y25.749
X49.871 Y25.677
X49.799 Y25.599
X49.725 Y25.514
X49.648 Y25.423
X49.567 Y25.326
X49.484 Y25.223
X49.402 Y25.121
X49.353 Y25.033
X49.296 Y24.932
X49.244 Y24.835
X49.195 Y24.742
X49.15 Y24.655
X49.11 Y24.572
X49.074 Y24.494
X49.043 Y24.421
X49.015 Y24.354
X48.993 Y24.292
X48.974 Y24.233
X48.957 Y24.175
X48.941 Y24.113
X48.926 Y24.043
X48.911 Y23.967
X48.897 Y23.884
X48.885 Y23.794
X48.873 Y23.697
X48.862 Y23.595
X48.851 Y23.485
X48.841 Y23.37
X48.834 Y23.287
X48.836 Y23.271
X48.853 Y23.097
X48.871 Y22.933
X48.89 Y22.777
X48.911 Y22.631
X48.933 Y22.496
X48.956 Y22.372
X48.982 Y22.259
X49.008 Y22.157
X49.036 Y22.067
X49.064 Y21.988
X49.093 Y21.919
X49.125 Y21.852
X49.165 Y21.78
X49.214 Y21.701
X49.272 Y21.614
X49.34 Y21.521
X49.418 Y21.422
X49.504 Y21.317
X49.6 Y21.205
X49.704 Y21.088
X49.816 Y20.967
X49.907 Y20.869
X49.938 Y20.849
X50.154 Y20.708
X50.366 Y20.571
X50.574 Y20.439
X50.779 Y20.313
X50.981 Y20.193
X51.179 Y20.079
X51.373 Y19.972
X51.565 Y19.873
X51.755 Y19.781
X51.945 Y19.695
X52.14 Y19.614
X52.341 Y19.536
X52.549 Y19.461
X52.762 Y19.389
X52.981 Y19.32
X53.205 Y19.253
X53.436 Y19.188
X53.671 Y19.125
X53.911 Y19.064
X54.156 Y19.003
X54.406 Y18.943
X54.66 Y18.883
X54.893 Y18.828
X55.009 Y18.804
X55.153 Y18.774
X55.298 Y18.743
X55.447 Y18.71
X55.461 Y18.707
X55.6 Y18.676
X55.617 Y18.672
X55.755 Y18.639
X55.773 Y18.635
X55.911 Y18.601
X55.936 Y18.595
X56.073 Y18.559
X56.098 Y18.552
X56.235 Y18.515
X56.264 Y18.507
X56.399 Y18.467
X56.433 Y18.457
X56.568 Y18.415
X56.605 Y18.403
X56.739 Y18.358
X56.775 Y18.345
X56.908 Y18.298
X56.951 Y18.282
X57.082 Y18.232
X57.126 Y18.214
X57.256 Y18.16
X57.303 Y18.14
X57.432 Y18.083
X57.472 Y18.064
X57.599 Y18.004
X57.635 Y17.987
X57.761 Y17.924
X57.791 Y17.908
X57.917 Y17.843
X57.942 Y17.829
X58.067 Y17.762
X58.085 Y17.752
X58.209 Y17.683
X58.225 Y17.674
X58.348 Y17.604
X58.358 Y17.599
X58.481 Y17.528
X58.608 Y17.454
G2 X59.022 Y17.131 I-0.954 J-1.649
G1 X59.07 Y17.082
X59.123 Y17.027
X59.132 Y17.017
X59.179 Y16.968
X59.196 Y16.95
X59.241 Y16.9
X59.262 Y16.878
X59.307 Y16.828
X59.331 Y16.8
X59.375 Y16.749
X59.407 Y16.711
X59.449 Y16.66
X59.484 Y16.615
X59.524 Y16.563
X59.561 Y16.513
X59.599 Y16.46
X59.642 Y16.397
X59.678 Y16.343
X59.722 Y16.273
X59.755 Y16.217
X59.8 Y16.139
X59.83 Y16.082
X59.877 Y15.989
X59.904 Y15.93
X59.944 Y15.84
X59.968 Y15.78
X60 Y15.695
X60.022 Y15.634
X60.048 Y15.555
X60.067 Y15.493
X60.086 Y15.422
X60.103 Y15.359
X60.117 Y15.3
X60.132 Y15.236
X60.143 Y15.185
X60.156 Y15.12
X60.165 Y15.074
X60.176 Y15.008
X60.181 Y14.979
X60.192 Y14.912
X60.196 Y14.885
X60.206 Y14.818
X60.208 Y14.8
X60.217 Y14.733
X60.227 Y14.657
G2 Y14.166 I-1.889 J-0.246
G1 X60.218 Y14.096
X60.208 Y14.017
X60.206 Y14.003
X60.196 Y13.933
X60.192 Y13.905
X60.181 Y13.836
X60.175 Y13.801
X60.163 Y13.732
X60.155 Y13.69
X60.141 Y13.621
X60.13 Y13.571
X60.115 Y13.504
X60.1 Y13.441
X60.082 Y13.374
X60.063 Y13.306
X60.043 Y13.241
X60.017 Y13.162
X59.994 Y13.098
X59.961 Y13.01
X59.935 Y12.948
X59.894 Y12.854
X59.865 Y12.793
X59.818 Y12.701
X59.786 Y12.642
X59.738 Y12.559
X59.703 Y12.502
X59.658 Y12.431
X59.62 Y12.375
X59.575 Y12.311
X59.535 Y12.256
X59.497 Y12.205
X59.454 Y12.151
X59.418 Y12.106
X59.373 Y12.053
X59.341 Y12.015
X59.295 Y11.963
X59.269 Y11.934
X59.221 Y11.882
X59.199 Y11.858
X59.15 Y11.807
X59.135 Y11.792
X59.086 Y11.741
X59.074 Y11.729
X59.024 Y11.678
X58.967 Y11.621
G2 X58.65 Y11.366 I-1.347 J1.347
G1 X58.573 Y11.316
X58.487 Y11.261
X58.476 Y11.255
X58.398 Y11.206
X58.378 Y11.193
X58.3 Y11.146
X58.275 Y11.131
X58.196 Y11.084
X58.162 Y11.065
X58.083 Y11.021
X58.043 Y10.999
X57.963 Y10.956
X57.915 Y10.932
X57.834 Y10.892
X57.778 Y10.865
X57.696 Y10.828
X57.63 Y10.8
X57.547 Y10.766
X57.475 Y10.738
X57.391 Y10.708
X57.31 Y10.681
X57.225 Y10.654
X57.148 Y10.632
X57.061 Y10.609
X56.994 Y10.592
X56.906 Y10.572
X56.839 Y10.558
X56.751 Y10.542
X56.697 Y10.532
X56.608 Y10.518
X56.554 Y10.51
X56.464 Y10.498
X56.421 Y10.493
X56.331 Y10.484
X56.294 Y10.48
X56.203 Y10.472
X56.169 Y10.469
X56.078 Y10.463
X56.055 Y10.461
X55.963 Y10.456
X55.944 Y10.455
X55.852 Y10.451
X55.839 Y10.45
X55.747 Y10.446
X55.649 Y10.443
X55.539 Y10.442
X55.43 Y10.447
X55.298 Y10.457
X55.158 Y10.468
X55.14 Y10.47
X55.009 Y10.482
X54.985 Y10.484
X54.854 Y10.498
X54.822 Y10.501
X54.692 Y10.517
X54.648 Y10.523
X54.519 Y10.541
X54.47 Y10.549
X54.343 Y10.571
X54.282 Y10.582
X54.157 Y10.607
X54.088 Y10.623
X53.965 Y10.653
X53.887 Y10.673
X53.766 Y10.708
X53.68 Y10.735
X53.561 Y10.776
X53.466 Y10.811
X53.35 Y10.857
X53.248 Y10.902
X53.135 Y10.955
X53.039 Y11.004
X52.929 Y11.063
X52.843 Y11.113
X52.736 Y11.178
X52.661 Y11.226
X52.556 Y11.297
X52.494 Y11.342
X52.391 Y11.417
X52.339 Y11.457
X52.238 Y11.537
X52.194 Y11.573
X52.095 Y11.657
X52.06 Y11.686
X51.963 Y11.773
X51.935 Y11.797
X51.839 Y11.886
X51.82 Y11.904
X51.724 Y11.994
X51.711 Y12.007
X51.615 Y12.099
X51.514 Y12.197
G2 X51.211 Y12.578 I1.328 J1.366
G1 X51.16 Y12.663
X51.108 Y12.75
X51.101 Y12.761
X51.051 Y12.846
X51.042 Y12.861
X50.993 Y12.946
X50.983 Y12.964
X50.934 Y13.049
X50.921 Y13.074
X50.874 Y13.16
X50.857 Y13.192
X50.812 Y13.278
X50.793 Y13.315
X50.75 Y13.402
X50.73 Y13.443
X50.689 Y13.531
X50.668 Y13.579
X50.63 Y13.668
X50.608 Y13.72
X50.596 Y13.75
X48.502 Y13.619
X48.517 Y13.579
X48.573 Y13.443
X48.635 Y13.311
X48.705 Y13.177
X48.784 Y13.038
X48.872 Y12.895
X48.97 Y12.748
X49.076 Y12.595
X49.191 Y12.439
X49.314 Y12.277
X49.444 Y12.112
X49.58 Y11.942
X49.679 Y11.821
X49.943 Y11.654
X50.194 Y11.499
X50.438 Y11.352
X50.676 Y11.215
X50.908 Y11.089
X51.133 Y10.974
X51.352 Y10.871
X51.565 Y10.781
X51.773 Y10.703
X51.981 Y10.636
X52.198 Y10.576
X52.424 Y10.524
X52.66 Y10.479
X52.906 Y10.441
X53.161 Y10.408
X53.426 Y10.382
X53.699 Y10.361
X53.98 Y10.346
X54.269 Y10.334
X54.566 Y10.326
X54.87 Y10.32
X55.181 Y10.316
X55.466 Y10.314
X55.639 Y10.318
X55.84 Y10.323
X56.037 Y10.329
X56.231 Y10.336
X56.42 Y10.345
X56.605 Y10.355
X56.786 Y10.366
X56.963 Y10.38
X57.135 Y10.397
X57.303 Y10.415
X57.467 Y10.437
X57.626 Y10.462
X57.781 Y10.489
X57.936 Y10.521
X58.094 Y10.557
X58.256 Y10.598
X58.421 Y10.643
X58.591 Y10.692
X58.764 Y10.745
X58.942 Y10.801
X59.123 Y10.86
X59.308 Y10.922
X59.497 Y10.986
X59.559 Y11.007
X59.58 Y11.018
X59.72 Y11.09
X59.853 Y11.16
X59.981 Y11.229
X60.103 Y11.296
X60.219 Y11.362
X60.328 Y11.427
X60.43 Y11.49
X60.525 Y11.553
X60.613 Y11.614
X60.694 Y11.674
X60.769 Y11.734
X60.841 Y11.795
X60.913 Y11.861
X60.988 Y11.935
X61.067 Y12.015
X61.147 Y12.103
X61.229 Y12.196
X61.315 Y12.296
X61.402 Y12.403
X61.493 Y12.515
X61.586 Y12.633
X61.682 Y12.756
X61.695 Y12.772
X61.702 Y12.785
X61.775 Y12.916
X61.844 Y13.042
X61.909 Y13.163
X61.97 Y13.281
X62.027 Y13.393
X62.078 Y13.5
X62.125 Y13.602
X62.167 Y13.7
X62.203 Y13.793
X62.234 Y13.879
X62.261 Y13.963
X62.285 Y14.048
X62.307 Y14.137
X62.327 Y14.234
X62.346 Y14.339
X62.364 Y14.45
X62.38 Y14.567
X62.394 Y14.691
X62.407 Y14.823
X62.42 Y14.96
X62.431 Y15.104
X62.442 Y15.253
X62.445 Y15.284
X62.437 Y15.41
X62.429 Y15.527
X62.42 Y15.638
X62.411 Y15.745
X62.401 Y15.845
X62.39 Y15.939
X62.378 Y16.028
X62.365 Y16.109
X62.351 Y16.185
X62.335 Y16.255
X62.319 Y16.319
X62.302 Y16.381
X62.286 Y16.431
X62.262 Y16.487 Z-2.988
X62.227 Y16.537 Z-2.976
X62.191 Y16.574 Z-2.941
X62.15 Y16.604 Z-2.907
X62.088 Y16.634 Z-2.804
X62.065 Y16.641 Z-2.683
G0 Z3
X58.987 Y25.476
G1 Z2.5 F333.3
Z-2.683
X58.978 Y25.453 Z-2.804
X58.961 Y25.386 Z-2.907
X58.959 Y25.335 Z-2.941
X58.964 Y25.284 Z-2.976
X58.982 Y25.226 Z-2.988
X59.01 Y25.172 Z-3
X59.033 Y25.135 F1000
X59.082 Y25.057
X59.123 Y24.987
X59.167 Y24.907
X59.206 Y24.834
X59.22 Y24.807
X61.243 Y24.925
X61.237 Y24.935
X61.175 Y25.036
X61.103 Y25.141
X61.02 Y25.252
X60.925 Y25.369
X60.82 Y25.491
X60.703 Y25.618
X60.577 Y25.75
X60.441 Y25.887
X60.296 Y26.029
X60.183 Y26.137
X59.983 Y26.239
X59.768 Y26.347
X59.558 Y26.449
X59.354 Y26.544
X59.156 Y26.633
X58.962 Y26.715
X58.774 Y26.789
X58.591 Y26.856
X58.414 Y26.913
X58.239 Y26.963
X58.061 Y27.007
X57.876 Y27.046
X57.684 Y27.08
X57.484 Y27.11
X57.278 Y27.136
X57.065 Y27.157
X56.844 Y27.175
X56.618 Y27.189
X56.385 Y27.201
X56.146 Y27.211
X55.939 Y27.217
X56.002 Y27.206
X56.091 Y27.189
X56.152 Y27.177
X56.239 Y27.157
X56.31 Y27.14
X56.397 Y27.117
X56.469 Y27.096
X56.555 Y27.07
X56.634 Y27.044
X56.718 Y27.014
X56.789 Y26.987
X56.872 Y26.954
X56.934 Y26.928
X57.016 Y26.891
X57.071 Y26.866
X57.153 Y26.827
X57.2 Y26.803
X57.28 Y26.762
X57.32 Y26.741
X57.4 Y26.697
X57.431 Y26.68
X57.51 Y26.635
X57.536 Y26.62
X57.615 Y26.573
X57.634 Y26.561
X57.713 Y26.514
X57.725 Y26.506
X57.803 Y26.458
X57.889 Y26.405
G2 X58.296 Y26.065 I-1.007 J-1.617
G1 X58.359 Y25.994
X58.427 Y25.918
X58.438 Y25.907
X58.5 Y25.836
X58.515 Y25.819
X58.576 Y25.748
X58.596 Y25.724
X58.656 Y25.652
X58.679 Y25.624
X58.738 Y25.551
X58.767 Y25.513
X58.823 Y25.439
X58.854 Y25.397
X58.908 Y25.322
X58.945 Y25.269
X58.996 Y25.193
X59.01 Y25.172
G2 X59.002 Y24.878 I-0.218 J-0.142
G3 X58.976 Y24.584 I0.233 J-0.169
G1 X58.992 Y24.551
X59.025 Y24.477
X61.723 Y24.635
X61.691 Y24.722
X61.634 Y24.855
X61.575 Y24.979
X61.512 Y25.094
X61.442 Y25.209
X61.362 Y25.326
X61.271 Y25.448
X61.169 Y25.573
X61.057 Y25.703
X60.935 Y25.835
X60.804 Y25.972
X60.664 Y26.112
X60.517 Y26.257
X60.369 Y26.399
X60.348 Y26.41
X60.126 Y26.523
X59.908 Y26.631
X59.695 Y26.735
X59.487 Y26.833
X59.282 Y26.924
X59.082 Y27.009
X58.886 Y27.086
X58.694 Y27.156
X58.507 Y27.217
X58.321 Y27.27
X58.132 Y27.317
X57.937 Y27.358
X57.735 Y27.394
X57.527 Y27.425
X57.313 Y27.451
X57.093 Y27.473
X56.867 Y27.492
X56.636 Y27.506
X56.399 Y27.518
X56.157 Y27.528
X55.91 Y27.536
X55.658 Y27.542
X55.433 Y27.548
X55.255 Y27.545
X55.049 Y27.541
X54.846 Y27.537
X54.646 Y27.532
X54.449 Y27.525
X54.256 Y27.517
X54.066 Y27.507
X53.88 Y27.494
X53.696 Y27.479
X53.517 Y27.462
X53.341 Y27.441
X53.168 Y27.417
X52.999 Y27.39
X52.832 Y27.359
X52.663 Y27.323
X52.492 Y27.283
X52.317 Y27.239
X52.138 Y27.191
X51.957 Y27.139
X51.772 Y27.084
X51.584 Y27.026
X51.393 Y26.966
X51.198 Y26.903
X51.112 Y26.875
X51.087 Y26.863
X50.961 Y26.8
X50.84 Y26.738
X50.723 Y26.678
