%
(GRBL_POSTS)
(T1  D=3.175 CR=0 - ZMIN=-3 - flat end mill)
G90 G94
G17
G21

(Face1)
M9
T1 M6
S5000 M3
G54
G0 X90.364 Y0.94
Z16
Z5
G1 Z1.617 F1000
G18 G3 X90.046 Z1.3 I-0.317
G1 X88.3
X0
G17 G2 Y3.442 J1.251
G1 X88.3
G3 Y5.943 J1.251
G1 X0
G2 Y8.445 J1.251
G1 X88.3
G3 Y10.947 J1.251
G1 X0
G2 Y13.449 J1.251
G1 X88.3
G3 Y15.951 J1.251
G1 X0
G2 Y18.453 J1.251
G1 X88.3
G3 Y20.955 J1.251
G1 X0
G2 Y23.457 J1.251
G1 X88.3
G3 Y25.959 J1.251
G1 X0
G2 Y28.461 J1.251
G1 X88.3
G3 Y30.963 J1.251
G1 X0
G2 Y33.465 J1.251
G1 X88.3
G3 Y35.967 J1.251
G1 X0
G18 G3 X-0.317 Z1.617 K0.317
G0 Z6
X-2.064 Y0.94
Z5
G1 Z0.618 F1000
G2 X-1.746 Z0.3 I0.317
G1 X0
X88.3
G17 G3 Y3.442 J1.251
G1 X0
G2 Y5.943 J1.251
G1 X88.3
G3 Y8.445 J1.251
G1 X0
G2 Y10.947 J1.251
G1 X88.3
G3 Y13.449 J1.251
G1 X0
G2 Y15.951 J1.251
G1 X88.3
G3 Y18.453 J1.251
G1 X0
G2 Y20.955 J1.251
G1 X88.3
G3 Y23.457 J1.251
G1 X0
G2 Y25.959 J1.251
G1 X88.3
G3 Y28.461 J1.251
G1 X0
G2 Y30.963 J1.251
G1 X88.3
G3 Y33.465 J1.251
G1 X0
G2 Y35.967 J1.251
G1 X88.3
G18 G2 X88.618 Z0.618 K0.317
G0 Z6
X90.364 Y0.94
Z5
G1 Z0.317 F1000
G3 X90.046 Z0 I-0.317
G1 X88.3
X0
G17 G2 Y3.442 J1.251
G1 X88.3
G3 Y5.943 J1.251
G1 X0
G2 Y8.445 J1.251
G1 X88.3
G3 Y10.947 J1.251
G1 X0
G2 Y13.449 J1.251
G1 X88.3
G3 Y15.951 J1.251
G1 X0
G2 Y18.453 J1.251
G1 X88.3
G3 Y20.955 J1.251
G1 X0
G2 Y23.457 J1.251
G1 X88.3
G3 Y25.959 J1.251
G1 X0
G2 Y28.461 J1.251
G1 X88.3
G3 Y30.963 J1.251
G1 X0
G2 Y33.465 J1.251
G1 X88.3
G3 Y35.967 J1.251
G1 X0
G18 G3 X-0.317 Z0.317 K0.317
G0 Z16
G17

(2D Pocket3)
G0 X53.625 Y27.271
Z15
Z5
G1 Z2.817 F1000
X53.62 Z2.757 F333.3
X53.603 Y27.269 Z2.699
X53.575 Y27.266 Z2.646
X53.538 Y27.263 Z2.598
X53.488 Y27.257 Z2.555
X53.43 Y27.25 Z2.524
X53.366 Y27.243 Z2.505
X53.321 Y27.236 Z2.5
X53.198 Y27.219 Z2.496
X53.034 Y27.193 Z2.49
X52.871 Y27.163 Z2.484
X52.706 Y27.128 Z2.478
X52.539 Y27.089 Z2.472
X52.367 Y27.046 Z2.466
X52.192 Y26.998 Z2.46
X52.013 Y26.947 Z2.453
X51.83 Y26.893 Z2.447
X51.644 Y26.835 Z2.44
X51.454 Y26.775 Z2.433
X51.259 Y26.713 Z2.426
X51.188 Y26.689 Z2.423
X51.176 Y26.684
X51.051 Y26.621 Z2.418
X50.931 Y26.56 Z2.413
X50.816 Y26.501 Z2.408
X50.707 Y26.443 Z2.404
X50.603 Y26.386 Z2.4
X50.506 Y26.33 Z2.396
X50.415 Y26.275 Z2.392
X50.33 Y26.221 Z2.389
X50.251 Y26.169 Z2.386
X50.179 Y26.117 Z2.382
X50.113 Y26.066 Z2.38
X50.051 Y26.015 Z2.377
X49.988 Y25.96 Z2.374
X49.923 Y25.899 Z2.371
X49.855 Y25.831 Z2.367
X49.785 Y25.757 Z2.364
X49.712 Y25.677 Z2.36
X49.636 Y25.59 Z2.356
X49.558 Y25.498 Z2.352
X49.477 Y25.4 Z2.347
X49.392 Y25.297 Z2.343
X49.306 Y25.189 Z2.338
X49.25 Y25.091 Z2.334
X49.193 Y24.988 Z2.33
X49.14 Y24.89 Z2.326
X49.091 Y24.796 Z2.322
X49.045 Y24.707 Z2.319
X49.004 Y24.622 Z2.315
X48.967 Y24.542 Z2.312
X48.934 Y24.467 Z2.309
X48.906 Y24.396 Z2.307
X48.882 Y24.33 Z2.304
X48.861 Y24.268 Z2.302
X48.843 Y24.206 Z2.3
X48.827 Y24.14 Z2.297
X48.811 Y24.067 Z2.295
X48.795 Y23.987 Z2.292
X48.781 Y23.902 Z2.289
X48.768 Y23.81 Z2.286
X48.756 Y23.711 Z2.282
X48.745 Y23.607 Z2.279
X48.734 Y23.496 Z2.275
X48.724 Y23.38 Z2.271
X48.716 Y23.286 Z2.267
X48.719 Y23.26 Z2.266
X48.737 Y23.085 Z2.26
X48.755 Y22.919 Z2.254
X48.774 Y22.762 Z2.249
X48.795 Y22.614 Z2.244
X48.817 Y22.475 Z2.239
X48.841 Y22.348 Z2.234
X48.867 Y22.231 Z2.23
X48.895 Y22.125 Z2.226
X48.924 Y22.03 Z2.223
X48.954 Y21.946 Z2.22
X48.986 Y21.871 Z2.217
X49.021 Y21.798 Z2.214
X49.063 Y21.721 Z2.211
X49.115 Y21.637 Z2.207
X49.176 Y21.547 Z2.204
X49.247 Y21.45 Z2.199
X49.326 Y21.348 Z2.195
X49.414 Y21.241 Z2.19
X49.512 Y21.128 Z2.185
X49.617 Y21.01 Z2.179
X49.73 Y20.887 Z2.174
X49.83 Y20.779 Z2.168
X49.874 Y20.75 Z2.167
X50.09 Y20.609 Z2.158
X50.303 Y20.472 Z2.149
X50.512 Y20.34 Z2.14
X50.718 Y20.213 Z2.132
X50.921 Y20.091 Z2.123
X51.121 Y19.976 Z2.115
X51.318 Y19.868 Z2.107
X51.512 Y19.768 Z2.1
X51.705 Y19.674 Z2.092
X51.898 Y19.587 Z2.085
X52.096 Y19.505 Z2.077
X52.3 Y19.425 Z2.07
X52.51 Y19.35 Z2.062
X52.725 Y19.277 Z2.054
X52.946 Y19.207 Z2.046
X53.173 Y19.14 Z2.038
X53.405 Y19.075 Z2.029
X53.641 Y19.011 Z2.021
X53.882 Y18.95 Z2.012
X54.128 Y18.889 Z2.003
X54.379 Y18.828 Z1.994
X54.633 Y18.768 Z1.985
X54.868 Y18.713 Z1.977
X54.985 Y18.689 Z1.973
X55.129 Y18.659 Z1.967
X55.274 Y18.628 Z1.962
X55.422 Y18.595 Z1.957
X55.435 Y18.593 Z1.956
X55.574 Y18.561 Z1.951
X55.59 Y18.557
X55.728 Y18.525 Z1.946
X55.745 Y18.521 Z1.945
X55.883 Y18.487 Z1.94
X55.907 Y18.481
X56.044 Y18.445 Z1.935
X56.067 Y18.439 Z1.934
X56.204 Y18.402 Z1.929
X56.231 Y18.394 Z1.928
X56.367 Y18.354 Z1.923
X56.398 Y18.345 Z1.922
X56.533 Y18.303 Z1.917
X56.568 Y18.291 Z1.916
X56.701 Y18.247 Z1.911
X56.736 Y18.235 Z1.909
X56.868 Y18.187 Z1.904
X56.908 Y18.173 Z1.903
X57.04 Y18.122 Z1.898
X57.082 Y18.105 Z1.896
X57.212 Y18.052 Z1.892
X57.255 Y18.033 Z1.89
X57.384 Y17.976 Z1.885
X57.421 Y17.958 Z1.883
X57.549 Y17.898 Z1.879
X57.582 Y17.882 Z1.877
X57.709 Y17.818 Z1.872
X57.737 Y17.804 Z1.871
X57.862 Y17.739 Z1.866
X57.886 Y17.726 Z1.865
X58.011 Y17.659 Z1.86
X58.028 Y17.649
X58.152 Y17.58 Z1.855
X58.167 Y17.572 Z1.854
X58.29 Y17.502 Z1.849
X58.422 Y17.426 Z1.844
X58.549 Y17.353 Z1.839
G2 X58.938 Y17.049 Z1.822 I-0.895 J-1.547
G1 X58.985 Y17 Z1.819
X59.038 Y16.946 Z1.816
X59.047 Y16.936
X59.094 Y16.887 Z1.814
X59.109 Y16.87 Z1.813
X59.155 Y16.821 Z1.81
X59.174 Y16.8 Z1.809
X59.219 Y16.75 Z1.807
X59.242 Y16.723 Z1.806
X59.286 Y16.673 Z1.804
X59.316 Y16.637 Z1.802
X59.358 Y16.585 Z1.8
X59.391 Y16.544 Z1.798
X59.431 Y16.491 Z1.795
X59.466 Y16.445 Z1.793
X59.504 Y16.391 Z1.791
X59.544 Y16.333 Z1.789
X59.58 Y16.278 Z1.786
X59.621 Y16.213 Z1.784
X59.654 Y16.157 Z1.781
X59.696 Y16.083 Z1.778
X59.727 Y16.026 Z1.776
X59.771 Y15.939 Z1.773
X59.798 Y15.881 Z1.771
X59.835 Y15.796 Z1.767
X59.859 Y15.736 Z1.765
X59.889 Y15.656 Z1.762
X59.911 Y15.595 Z1.76
X59.935 Y15.521 Z1.757
X59.954 Y15.458 Z1.755
X59.973 Y15.393 Z1.752
X59.989 Y15.329 Z1.75
X60.003 Y15.274 Z1.748
X60.018 Y15.209 Z1.746
X60.028 Y15.162 Z1.744
X60.041 Y15.097 Z1.742
X60.049 Y15.054 Z1.74
X60.061 Y14.988 Z1.738
X60.065 Y14.96 Z1.737
X60.076 Y14.894 Z1.735
X60.08 Y14.868 Z1.734
X60.089 Y14.801 Z1.731
X60.092 Y14.785
X60.101 Y14.717 Z1.728
X60.111 Y14.642 Z1.726
G2 Y14.181 Z1.71 I-1.772 J-0.231
G1 X60.102 Y14.111 Z1.707
X60.091 Y14.033 Z1.704
X60.089 Y14.019
X60.079 Y13.95 Z1.701
X60.076 Y13.923
X60.065 Y13.854 Z1.698
X60.059 Y13.821 Z1.697
X60.047 Y13.753 Z1.694
X60.04 Y13.713 Z1.693
X60.026 Y13.644 Z1.691
X60.016 Y13.597 Z1.689
X60.001 Y13.53 Z1.687
X59.986 Y13.471 Z1.684
X59.968 Y13.404 Z1.682
X59.95 Y13.34 Z1.68
X59.93 Y13.275 Z1.677
X59.906 Y13.201 Z1.675
X59.883 Y13.137 Z1.672
X59.852 Y13.054 Z1.669
X59.826 Y12.992 Z1.667
X59.787 Y12.904 Z1.663
X59.759 Y12.843 Z1.661
X59.715 Y12.757 Z1.658
X59.683 Y12.698 Z1.655
X59.638 Y12.62 Z1.652
X59.603 Y12.563 Z1.65
X59.561 Y12.497 Z1.647
X59.523 Y12.44 Z1.645
X59.481 Y12.38 Z1.642
X59.44 Y12.325 Z1.64
X59.404 Y12.278 Z1.638
X59.362 Y12.224 Z1.635
X59.327 Y12.181 Z1.633
X59.283 Y12.128 Z1.631
X59.253 Y12.093 Z1.629
X59.207 Y12.04 Z1.627
X59.182 Y12.013 Z1.626
X59.135 Y11.961 Z1.623
X59.114 Y11.939 Z1.622
X59.065 Y11.888 Z1.62
X59.051 Y11.874 Z1.619
X59.002 Y11.823 Z1.616
X58.991 Y11.811
X58.941 Y11.761 Z1.613
X58.884 Y11.704 Z1.611
G2 X58.587 Y11.465 Z1.597 I-1.264 J1.264
G1 X58.509 Y11.415 Z1.594
X58.424 Y11.361 Z1.591
X58.414 Y11.354 Z1.59
X58.336 Y11.305 Z1.587
X58.317 Y11.294 Z1.586
X58.239 Y11.246 Z1.583
X58.215 Y11.232 Z1.582
X58.136 Y11.186 Z1.579
X58.105 Y11.168 Z1.578
X58.025 Y11.123 Z1.574
X57.988 Y11.103 Z1.573
X57.908 Y11.06 Z1.57
X57.863 Y11.037 Z1.568
X57.782 Y10.998 Z1.565
X57.729 Y10.972 Z1.563
X57.647 Y10.935 Z1.56
X57.586 Y10.909 Z1.557
X57.503 Y10.875 Z1.554
X57.435 Y10.849 Z1.552
X57.351 Y10.818 Z1.548
X57.275 Y10.793 Z1.546
X57.19 Y10.766 Z1.543
X57.117 Y10.745 Z1.54
X57.031 Y10.722 Z1.537
X56.968 Y10.707 Z1.535
X56.88 Y10.687 Z1.531
X56.818 Y10.674 Z1.529
X56.729 Y10.657 Z1.526
X56.678 Y10.648 Z1.524
X56.589 Y10.634 Z1.521
X56.539 Y10.627 Z1.519
X56.449 Y10.615 Z1.516
X56.409 Y10.61 Z1.515
X56.318 Y10.6 Z1.512
X56.284 Y10.597 Z1.51
X56.193 Y10.589 Z1.507
X56.161 Y10.587 Z1.506
X56.07 Y10.58 Z1.503
X56.048 Y10.579 Z1.502
X55.956 Y10.573 Z1.499
X55.938 Z1.498
X55.846 Y10.568 Z1.495
X55.835
X55.742 Y10.564 Z1.491
X55.644 Y10.56 Z1.488
X55.542 Y10.559 Z1.484
X55.439 Y10.564 Z1.481
X55.307 Y10.574 Z1.476
X55.168 Y10.586 Z1.471
X55.151 Y10.587
X55.019 Y10.599 Z1.466
X54.997 Y10.601 Z1.465
X54.866 Y10.615 Z1.461
X54.836 Y10.618 Z1.46
X54.706 Y10.633 Z1.455
X54.665 Y10.639 Z1.454
X54.536 Y10.657 Z1.449
X54.49 Y10.665 Z1.447
X54.363 Y10.686 Z1.443
X54.306 Y10.697 Z1.441
X54.18 Y10.723 Z1.436
X54.116 Y10.737 Z1.434
X53.992 Y10.767 Z1.43
X53.92 Y10.786 Z1.427
X53.799 Y10.821 Z1.423
X53.718 Y10.847 Z1.42
X53.599 Y10.887 Z1.415
X53.51 Y10.92 Z1.412
X53.394 Y10.966 Z1.408
X53.298 Y11.008 Z1.404
X53.185 Y11.061 Z1.4
X53.095 Y11.107 Z1.396
X52.985 Y11.166 Z1.392
X52.904 Y11.213 Z1.388
X52.797 Y11.278 Z1.384
X52.727 Y11.324 Z1.381
X52.622 Y11.395 Z1.377
X52.563 Y11.436 Z1.374
X52.461 Y11.512 Z1.37
X52.412 Y11.549 Z1.368
X52.311 Y11.629 Z1.363
X52.269 Y11.663 Z1.361
X52.17 Y11.746 Z1.357
X52.138 Y11.774 Z1.355
X52.04 Y11.861 Z1.351
X52.015 Y11.884 Z1.35
X51.918 Y11.973 Z1.345
X51.9 Y11.989 Z1.344
X51.805 Y12.08 Z1.339
X51.792 Y12.092
X51.697 Y12.183 Z1.334
X51.596 Y12.282 Z1.329
G2 X51.312 Y12.639 Z1.313 I1.246 J1.281
G1 X51.261 Y12.723 Z1.31
X51.209 Y12.81 Z1.306
X51.202 Y12.821
X51.152 Y12.905 Z1.302
X51.144 Y12.92
X51.095 Y13.005 Z1.298
X51.085 Y13.022
X51.037 Y13.107 Z1.294
X51.024 Y13.131 Z1.293
X50.977 Y13.216 Z1.29
X50.961 Y13.246 Z1.289
X50.916 Y13.332 Z1.285
X50.899 Y13.367 Z1.284
X50.855 Y13.454 Z1.281
X50.837 Y13.493 Z1.279
X50.796 Y13.581 Z1.276
X50.776 Y13.625 Z1.274
X50.738 Y13.714 Z1.271
X50.717 Y13.764 Z1.269
X50.681 Y13.854 Z1.265
X50.674 Y13.873
X48.339 Y13.726 Z1.183
X48.352 Y13.687 Z1.182
X48.407 Y13.537 Z1.176
X48.466 Y13.396 Z1.171
X48.53 Y13.259 Z1.165
X48.602 Y13.12 Z1.16
X48.683 Y12.978 Z1.154
X48.773 Y12.832 Z1.148
X48.872 Y12.682 Z1.142
X48.98 Y12.527 Z1.135
X49.097 Y12.368 Z1.129
X49.221 Y12.205 Z1.121
X49.352 Y12.039 Z1.114
X49.489 Y11.868 Z1.106
X49.6 Y11.732 Z1.1
X49.623 Y11.717 Z1.099
X49.881 Y11.554 Z1.089
X50.133 Y11.399 Z1.078
X50.379 Y11.251 Z1.068
X50.619 Y11.113 Z1.059
X50.853 Y10.985 Z1.049
X51.082 Y10.868 Z1.04
X51.304 Y10.764 Z1.032
X51.521 Y10.672 Z1.023
X51.734 Y10.592 Z1.016
X51.948 Y10.523 Z1.008
X52.169 Y10.462 Z1
X52.4 Y10.409 Z0.991
X52.64 Y10.363 Z0.983
X52.89 Y10.324 Z0.974
X53.148 Y10.292 Z0.965
X53.415 Y10.265 Z0.956
X53.691 Y10.244 Z0.946
X53.974 Y10.228 Z0.936
X54.265 Y10.216 Z0.926
X54.563 Y10.208 Z0.915
X54.868 Y10.203 Z0.905
X55.179 Y10.199 Z0.894
X55.467 Y10.196 Z0.884
X55.642 Y10.201 Z0.878
X55.843 Y10.206 Z0.871
X56.041 Y10.212 Z0.864
X56.235 Y10.219 Z0.857
X56.426 Y10.227 Z0.85
X56.612 Y10.237 Z0.844
X56.794 Y10.249 Z0.837
X56.973 Y10.263 Z0.831
X57.147 Y10.28 Z0.825
X57.317 Y10.299 Z0.819
X57.483 Y10.321 Z0.813
X57.645 Y10.346 Z0.808
X57.803 Y10.374 Z0.802
X57.961 Y10.406 Z0.796
X58.121 Y10.443 Z0.791
X58.285 Y10.484 Z0.785
X58.453 Y10.53 Z0.779
X58.624 Y10.579 Z0.772
X58.799 Y10.632 Z0.766
X58.978 Y10.689 Z0.759
X59.16 Y10.748 Z0.753
X59.346 Y10.81 Z0.746
X59.535 Y10.875 Z0.739
X59.605 Y10.899 Z0.736
X59.634 Y10.914 Z0.735
X59.774 Y10.986 Z0.73
X59.908 Y11.057 Z0.724
X60.037 Y11.126 Z0.719
X60.161 Y11.194 Z0.714
X60.278 Y11.261 Z0.71
X60.389 Y11.326 Z0.705
X60.493 Y11.391 Z0.701
X60.591 Y11.456 Z0.697
X60.682 Y11.519 Z0.693
X60.766 Y11.581 Z0.689
X60.844 Y11.643 Z0.686
X60.919 Y11.707 Z0.682
X60.994 Y11.776 Z0.679
X61.072 Y11.852 Z0.675
X61.152 Y11.935 Z0.671
X61.234 Y12.024 Z0.667
X61.318 Y12.119 Z0.662
X61.405 Y12.221 Z0.658
X61.494 Y12.328 Z0.653
X61.585 Y12.442 Z0.648
X61.679 Y12.561 Z0.642
X61.775 Y12.684 Z0.637
X61.793 Y12.707 Z0.636
X61.805 Y12.728 Z0.635
X61.878 Y12.859 Z0.63
X61.947 Y12.986 Z0.625
X62.013 Y13.108 Z0.62
X62.075 Y13.227 Z0.615
X62.132 Y13.341 Z0.611
X62.185 Y13.45 Z0.607
X62.232 Y13.554 Z0.603
X62.275 Y13.655 Z0.599
X62.313 Y13.751 Z0.595
X62.346 Y13.842 Z0.592
X62.373 Y13.929 Z0.589
X62.398 Y14.018 Z0.585
X62.421 Y14.111 Z0.582
X62.442 Y14.212 Z0.578
X62.462 Y14.319 Z0.575
X62.48 Y14.433 Z0.571
X62.496 Y14.553 Z0.566
X62.511 Y14.679 Z0.562
X62.524 Y14.811 Z0.557
X62.537 Y14.95 Z0.552
X62.548 Y15.094 Z0.547
X62.56 Y15.244 Z0.542
X62.562 Y15.283 Z0.541
Y15.295 Z0.54
X62.554 Y15.418 Z0.536
X62.546 Y15.535 Z0.532
X62.538 Y15.648 Z0.528
X62.528 Y15.756 Z0.524
X62.518 Y15.858 Z0.521
X62.507 Y15.954 Z0.517
X62.494 Y16.045 Z0.514
X62.481 Y16.129 Z0.511
X62.466 Y16.208 Z0.508
X62.45 Y16.282 Z0.506
X62.433 Y16.349 Z0.503
X62.414 Y16.415 Z0.501
X62.392 Y16.485 Z0.498
X62.365 Y16.56 Z0.495
X62.335 Y16.639 Z0.492
X62.301 Y16.721 Z0.489
X62.263 Y16.809 Z0.486
X62.22 Y16.902 Z0.482
X62.175 Y16.999 Z0.479
X62.126 Y17.101 Z0.475
X62.073 Y17.206 Z0.471
X62.03 Y17.292 Z0.467
X61.956 Y17.39 Z0.463
X61.877 Y17.494 Z0.458
X61.801 Y17.592 Z0.454
X61.727 Y17.685 Z0.45
X61.655 Y17.772 Z0.446
X61.586 Y17.853 Z0.442
X61.519 Y17.928 Z0.439
X61.454 Y17.997 Z0.436
X61.392 Y18.06 Z0.432
X61.332 Y18.116 Z0.43
X61.272 Y18.17 Z0.427
X61.206 Y18.224 Z0.424
X61.136 Y18.279 Z0.421
X61.059 Y18.335 Z0.417
X60.976 Y18.393 Z0.414
X60.888 Y18.451 Z0.41
X60.794 Y18.511 Z0.406
X60.695 Y18.573 Z0.402
X60.59 Y18.635 Z0.398
X60.48 Y18.7 Z0.393
X60.365 Y18.765 Z0.389
X60.246 Y18.832 Z0.384
X60.218 Y18.848 Z0.383
X60.086 Y18.902 Z0.378
X59.855 Y18.996 Z0.369
X59.625 Y19.089 Z0.361
X59.398 Y19.18 Z0.352
X59.173 Y19.268 Z0.344
X58.949 Y19.353 Z0.335
X58.728 Y19.436 Z0.327
X58.508 Y19.516 Z0.319
X58.29 Y19.591 Z0.311
X58.073 Y19.664 Z0.303
X57.855 Y19.733 Z0.295
X57.635 Y19.799 Z0.287
X57.412 Y19.864 Z0.279
X57.186 Y19.926 Z0.27
X56.958 Y19.987 Z0.262
X56.727 Y20.046 Z0.254
X56.494 Y20.103 Z0.245
X56.259 Y20.16 Z0.237
X56.021 Y20.215 Z0.229
X55.781 Y20.269 Z0.22
X55.539 Y20.323 Z0.211
X55.296 Y20.377 Z0.203
X55.05 Y20.43 Z0.194
X54.82 Y20.48 Z0.186
X54.747 Y20.494 Z0.183
X54.652 Y20.513 Z0.18
X54.554 Y20.532 Z0.176
X54.545 Y20.535
X54.453 Y20.553 Z0.172
X54.442 Y20.556
X54.351 Y20.575 Z0.169
X54.335 Y20.579 Z0.168
X54.244 Y20.599 Z0.165
X54.226 Y20.603 Z0.164
X54.135 Y20.624 Z0.161
X54.114 Y20.629 Z0.16
X54.024 Y20.652 Z0.157
X53.998 Y20.658 Z0.156
X53.908 Y20.682 Z0.153
X53.88 Y20.689 Z0.152
X53.791 Y20.714 Z0.149
X53.76 Y20.723 Z0.148
X53.672 Y20.75 Z0.144
X53.638 Y20.76 Z0.143
X53.55 Y20.788 Z0.14
X53.513 Y20.801 Z0.139
X53.426 Y20.831 Z0.135
X53.387 Y20.845 Z0.134
X53.301 Y20.877 Z0.131
X53.258 Y20.894 Z0.129
X53.173 Y20.928 Z0.126
X53.128 Y20.947 Z0.124
X53.044 Y20.983 Z0.121
X53.004 Y21.001 Z0.119
X52.921 Y21.04 Z0.116
X52.888 Y21.056 Z0.115
X52.805 Y21.096 Z0.112
X52.775 Y21.111 Z0.111
X52.692 Y21.153 Z0.107
X52.667 Y21.167 Z0.106
X52.585 Y21.21 Z0.103
X52.569 Y21.219 Z0.102
X52.487 Y21.264 Z0.099
X52.472 Y21.272
X52.391 Y21.317 Z0.095
X52.382 Y21.322
X52.301 Y21.368 Z0.092
X52.217 Y21.416 Z0.088
G2 X51.863 Y21.681 Z0.073 I0.885 J1.553
G1 X51.832 Y21.71 Z0.071
X51.797 Y21.744 Z0.07
X51.784 Y21.757 Z0.069
X51.754 Y21.787 Z0.068
X51.741 Y21.799 Z0.067
X51.711 Y21.829 Z0.065
X51.689 Y21.853 Z0.064
X51.659 Y21.883 Z0.063
X51.634 Y21.91 Z0.062
X51.606 Y21.941 Z0.06
X51.577 Y21.973 Z0.059
X51.55 Y22.004 Z0.057
X51.514 Y22.047 Z0.055
X51.487 Y22.079 Z0.054
X51.45 Y22.126 Z0.052
X51.425 Y22.159 Z0.05
X51.385 Y22.212 Z0.048
X51.361 Y22.246 Z0.046
X51.314 Y22.315 Z0.044
X51.292 Y22.35 Z0.042
X51.247 Y22.425 Z0.039
X51.227 Y22.46 Z0.038
X51.181 Y22.545 Z0.034
X51.163 Y22.581 Z0.033
X51.121 Y22.669 Z0.029
X51.105 Y22.706 Z0.028
X51.07 Y22.791 Z0.025
X51.056 Y22.829 Z0.023
X51.03 Y22.902 Z0.021
X51.017 Y22.941 Z0.019
X50.996 Y23.011 Z0.017
X50.985 Y23.05 Z0.015
X50.969 Y23.11 Z0.013
X50.959 Y23.151 Z0.012
X50.947 Y23.2 Z0.01
X50.938 Y23.241 Z0.008
X50.93 Y23.281 Z0.007
X50.922 Y23.322 Z0.005
X50.915 Y23.359 Z0.004
X50.908 Y23.401 Z0.003
X50.905 Y23.423 Z0.002
X50.898 Y23.465 Z0
X50.895 Y23.482
X50.889 Y23.524 Z-0.002
X50.882 Y23.571 Z-0.003
G2 X50.875 Y24.04 Z-0.02 I1.769 J0.259
G1 X50.882 Y24.094 Z-0.022
X50.883 Y24.104
X50.89 Y24.158 Z-0.024
X50.891 Y24.172
X50.898 Y24.226 Z-0.026
X50.902 Y24.251 Z-0.027
X50.91 Y24.304 Z-0.029
X50.914 Y24.335 Z-0.03
X50.923 Y24.388 Z-0.032
X50.931 Y24.431 Z-0.034
X50.941 Y24.483 Z-0.035
X50.95 Y24.532 Z-0.037
X50.962 Y24.584 Z-0.039
X50.975 Y24.642 Z-0.041
X50.988 Y24.693 Z-0.043
X51.007 Y24.761 Z-0.045
X51.021 Y24.811 Z-0.047
X51.044 Y24.883 Z-0.05
X51.061 Y24.932 Z-0.052
X51.092 Y25.017 Z-0.055
X51.112 Y25.065 Z-0.057
X51.149 Y25.153 Z-0.06
X51.171 Y25.2 Z-0.062
X51.216 Y25.29 Z-0.065
X51.24 Y25.336 Z-0.067
X51.285 Y25.416 Z-0.07
X51.312 Y25.461 Z-0.072
X51.359 Y25.534 Z-0.075
X51.388 Y25.578 Z-0.077
X51.43 Y25.638 Z-0.08
X51.461 Y25.68 Z-0.081
X51.5 Y25.732 Z-0.084
X51.532 Y25.773 Z-0.085
X51.566 Y25.815 Z-0.087
X51.601 Y25.856 Z-0.089
X51.634 Y25.894 Z-0.091
X51.669 Y25.935 Z-0.093
X51.695 Y25.963 Z-0.094
X51.732 Y26.003 Z-0.096
X51.753 Y26.025 Z-0.097
X51.79 Y26.064 Z-0.099
X51.805 Y26.079 Z-0.1
X51.843 Y26.118 Z-0.102
X51.856 Y26.132
X51.895 Y26.17 Z-0.104
X51.938 Y26.214 Z-0.106
G2 X52.275 Y26.476 Z-0.121 I1.259 J-1.269
G1 X52.337 Y26.513 Z-0.124
X52.407 Y26.555 Z-0.127
X52.419 Y26.562
X52.481 Y26.599 Z-0.13
X52.499 Y26.609
X52.562 Y26.645 Z-0.133
X52.587 Y26.659 Z-0.134
X52.65 Y26.693 Z-0.136
X52.68 Y26.71 Z-0.138
X52.744 Y26.743 Z-0.14
X52.782 Y26.763 Z-0.142
X52.846 Y26.794 Z-0.144
X52.891 Y26.815 Z-0.146
X52.956 Y26.845 Z-0.148
X53.011 Y26.869 Z-0.15
X53.076 Y26.897 Z-0.153
X53.135 Y26.92 Z-0.155
X53.201 Y26.945 Z-0.158
X53.27 Y26.97 Z-0.16
X53.337 Y26.992 Z-0.163
X53.41 Y27.015 Z-0.165
X53.478 Y27.034 Z-0.168
X53.545 Y27.052 Z-0.17
X53.614 Y27.068 Z-0.173
X53.677 Y27.083 Z-0.175
X53.747 Y27.097 Z-0.177
X53.804 Y27.108 Z-0.179
X53.874 Y27.12 Z-0.182
X53.925 Y27.128 Z-0.184
X53.995 Y27.138 Z-0.186
X54.039 Y27.143 Z-0.188
X54.11 Y27.152 Z-0.19
X54.151 Y27.156 Z-0.192
X54.222 Y27.163 Z-0.194
X54.255 Y27.165 Z-0.195
X54.327 Y27.171 Z-0.198
X54.357 Y27.173 Z-0.199
X54.43 Y27.177 Z-0.201
X54.45 Y27.178 Z-0.202
X54.522 Y27.181 Z-0.205
X54.54 Y27.182
X54.612 Y27.185 Z-0.208
X54.695 Y27.188 Z-0.211
X54.775 Y27.19 Z-0.214
X54.896 Y27.189 Z-0.218
X54.988 Y27.185 Z-0.221
X55.087 Y27.181 Z-0.224
X55.098 Y27.18 Z-0.225
X55.191 Y27.176 Z-0.228
X55.209 Y27.175 Z-0.229
X55.301 Y27.169 Z-0.232
X55.322 Y27.168 Z-0.233
X55.414 Y27.161 Z-0.236
X55.444 Y27.159 Z-0.237
X55.535 Y27.151 Z-0.24
X55.569 Y27.148 Z-0.241
X55.66 Y27.138 Z-0.244
X55.702 Y27.133 Z-0.246
X55.792 Y27.121 Z-0.249
X55.836 Y27.114 Z-0.251
X55.926 Y27.1 Z-0.254
X55.981 Y27.091 Z-0.256
X56.069 Y27.074 Z-0.259
X56.126 Y27.062 Z-0.261
X56.214 Y27.043 Z-0.264
X56.28 Y27.026 Z-0.267
X56.367 Y27.003 Z-0.27
X56.435 Y26.984 Z-0.272
X56.52 Y26.958 Z-0.275
X56.595 Y26.933 Z-0.278
X56.679 Y26.903 Z-0.281
X56.745 Y26.878 Z-0.284
X56.828 Y26.845 Z-0.287
X56.886 Y26.82 Z-0.289
X56.968 Y26.784 Z-0.292
X57.02 Y26.76 Z-0.294
X57.102 Y26.721 Z-0.297
X57.146 Y26.699 Z-0.299
X57.227 Y26.657 Z-0.302
X57.264 Y26.638 Z-0.304
X57.344 Y26.594 Z-0.307
X57.373 Y26.578 Z-0.308
X57.452 Y26.532 Z-0.311
X57.476 Y26.519 Z-0.312
X57.555 Y26.472 Z-0.315
X57.573 Y26.461 Z-0.316
X57.652 Y26.413 Z-0.319
X57.663 Y26.406 Z-0.32
X57.742 Y26.358 Z-0.323
X57.827 Y26.305 Z-0.326
G2 X58.208 Y25.986 Z-0.344 I-0.945 J-1.518
G1 X58.272 Y25.916 Z-0.347
X58.34 Y25.84 Z-0.351
X58.35 Y25.829
X58.412 Y25.758 Z-0.354
X58.425 Y25.743 Z-0.355
X58.487 Y25.671 Z-0.358
X58.506 Y25.649 Z-0.36
X58.566 Y25.577 Z-0.363
X58.587 Y25.55 Z-0.364
X58.646 Y25.478 Z-0.367
X58.673 Y25.442 Z-0.369
X58.73 Y25.368 Z-0.372
X58.759 Y25.329 Z-0.374
X58.813 Y25.253 Z-0.377
X58.847 Y25.204 Z-0.379
X58.898 Y25.128 Z-0.382
X58.933 Y25.073 Z-0.385
X58.982 Y24.995 Z-0.388
X59.02 Y24.929 Z-0.39
X59.065 Y24.849 Z-0.394
X59.101 Y24.781 Z-0.396
X59.143 Y24.699 Z-0.4
X59.15 Y24.685
X61.43 Y24.819 Z-0.48
X61.397 Y24.888 Z-0.483
X61.339 Y24.994 Z-0.487
X61.274 Y25.1 Z-0.491
X61.199 Y25.21 Z-0.496
X61.113 Y25.325 Z-0.501
X61.016 Y25.445 Z-0.506
X60.907 Y25.57 Z-0.512
X60.789 Y25.699 Z-0.518
X60.661 Y25.832 Z-0.525
X60.524 Y25.97 Z-0.531
X60.378 Y26.113 Z-0.538
X60.252 Y26.234 Z-0.545
X60.036 Y26.344 Z-0.553
X59.82 Y26.452 Z-0.561
X59.609 Y26.555 Z-0.57
X59.403 Y26.651 Z-0.578
X59.202 Y26.741 Z-0.585
X59.007 Y26.824 Z-0.593
X58.816 Y26.899 Z-0.6
X58.629 Y26.967 Z-0.607
X58.448 Y27.026 Z-0.613
X58.269 Y27.077 Z-0.62
X58.087 Y27.122 Z-0.626
X57.898 Y27.161 Z-0.633
X57.702 Y27.196 Z-0.64
X57.5 Y27.227 Z-0.647
X57.291 Y27.252 Z-0.655
X57.075 Y27.274 Z-0.662
X56.853 Y27.292 Z-0.67
X56.624 Y27.307 Z-0.678
X56.39 Y27.319 Z-0.686
X56.15 Y27.328 Z-0.695
X55.905 Y27.336 Z-0.703
X55.653 Y27.342 Z-0.712
X55.433 Y27.348 Z-0.72
X55.259 Y27.345 Z-0.726
X55.052 Y27.341 Z-0.733
X54.851 Y27.337 Z-0.74
X54.652 Y27.332 Z-0.747
X54.457 Y27.325 Z-0.754
X54.266 Y27.317 Z-0.76
X54.078 Y27.307 Z-0.767
X53.894 Y27.295 Z-0.773
X53.714 Y27.28 Z-0.78
X53.538 Y27.263 Z-0.786
X53.366 Y27.243 Z-0.792
X53.198 Y27.219 Z-0.798
X53.034 Y27.193 Z-0.804
X52.871 Y27.163 Z-0.809
X52.706 Y27.128 Z-0.815
X52.539 Y27.089 Z-0.821
X52.367 Y27.046 Z-0.828
X52.192 Y26.998 Z-0.834
X52.013 Y26.947 Z-0.84
X51.83 Y26.893 Z-0.847
X51.644 Y26.835 Z-0.854
X51.454 Y26.775 Z-0.861
X51.259 Y26.713 Z-0.868
X51.188 Y26.689 Z-0.871
X51.176 Y26.684
X51.051 Y26.621 Z-0.876
X50.931 Y26.56 Z-0.881
X50.816 Y26.501 Z-0.885
X50.707 Y26.443 Z-0.889
X50.603 Y26.386 Z-0.894
X50.506 Y26.33 Z-0.897
X50.415 Y26.275 Z-0.901
X50.33 Y26.221 Z-0.905
X50.251 Y26.169 Z-0.908
X50.179 Y26.117 Z-0.911
X50.113 Y26.066 Z-0.914
X50.051 Y26.015 Z-0.917
X49.988 Y25.96 Z-0.92
X49.923 Y25.899 Z-0.923
X49.855 Y25.831 Z-0.926
X49.785 Y25.757 Z-0.93
X49.712 Y25.677 Z-0.934
X49.636 Y25.59 Z-0.938
X49.558 Y25.498 Z-0.942
X49.477 Y25.4 Z-0.946
X49.392 Y25.297 Z-0.951
X49.306 Y25.189 Z-0.956
X49.25 Y25.091 Z-0.96
X49.193 Y24.988 Z-0.964
X49.14 Y24.89 Z-0.968
X49.091 Y24.796 Z-0.971
X49.045 Y24.707 Z-0.975
X49.004 Y24.622 Z-0.978
X48.967 Y24.542 Z-0.981
X48.934 Y24.467 Z-0.984
X48.906 Y24.396 Z-0.987
X48.882 Y24.33 Z-0.989
X48.861 Y24.268 Z-0.992
X48.843 Y24.206 Z-0.994
X48.827 Y24.14 Z-0.996
X48.811 Y24.067 Z-0.999
X48.795 Y23.987 Z-1.002
X48.781 Y23.902 Z-1.005
X48.768 Y23.81 Z-1.008
X48.756 Y23.711 Z-1.011
X48.745 Y23.607 Z-1.015
X48.734 Y23.496 Z-1.019
X48.724 Y23.38 Z-1.023
X48.716 Y23.286 Z-1.026
X48.719 Y23.26 Z-1.027
X48.737 Y23.085 Z-1.033
X48.755 Y22.919 Z-1.039
X48.774 Y22.762 Z-1.045
X48.795 Y22.614 Z-1.05
X48.817 Y22.475 Z-1.055
X48.841 Y22.348 Z-1.059
X48.867 Y22.231 Z-1.064
X48.895 Y22.125 Z-1.067
X48.924 Y22.03 Z-1.071
X48.954 Y21.946 Z-1.074
X48.986 Y21.871 Z-1.077
X49.021 Y21.798 Z-1.08
X49.063 Y21.721 Z-1.083
X49.115 Y21.637 Z-1.086
X49.176 Y21.547 Z-1.09
X49.247 Y21.45 Z-1.094
X49.326 Y21.348 Z-1.099
X49.414 Y21.241 Z-1.103
X49.512 Y21.128 Z-1.109
X49.617 Y21.01 Z-1.114
X49.73 Y20.887 Z-1.12
X49.83 Y20.779 Z-1.125
X49.874 Y20.75 Z-1.127
X50.09 Y20.609 Z-1.136
X50.303 Y20.472 Z-1.145
X50.512 Y20.34 Z-1.153
X50.718 Y20.213 Z-1.162
X50.921 Y20.091 Z-1.17
X51.121 Y19.976 Z-1.178
X51.318 Y19.868 Z-1.186
X51.512 Y19.768 Z-1.194
X51.705 Y19.674 Z-1.201
X51.898 Y19.587 Z-1.209
X52.096 Y19.505 Z-1.216
X52.3 Y19.425 Z-1.224
X52.51 Y19.35 Z-1.232
X52.725 Y19.277 Z-1.239
X52.946 Y19.207 Z-1.248
X53.173 Y19.14 Z-1.256
X53.405 Y19.075 Z-1.264
X53.641 Y19.011 Z-1.273
X53.882 Y18.95 Z-1.281
X54.128 Y18.889 Z-1.29
X54.379 Y18.828 Z-1.299
X54.633 Y18.768 Z-1.308
X54.868 Y18.713 Z-1.317
X54.985 Y18.689 Z-1.321
X55.129 Y18.659 Z-1.326
X55.274 Y18.628 Z-1.331
X55.422 Y18.595 Z-1.337
X55.435 Y18.593
X55.574 Y18.561 Z-1.342
X55.59 Y18.557 Z-1.343
X55.728 Y18.525 Z-1.348
X55.745 Y18.521
X55.883 Y18.487 Z-1.353
X55.907 Y18.481 Z-1.354
X56.044 Y18.445 Z-1.359
X56.067 Y18.439 Z-1.36
X56.204 Y18.402 Z-1.365
X56.231 Y18.394 Z-1.366
X56.367 Y18.354 Z-1.371
X56.398 Y18.345 Z-1.372
X56.533 Y18.303 Z-1.377
X56.568 Y18.291 Z-1.378
X56.701 Y18.247 Z-1.383
X56.736 Y18.235 Z-1.384
X56.868 Y18.187 Z-1.389
X56.908 Y18.173 Z-1.391
X57.04 Y18.122 Z-1.396
X57.082 Y18.105 Z-1.397
X57.212 Y18.052 Z-1.402
X57.255 Y18.033 Z-1.404
X57.384 Y17.976 Z-1.409
X57.421 Y17.958 Z-1.41
X57.549 Y17.898 Z-1.415
X57.582 Y17.882 Z-1.416
X57.709 Y17.818 Z-1.421
X57.737 Y17.804 Z-1.422
X57.862 Y17.739 Z-1.427
X57.886 Y17.726 Z-1.428
X58.011 Y17.659 Z-1.433
X58.028 Y17.649 Z-1.434
X58.152 Y17.58 Z-1.439
X58.167 Y17.572
X58.29 Y17.502 Z-1.444
X58.422 Y17.426 Z-1.45
X58.549 Y17.353 Z-1.455
G2 X58.938 Y17.049 Z-1.472 I-0.895 J-1.547
G1 X58.985 Y17 Z-1.474
X59.038 Y16.946 Z-1.477
X59.047 Y16.936 Z-1.478
X59.094 Y16.887 Z-1.48
X59.109 Y16.87 Z-1.481
X59.155 Y16.821 Z-1.483
X59.174 Y16.8 Z-1.484
X59.219 Y16.75 Z-1.486
X59.242 Y16.723 Z-1.488
X59.286 Y16.673 Z-1.49
X59.316 Y16.637 Z-1.492
X59.358 Y16.585 Z-1.494
X59.391 Y16.544 Z-1.496
X59.431 Y16.491 Z-1.498
X59.466 Y16.445 Z-1.5
X59.504 Y16.391 Z-1.502
X59.544 Y16.333 Z-1.505
X59.58 Y16.278 Z-1.507
X59.621 Y16.213 Z-1.51
X59.654 Y16.157 Z-1.512
X59.696 Y16.083 Z-1.515
X59.727 Y16.026 Z-1.517
X59.771 Y15.939 Z-1.521
X59.798 Y15.881 Z-1.523
X59.835 Y15.796 Z-1.526
X59.859 Y15.736 Z-1.529
X59.889 Y15.656 Z-1.531
X59.911 Y15.595 Z-1.534
X59.935 Y15.521 Z-1.536
X59.954 Y15.458 Z-1.539
X59.973 Y15.393 Z-1.541
X59.989 Y15.329 Z-1.543
X60.003 Y15.274 Z-1.545
X60.018 Y15.209 Z-1.548
X60.028 Y15.162 Z-1.549
X60.041 Y15.097 Z-1.552
X60.049 Y15.054 Z-1.553
X60.061 Y14.988 Z-1.556
X60.065 Y14.96 Z-1.557
X60.076 Y14.894 Z-1.559
X60.08 Y14.868 Z-1.56
X60.089 Y14.801 Z-1.562
X60.092 Y14.785 Z-1.563
X60.101 Y14.717 Z-1.565
X60.111 Y14.642 Z-1.568
G2 Y14.181 Z-1.584 I-1.772 J-0.231
G1 X60.102 Y14.111 Z-1.586
X60.091 Y14.033 Z-1.589
X60.089 Y14.019 Z-1.59
X60.079 Y13.95 Z-1.592
X60.076 Y13.923 Z-1.593
X60.065 Y13.854 Z-1.595
X60.059 Y13.821 Z-1.597
X60.047 Y13.753 Z-1.599
X60.04 Y13.713 Z-1.601
X60.026 Y13.644 Z-1.603
X60.016 Y13.597 Z-1.605
X60.001 Y13.53 Z-1.607
X59.986 Y13.471 Z-1.609
X59.968 Y13.404 Z-1.612
X59.95 Y13.34 Z-1.614
X59.93 Y13.275 Z-1.616
X59.906 Y13.201 Z-1.619
X59.883 Y13.137 Z-1.621
X59.852 Y13.054 Z-1.624
X59.826 Y12.992 Z-1.627
X59.787 Y12.904 Z-1.63
X59.759 Y12.843 Z-1.633
X59.715 Y12.757 Z-1.636
X59.683 Y12.698 Z-1.638
X59.638 Y12.62 Z-1.641
X59.603 Y12.563 Z-1.644
X59.561 Y12.497 Z-1.646
X59.523 Y12.44 Z-1.649
X59.481 Y12.38 Z-1.651
X59.44 Y12.325 Z-1.654
X59.404 Y12.278 Z-1.656
X59.362 Y12.224 Z-1.658
X59.327 Y12.181 Z-1.66
X59.283 Y12.128 Z-1.663
X59.253 Y12.093 Z-1.664
X59.207 Y12.04 Z-1.667
X59.182 Y12.013 Z-1.668
X59.135 Y11.961 Z-1.67
X59.114 Y11.939 Z-1.671
X59.065 Y11.888 Z-1.674
X59.051 Y11.874 Z-1.675
X59.002 Y11.823 Z-1.677
X58.991 Y11.811 Z-1.678
X58.941 Y11.761 Z-1.68
X58.884 Y11.704 Z-1.683
G2 X58.587 Y11.465 Z-1.696 I-1.264 J1.264
G1 X58.509 Y11.415 Z-1.699
X58.424 Y11.361 Z-1.703
X58.414 Y11.354
X58.336 Y11.305 Z-1.707
X58.317 Y11.294
X58.239 Y11.246 Z-1.711
X58.215 Y11.232 Z-1.712
X58.136 Y11.186 Z-1.715
X58.105 Y11.168 Z-1.716
X58.025 Y11.123 Z-1.719
X57.988 Y11.103 Z-1.721
X57.908 Y11.06 Z-1.724
X57.863 Y11.037 Z-1.726
X57.782 Y10.998 Z-1.729
X57.729 Y10.972 Z-1.731
X57.647 Y10.935 Z-1.734
X57.586 Y10.909 Z-1.736
X57.503 Y10.875 Z-1.739
X57.435 Y10.849 Z-1.742
X57.351 Y10.818 Z-1.745
X57.275 Y10.793 Z-1.748
X57.19 Y10.766 Z-1.751
X57.117 Y10.745 Z-1.754
X57.031 Y10.722 Z-1.757
X56.968 Y10.707 Z-1.759
X56.88 Y10.687 Z-1.762
X56.818 Y10.674 Z-1.764
X56.729 Y10.657 Z-1.768
X56.678 Y10.648 Z-1.769
X56.589 Y10.634 Z-1.773
X56.539 Y10.627 Z-1.774
X56.449 Y10.615 Z-1.777
X56.409 Y10.61 Z-1.779
X56.318 Y10.6 Z-1.782
X56.284 Y10.597 Z-1.783
X56.193 Y10.589 Z-1.786
X56.161 Y10.587 Z-1.788
X56.07 Y10.58 Z-1.791
X56.048 Y10.579 Z-1.792
X55.956 Y10.573 Z-1.795
X55.938
X55.846 Y10.568 Z-1.799
X55.835
X55.742 Y10.564 Z-1.802
X55.644 Y10.56 Z-1.806
X55.542 Y10.559 Z-1.809
X55.439 Y10.564 Z-1.813
X55.307 Y10.574 Z-1.817
X55.168 Y10.586 Z-1.822
X55.151 Y10.587 Z-1.823
X55.019 Y10.599 Z-1.828
X54.997 Y10.601
X54.866 Y10.615 Z-1.833
X54.836 Y10.618 Z-1.834
X54.706 Y10.633 Z-1.839
X54.665 Y10.639 Z-1.84
X54.536 Y10.657 Z-1.845
X54.49 Y10.665 Z-1.846
X54.363 Y10.686 Z-1.851
X54.306 Y10.697 Z-1.853
X54.18 Y10.723 Z-1.857
X54.116 Y10.737 Z-1.859
X53.992 Y10.767 Z-1.864
X53.92 Y10.786 Z-1.867
X53.799 Y10.821 Z-1.871
X53.718 Y10.847 Z-1.874
X53.599 Y10.887 Z-1.878
X53.51 Y10.92 Z-1.882
X53.394 Y10.966 Z-1.886
X53.298 Y11.008 Z-1.89
X53.185 Y11.061 Z-1.894
X53.095 Y11.107 Z-1.897
X52.985 Y11.166 Z-1.902
X52.904 Y11.213 Z-1.905
X52.797 Y11.278 Z-1.909
X52.727 Y11.324 Z-1.912
X52.622 Y11.395 Z-1.917
X52.563 Y11.436 Z-1.919
X52.461 Y11.512 Z-1.924
X52.412 Y11.549 Z-1.926
X52.311 Y11.629 Z-1.93
X52.269 Y11.663 Z-1.932
X52.17 Y11.746 Z-1.937
X52.138 Y11.774 Z-1.938
X52.04 Y11.861 Z-1.943
X52.015 Y11.884 Z-1.944
X51.918 Y11.973 Z-1.949
X51.9 Y11.989
X51.805 Y12.08 Z-1.954
X51.792 Y12.092 Z-1.955
X51.697 Y12.183 Z-1.959
X51.596 Y12.282 Z-1.964
G2 X51.312 Y12.639 Z-1.98 I1.246 J1.281
G1 X51.261 Y12.723 Z-1.984
X51.209 Y12.81 Z-1.987
X51.202 Y12.821 Z-1.988
X51.152 Y12.905 Z-1.991
X51.144 Y12.92 Z-1.992
X51.095 Y13.005 Z-1.995
X51.085 Y13.022 Z-1.996
X51.037 Y13.107 Z-1.999
X51.024 Y13.131 Z-2
X50.977 Y13.216 Z-2.004
X50.961 Y13.246 Z-2.005
X50.916 Y13.332 Z-2.008
X50.899 Y13.367 Z-2.009
X50.855 Y13.454 Z-2.013
X50.837 Y13.493 Z-2.014
X50.796 Y13.581 Z-2.018
X50.776 Y13.625 Z-2.019
X50.738 Y13.714 Z-2.023
X50.717 Y13.764 Z-2.025
X50.681 Y13.854 Z-2.028
X50.674 Y13.873 Z-2.029
X48.339 Y13.726 Z-2.11
X48.352 Y13.687 Z-2.112
X48.407 Y13.537 Z-2.118
X48.466 Y13.396 Z-2.123
X48.53 Y13.259 Z-2.128
X48.602 Y13.12 Z-2.134
X48.683 Y12.978 Z-2.139
X48.773 Y12.832 Z-2.145
X48.872 Y12.682 Z-2.152
X48.98 Y12.527 Z-2.158
X49.097 Y12.368 Z-2.165
X49.221 Y12.205 Z-2.172
X49.352 Y12.039 Z-2.18
X49.489 Y11.868 Z-2.187
X49.6 Y11.732 Z-2.193
X49.623 Y11.717 Z-2.194
X49.881 Y11.554 Z-2.205
X50.133 Y11.399 Z-2.215
X50.379 Y11.251 Z-2.225
X50.619 Y11.113 Z-2.235
X50.853 Y10.985 Z-2.244
X51.082 Y10.868 Z-2.253
X51.304 Y10.764 Z-2.262
X51.521 Y10.672 Z-2.27
X51.734 Y10.592 Z-2.278
X51.948 Y10.523 Z-2.286
X52.169 Y10.462 Z-2.294
X52.4 Y10.409 Z-2.302
X52.64 Y10.363 Z-2.311
X52.89 Y10.324 Z-2.32
X53.148 Y10.292 Z-2.329
X53.415 Y10.265 Z-2.338
X53.691 Y10.244 Z-2.348
X53.974 Y10.228 Z-2.358
X54.265 Y10.216 Z-2.368
X54.563 Y10.208 Z-2.378
X54.868 Y10.203 Z-2.389
X55.179 Y10.199 Z-2.4
X55.467 Y10.196 Z-2.41
X55.642 Y10.201 Z-2.416
X55.843 Y10.206 Z-2.423
X56.041 Y10.212 Z-2.43
X56.235 Y10.219 Z-2.437
X56.426 Y10.227 Z-2.443
X56.612 Y10.237 Z-2.45
X56.794 Y10.249 Z-2.456
X56.973 Y10.263 Z-2.462
X57.147 Y10.28 Z-2.468
X57.317 Y10.299 Z-2.474
X57.483 Y10.321 Z-2.48
X57.645 Y10.346 Z-2.486
X57.803 Y10.374 Z-2.492
X57.961 Y10.406 Z-2.497
X58.121 Y10.443 Z-2.503
X58.285 Y10.484 Z-2.509
X58.453 Y10.53 Z-2.515
X58.624 Y10.579 Z-2.521
X58.799 Y10.632 Z-2.528
X58.978 Y10.689 Z-2.534
X59.16 Y10.748 Z-2.541
X59.346 Y10.81 Z-2.548
X59.535 Y10.875 Z-2.555
X59.605 Y10.899 Z-2.557
X59.634 Y10.914 Z-2.558
X59.774 Y10.986 Z-2.564
X59.908 Y11.057 Z-2.569
X60.037 Y11.126 Z-2.574
X60.161 Y11.194 Z-2.579
X60.278 Y11.261 Z-2.584
X60.389 Y11.326 Z-2.588
X60.493 Y11.391 Z-2.593
X60.591 Y11.456 Z-2.597
X60.682 Y11.519 Z-2.601
X60.766 Y11.581 Z-2.604
X60.844 Y11.643 Z-2.608
X60.919 Y11.707 Z-2.611
X60.994 Y11.776 Z-2.615
X61.072 Y11.852 Z-2.619
X61.152 Y11.935 Z-2.623
X61.234 Y12.024 Z-2.627
X61.318 Y12.119 Z-2.631
X61.405 Y12.221 Z-2.636
X61.494 Y12.328 Z-2.641
X61.585 Y12.442 Z-2.646
X61.679 Y12.561 Z-2.651
X61.775 Y12.684 Z-2.657
X61.793 Y12.707 Z-2.658
X61.805 Y12.728 Z-2.659
X61.878 Y12.859 Z-2.664
X61.947 Y12.986 Z-2.669
X62.013 Y13.108 Z-2.674
X62.075 Y13.227 Z-2.678
X62.132 Y13.341 Z-2.683
X62.185 Y13.45 Z-2.687
X62.232 Y13.554 Z-2.691
X62.275 Y13.655 Z-2.695
X62.313 Y13.751 Z-2.698
X62.346 Y13.842 Z-2.702
X62.373 Y13.929 Z-2.705
X62.398 Y14.018 Z-2.708
X62.421 Y14.111 Z-2.712
X62.442 Y14.212 Z-2.715
X62.462 Y14.319 Z-2.719
X62.48 Y14.433 Z-2.723
X62.496 Y14.553 Z-2.727
X62.511 Y14.679 Z-2.732
X62.524 Y14.811 Z-2.736
X62.537 Y14.95 Z-2.741
X62.548 Y15.094 Z-2.746
X62.56 Y15.244 Z-2.751
X62.562 Y15.283 Z-2.753
Y15.295
X62.554 Y15.418 Z-2.758
X62.546 Y15.535 Z-2.762
X62.538 Y15.648 Z-2.766
X62.528 Y15.756 Z-2.769
X62.518 Y15.858 Z-2.773
X62.507 Y15.954 Z-2.776
X62.494 Y16.045 Z-2.78
X62.481 Y16.129 Z-2.783
X62.466 Y16.208 Z-2.785
X62.45 Y16.282 Z-2.788
X62.433 Y16.349 Z-2.79
X62.414 Y16.415 Z-2.793
X62.392 Y16.485 Z-2.795
X62.365 Y16.56 Z-2.798
X62.346 Y16.61 Z-2.8
X62.335 Y16.639 F1000
X62.301 Y16.721
X62.263 Y16.809
X62.22 Y16.902
X62.175 Y16.999
X62.126 Y17.101
X62.073 Y17.206
X62.03 Y17.292
X61.956 Y17.39
X61.877 Y17.494
X61.801 Y17.592
X61.727 Y17.685
X61.655 Y17.772
X61.586 Y17.853
X61.519 Y17.928
X61.454 Y17.997
X61.392 Y18.06
X61.332 Y18.116
X61.272 Y18.17
X61.206 Y18.224
X61.136 Y18.279
X61.059 Y18.335
X60.976 Y18.393
X60.888 Y18.451
X60.794 Y18.511
X60.695 Y18.573
X60.59 Y18.635
X60.48 Y18.7
X60.365 Y18.765
X60.246 Y18.832
X60.218 Y18.848
X60.086 Y18.902
X59.855 Y18.996
X59.625 Y19.089
X59.398 Y19.18
X59.173 Y19.268
X58.949 Y19.353
X58.728 Y19.436
X58.508 Y19.516
X58.29 Y19.591
X58.073 Y19.664
X57.855 Y19.733
X57.635 Y19.799
X57.412 Y19.864
X57.186 Y19.926
X56.958 Y19.987
X56.727 Y20.046
X56.494 Y20.103
X56.259 Y20.16
X56.021 Y20.215
X55.781 Y20.269
X55.539 Y20.323
X55.296 Y20.377
X55.05 Y20.43
X54.82 Y20.48
X54.747 Y20.494
X54.652 Y20.513
X54.554 Y20.532
X54.545 Y20.535
X54.453 Y20.553
X54.442 Y20.556
X54.351 Y20.575
X54.335 Y20.579
X54.244 Y20.599
X54.226 Y20.603
X54.135 Y20.624
X54.114 Y20.629
X54.024 Y20.652
X53.998 Y20.658
X53.908 Y20.682
X53.88 Y20.689
X53.791 Y20.714
X53.76 Y20.723
X53.672 Y20.75
X53.638 Y20.76
X53.55 Y20.788
X53.513 Y20.801
X53.426 Y20.831
X53.387 Y20.845
X53.301 Y20.877
X53.258 Y20.894
X53.173 Y20.928
X53.128 Y20.947
X53.044 Y20.983
X53.004 Y21.001
X52.921 Y21.04
X52.888 Y21.056
X52.805 Y21.096
X52.775 Y21.111
X52.692 Y21.153
X52.667 Y21.167
X52.585 Y21.21
X52.569 Y21.219
X52.487 Y21.264
X52.472 Y21.272
X52.391 Y21.317
X52.382 Y21.322
X52.301 Y21.368
X52.217 Y21.416
G2 X51.863 Y21.681 I0.885 J1.553
G1 X51.832 Y21.71
X51.797 Y21.744
X51.784 Y21.757
X51.754 Y21.787
X51.741 Y21.799
X51.711 Y21.829
X51.689 Y21.853
X51.659 Y21.883
X51.634 Y21.91
X51.606 Y21.941
X51.577 Y21.973
X51.55 Y22.004
X51.514 Y22.047
X51.487 Y22.079
X51.45 Y22.126
X51.425 Y22.159
X51.385 Y22.212
X51.361 Y22.246
X51.314 Y22.315
X51.292 Y22.35
X51.247 Y22.425
X51.227 Y22.46
X51.181 Y22.545
X51.163 Y22.581
X51.121 Y22.669
X51.105 Y22.706
X51.07 Y22.791
X51.056 Y22.829
X51.03 Y22.902
X51.017 Y22.941
X50.996 Y23.011
X50.985 Y23.05
X50.969 Y23.11
X50.959 Y23.151
X50.947 Y23.2
X50.938 Y23.241
X50.93 Y23.281
X50.922 Y23.322
X50.915 Y23.359
X50.908 Y23.401
X50.905 Y23.423
X50.898 Y23.465
X50.895 Y23.482
X50.889 Y23.524
X50.882 Y23.571
G2 X50.875 Y24.04 I1.769 J0.259
G1 X50.882 Y24.094
X50.883 Y24.104
X50.89 Y24.158
X50.891 Y24.172
X50.898 Y24.226
X50.902 Y24.251
X50.91 Y24.304
X50.914 Y24.335
X50.923 Y24.388
X50.931 Y24.431
X50.941 Y24.483
X50.95 Y24.532
X50.962 Y24.584
X50.975 Y24.642
X50.988 Y24.693
X51.007 Y24.761
X51.021 Y24.811
X51.044 Y24.883
X51.061 Y24.932
X51.092 Y25.017
X51.112 Y25.065
X51.149 Y25.153
X51.171 Y25.2
X51.216 Y25.29
X51.24 Y25.336
X51.285 Y25.416
X51.312 Y25.461
X51.359 Y25.534
X51.388 Y25.578
X51.43 Y25.638
X51.461 Y25.68
X51.5 Y25.732
X51.532 Y25.773
X51.566 Y25.815
X51.601 Y25.856
X51.634 Y25.894
X51.669 Y25.935
X51.695 Y25.963
X51.732 Y26.003
X51.753 Y26.025
X51.79 Y26.064
X51.805 Y26.079
X51.843 Y26.118
X51.856 Y26.132
X51.895 Y26.17
X51.938 Y26.214
G2 X52.275 Y26.476 I1.259 J-1.269
G1 X52.337 Y26.513
X52.407 Y26.555
X52.419 Y26.562
X52.481 Y26.599
X52.499 Y26.609
X52.562 Y26.645
X52.587 Y26.659
X52.65 Y26.693
X52.68 Y26.71
X52.744 Y26.743
X52.782 Y26.763
X52.846 Y26.794
X52.891 Y26.815
X52.956 Y26.845
X53.011 Y26.869
X53.076 Y26.897
X53.135 Y26.92
X53.201 Y26.945
X53.27 Y26.97
X53.337 Y26.992
X53.41 Y27.015
X53.478 Y27.034
X53.545 Y27.052
X53.614 Y27.068
X53.677 Y27.083
X53.747 Y27.097
X53.804 Y27.108
X53.874 Y27.12
X53.925 Y27.128
X53.995 Y27.138
X54.039 Y27.143
X54.11 Y27.152
X54.151 Y27.156
X54.222 Y27.163
X54.255 Y27.165
X54.327 Y27.171
X54.357 Y27.173
X54.43 Y27.177
X54.45 Y27.178
X54.522 Y27.181
X54.54 Y27.182
X54.612 Y27.185
X54.695 Y27.188
X54.775 Y27.19
X54.896 Y27.189
X54.988 Y27.185
X55.087 Y27.181
X55.098 Y27.18
X55.191 Y27.176
X55.209 Y27.175
X55.301 Y27.169
X55.322 Y27.168
X55.414 Y27.161
X55.444 Y27.159
X55.535 Y27.151
X55.569 Y27.148
X55.66 Y27.138
X55.702 Y27.133
X55.792 Y27.121
X55.836 Y27.114
X55.926 Y27.1
X55.981 Y27.091
X56.069 Y27.074
X56.126 Y27.062
X56.214 Y27.043
X56.28 Y27.026
X56.367 Y27.003
X56.435 Y26.984
X56.52 Y26.958
X56.595 Y26.933
X56.679 Y26.903
X56.745 Y26.878
X56.828 Y26.845
X56.886 Y26.82
X56.968 Y26.784
X57.02 Y26.76
X57.102 Y26.721
X57.146 Y26.699
X57.227 Y26.657
X57.264 Y26.638
X57.344 Y26.594
X57.373 Y26.578
X57.452 Y26.532
X57.476 Y26.519
X57.555 Y26.472
X57.573 Y26.461
X57.652 Y26.413
X57.663 Y26.406
X57.742 Y26.358
X57.827 Y26.305
G2 X58.208 Y25.986 I-0.945 J-1.518
G1 X58.272 Y25.916
X58.34 Y25.84
X58.35 Y25.829
X58.412 Y25.758
X58.425 Y25.743
X58.487 Y25.671
X58.506 Y25.649
X58.566 Y25.577
X58.587 Y25.55
X58.646 Y25.478
X58.673 Y25.442
X58.73 Y25.368
X58.759 Y25.329
X58.813 Y25.253
X58.847 Y25.204
X58.898 Y25.128
X58.933 Y25.073
X58.982 Y24.995
X59.02 Y24.929
X59.065 Y24.849
X59.101 Y24.781
X59.143 Y24.699
X59.15 Y24.685
X61.43 Y24.819
X61.397 Y24.888
X61.339 Y24.994
X61.274 Y25.1
X61.199 Y25.21
X61.113 Y25.325
X61.016 Y25.445
X60.907 Y25.57
X60.789 Y25.699
X60.661 Y25.832
X60.524 Y25.97
X60.378 Y26.113
X60.252 Y26.234
X60.036 Y26.344
X59.82 Y26.452
X59.609 Y26.555
X59.403 Y26.651
X59.202 Y26.741
X59.007 Y26.824
X58.816 Y26.899
X58.629 Y26.967
X58.448 Y27.026
X58.269 Y27.077
X58.087 Y27.122
X57.898 Y27.161
X57.702 Y27.196
X57.5 Y27.227
X57.291 Y27.252
X57.075 Y27.274
X56.853 Y27.292
X56.624 Y27.307
X56.39 Y27.319
X56.15 Y27.328
X55.905 Y27.336
X55.653 Y27.342
X55.433 Y27.348
X55.259 Y27.345
X55.052 Y27.341
X54.851 Y27.337
X54.652 Y27.332
X54.457 Y27.325
X54.266 Y27.317
X54.078 Y27.307
X53.894 Y27.295
X53.714 Y27.28
X53.538 Y27.263
X53.366 Y27.243
X53.198 Y27.219
X53.034 Y27.193
X52.871 Y27.163
X52.706 Y27.128
X52.539 Y27.089
X52.367 Y27.046
X52.192 Y26.998
X52.013 Y26.947
X51.83 Y26.893
X51.644 Y26.835
X51.454 Y26.775
X51.259 Y26.713
X51.188 Y26.689
X51.176 Y26.684
X51.051 Y26.621
X50.931 Y26.56
X50.816 Y26.501
X50.707 Y26.443
X50.603 Y26.386
X50.506 Y26.33
X50.415 Y26.275
X50.33 Y26.221
X50.251 Y26.169
X50.179 Y26.117
X50.113 Y26.066
X50.051 Y26.015
X49.988 Y25.96
X49.923 Y25.899
X49.855 Y25.831
X49.785 Y25.757
X49.712 Y25.677
X49.636 Y25.59
X49.558 Y25.498
X49.477 Y25.4
X49.392 Y25.297
X49.306 Y25.189
X49.25 Y25.091
X49.193 Y24.988
X49.14 Y24.89
X49.091 Y24.796
X49.045 Y24.707
X49.004 Y24.622
X48.967 Y24.542
X48.934 Y24.467
X48.906 Y24.396
X48.882 Y24.33
X48.861 Y24.268
X48.843 Y24.206
X48.827 Y24.14
X48.811 Y24.067
X48.795 Y23.987
X48.781 Y23.902
X48.768 Y23.81
X48.756 Y23.711
X48.745 Y23.607
X48.734 Y23.496
X48.724 Y23.38
X48.716 Y23.286
X48.719 Y23.26
X48.737 Y23.085
X48.755 Y22.919
X48.774 Y22.762
X48.795 Y22.614
X48.817 Y22.475
X48.841 Y22.348
X48.867 Y22.231
X48.895 Y22.125
X48.924 Y22.03
X48.954 Y21.946
X48.986 Y21.871
X49.021 Y21.798
X49.063 Y21.721
X49.115 Y21.637
X49.176 Y21.547
X49.247 Y21.45
X49.326 Y21.348
X49.414 Y21.241
X49.512 Y21.128
X49.617 Y21.01
X49.73 Y20.887
X49.83 Y20.779
X49.874 Y20.75
X50.09 Y20.609
X50.303 Y20.472
X50.512 Y20.34
X50.718 Y20.213
X50.921 Y20.091
X51.121 Y19.976
X51.318 Y19.868
X51.512 Y19.768
X51.705 Y19.674
X51.898 Y19.587
X52.096 Y19.505
X52.3 Y19.425
X52.51 Y19.35
X52.725 Y19.277
X52.946 Y19.207
X53.173 Y19.14
X53.405 Y19.075
X53.641 Y19.011
X53.882 Y18.95
X54.128 Y18.889
X54.379 Y18.828
X54.633 Y18.768
X54.868 Y18.713
X54.985 Y18.689
X55.129 Y18.659
X55.274 Y18.628
X55.422 Y18.595
X55.435 Y18.593
X55.574 Y18.561
X55.59 Y18.557
X55.728 Y18.525
X55.745 Y18.521
X55.883 Y18.487
X55.907 Y18.481
X56.044 Y18.445
X56.067 Y18.439
X56.204 Y18.402
X56.231 Y18.394
X56.367 Y18.354
X56.398 Y18.345
X56.533 Y18.303
X56.568 Y18.291
X56.701 Y18.247
X56.736 Y18.235
X56.868 Y18.187
X56.908 Y18.173
X57.04 Y18.122
X57.082 Y18.105
X57.212 Y18.052
X57.255 Y18.033
X57.384 Y17.976
X57.421 Y17.958
X57.549 Y17.898
X57.582 Y17.882
X57.709 Y17.818
X57.737 Y17.804
X57.862 Y17.739
X57.886 Y17.726
X58.011 Y17.659
X58.028 Y17.649
X58.152 Y17.58
X58.167 Y17.572
X58.29 Y17.502
X58.422 Y17.426
X58.549 Y17.353
G2 X58.938 Y17.049 I-0.895 J-1.547
G1 X58.985 Y17
X59.038 Y16.946
X59.047 Y16.936
X59.094 Y16.887
X59.109 Y16.87
X59.155 Y16.821
X59.174 Y16.8
X59.219 Y16.75
X59.242 Y16.723
X59.286 Y16.673
X59.316 Y16.637
X59.358 Y16.585
X59.391 Y16.544
X59.431 Y16.491
X59.466 Y16.445
X59.504 Y16.391
X59.544 Y16.333
X59.58 Y16.278
X59.621 Y16.213
X59.654 Y16.157
X59.696 Y16.083
X59.727 Y16.026
X59.771 Y15.939
X59.798 Y15.881
X59.835 Y15.796
X59.859 Y15.736
X59.889 Y15.656
X59.911 Y15.595
X59.935 Y15.521
X59.954 Y15.458
X59.973 Y15.393
X59.989 Y15.329
X60.003 Y15.274
X60.018 Y15.209
X60.028 Y15.162
X60.041 Y15.097
X60.049 Y15.054
X60.061 Y14.988
X60.065 Y14.96
X60.076 Y14.894
X60.08 Y14.868
X60.089 Y14.801
X60.092 Y14.785
X60.101 Y14.717
X60.111 Y14.642
G2 Y14.181 I-1.772 J-0.231
G1 X60.102 Y14.111
X60.091 Y14.033
X60.089 Y14.019
X60.079 Y13.95
X60.076 Y13.923
X60.065 Y13.854
X60.059 Y13.821
X60.047 Y13.753
X60.04 Y13.713
X60.026 Y13.644
X60.016 Y13.597
X60.001 Y13.53
X59.986 Y13.471
X59.968 Y13.404
X59.95 Y13.34
X59.93 Y13.275
X59.906 Y13.201
X59.883 Y13.137
X59.852 Y13.054
X59.826 Y12.992
X59.787 Y12.904
X59.759 Y12.843
X59.715 Y12.757
X59.683 Y12.698
X59.638 Y12.62
X59.603 Y12.563
X59.561 Y12.497
X59.523 Y12.44
X59.481 Y12.38
X59.44 Y12.325
X59.404 Y12.278
X59.362 Y12.224
X59.327 Y12.181
X59.283 Y12.128
X59.253 Y12.093
X59.207 Y12.04
X59.182 Y12.013
X59.135 Y11.961
X59.114 Y11.939
X59.065 Y11.888
X59.051 Y11.874
X59.002 Y11.823
X58.991 Y11.811
X58.941 Y11.761
X58.884 Y11.704
G2 X58.587 Y11.465 I-1.264 J1.264
G1 X58.509 Y11.415
X58.424 Y11.361
X58.414 Y11.354
X58.336 Y11.305
X58.317 Y11.294
X58.239 Y11.246
X58.215 Y11.232
X58.136 Y11.186
X58.105 Y11.168
X58.025 Y11.123
X57.988 Y11.103
X57.908 Y11.06
X57.863 Y11.037
X57.782 Y10.998
X57.729 Y10.972
X57.647 Y10.935
X57.586 Y10.909
X57.503 Y10.875
X57.435 Y10.849
X57.351 Y10.818
X57.275 Y10.793
X57.19 Y10.766
X57.117 Y10.745
X57.031 Y10.722
X56.968 Y10.707
X56.88 Y10.687
X56.818 Y10.674
X56.729 Y10.657
X56.678 Y10.648
X56.589 Y10.634
X56.539 Y10.627
X56.449 Y10.615
X56.409 Y10.61
X56.318 Y10.6
X56.284 Y10.597
X56.193 Y10.589
X56.161 Y10.587
X56.07 Y10.58
X56.048 Y10.579
X55.956 Y10.573
X55.938
X55.846 Y10.568
X55.835
X55.742 Y10.564
X55.644 Y10.56
X55.542 Y10.559
X55.439 Y10.564
X55.307 Y10.574
X55.168 Y10.586
X55.151 Y10.587
X55.019 Y10.599
X54.997 Y10.601
X54.866 Y10.615
X54.836 Y10.618
X54.706 Y10.633
X54.665 Y10.639
X54.536 Y10.657
X54.49 Y10.665
X54.363 Y10.686
X54.306 Y10.697
X54.18 Y10.723
X54.116 Y10.737
X53.992 Y10.767
X53.92 Y10.786
X53.799 Y10.821
X53.718 Y10.847
X53.599 Y10.887
X53.51 Y10.92
X53.394 Y10.966
X53.298 Y11.008
X53.185 Y11.061
X53.095 Y11.107
X52.985 Y11.166
X52.904 Y11.213
X52.797 Y11.278
X52.727 Y11.324
X52.622 Y11.395
X52.563 Y11.436
X52.461 Y11.512
X52.412 Y11.549
X52.311 Y11.629
X52.269 Y11.663
X52.17 Y11.746
X52.138 Y11.774
X52.04 Y11.861
X52.015 Y11.884
X51.918 Y11.973
X51.9 Y11.989
X51.805 Y12.08
X51.792 Y12.092
X51.697 Y12.183
X51.596 Y12.282
G2 X51.312 Y12.639 I1.246 J1.281
G1 X51.261 Y12.723
X51.209 Y12.81
X51.202 Y12.821
X51.152 Y12.905
X51.144 Y12.92
X51.095 Y13.005
X51.085 Y13.022
X51.037 Y13.107
X51.024 Y13.131
X50.977 Y13.216
X50.961 Y13.246
X50.916 Y13.332
X50.899 Y13.367
X50.855 Y13.454
X50.837 Y13.493
X50.796 Y13.581
X50.776 Y13.625
X50.738 Y13.714
X50.717 Y13.764
X50.681 Y13.854
X50.674 Y13.873
X48.339 Y13.726
X48.352 Y13.687
X48.407 Y13.537
X48.466 Y13.396
X48.53 Y13.259
X48.602 Y13.12
X48.683 Y12.978
X48.773 Y12.832
X48.872 Y12.682
X48.98 Y12.527
X49.097 Y12.368
X49.221 Y12.205
X49.352 Y12.039
X49.489 Y11.868
X49.6 Y11.732
X49.623 Y11.717
X49.881 Y11.554
X50.133 Y11.399
X50.379 Y11.251
X50.619 Y11.113
X50.853 Y10.985
X51.082 Y10.868
X51.304 Y10.764
X51.521 Y10.672
X51.734 Y10.592
X51.948 Y10.523
X52.169 Y10.462
X52.4 Y10.409
X52.64 Y10.363
X52.89 Y10.324
X53.148 Y10.292
X53.415 Y10.265
X53.691 Y10.244
X53.974 Y10.228
X54.265 Y10.216
X54.563 Y10.208
X54.868 Y10.203
X55.179 Y10.199
X55.467 Y10.196
X55.642 Y10.201
X55.843 Y10.206
X56.041 Y10.212
X56.235 Y10.219
X56.426 Y10.227
X56.612 Y10.237
X56.794 Y10.249
X56.973 Y10.263
X57.147 Y10.28
X57.317 Y10.299
X57.483 Y10.321
X57.645 Y10.346
X57.803 Y10.374
X57.961 Y10.406
X58.121 Y10.443
X58.285 Y10.484
X58.453 Y10.53
X58.624 Y10.579
X58.799 Y10.632
X58.978 Y10.689
X59.16 Y10.748
X59.346 Y10.81
X59.535 Y10.875
X59.605 Y10.899
X59.634 Y10.914
X59.774 Y10.986
X59.908 Y11.057
X60.037 Y11.126
X60.161 Y11.194
X60.278 Y11.261
X60.389 Y11.326
X60.493 Y11.391
X60.591 Y11.456
X60.682 Y11.519
X60.766 Y11.581
X60.844 Y11.643
X60.919 Y11.707
X60.994 Y11.776
X61.072 Y11.852
X61.152 Y11.935
X61.234 Y12.024
X61.318 Y12.119
X61.405 Y12.221
X61.494 Y12.328
X61.585 Y12.442
X61.679 Y12.561
X61.775 Y12.684
X61.793 Y12.707
X61.805 Y12.728
X61.878 Y12.859
X61.947 Y12.986
X62.013 Y13.108
X62.075 Y13.227
X62.132 Y13.341
X62.185 Y13.45
X62.232 Y13.554
X62.275 Y13.655
X62.313 Y13.751
X62.346 Y13.842
X62.373 Y13.929
X62.398 Y14.018
X62.421 Y14.111
X62.442 Y14.212
X62.462 Y14.319
X62.48 Y14.433
X62.496 Y14.553
X62.511 Y14.679
X62.524 Y14.811
X62.537 Y14.95
X62.548 Y15.094
X62.56 Y15.244
X62.562 Y15.283
Y15.295
X62.554 Y15.418
X62.546 Y15.535
X62.538 Y15.648
X62.528 Y15.756
X62.518 Y15.858
X62.507 Y15.954
X62.494 Y16.045
X62.481 Y16.129
X62.466 Y16.208
X62.45 Y16.282
X62.433 Y16.349
X62.414 Y16.415
X62.392 Y16.485
X62.365 Y16.56
X62.346 Y16.61
X62.319 Y16.664 Z-2.788
X62.282 Y16.712 Z-2.776
X62.244 Y16.747 Z-2.741
X62.201 Y16.775 Z-2.707
X62.138 Y16.801 Z-2.604
X62.114 Y16.807 Z-2.483
G0 Z5
X74.169 Y26.495
G1 Z2.817 F1000
X74.153 Y26.478 Z2.698 F333.3
X74.109 Y26.429 Z2.597
X74.048 Y26.351 Z2.527
X73.982 Y26.253 Z2.5
G3 X76.54 Y24.656 Z2.335 I1.279 J-0.798
X73.982 Y26.253 Z2.169 I-1.279 J0.798
X76.54 Y24.656 Z2.004 I1.279 J-0.798
X73.982 Y26.253 Z1.838 I-1.279 J0.798
X76.54 Y24.656 Z1.673 I1.279 J-0.798
X73.982 Y26.253 Z1.507 I-1.279 J0.798
X76.54 Y24.656 Z1.342 I1.279 J-0.798
X73.982 Y26.253 Z1.176 I-1.279 J0.798
X76.54 Y24.656 Z1.011 I1.279 J-0.798
X73.982 Y26.253 Z0.845 I-1.279 J0.798
X76.54 Y24.656 Z0.68 I1.279 J-0.798
X73.982 Y26.253 Z0.515 I-1.279 J0.798
X76.54 Y24.656 Z0.349 I1.279 J-0.798
X73.982 Y26.253 Z0.184 I-1.279 J0.798
X76.54 Y24.656 Z0.018 I1.279 J-0.798
X73.982 Y26.253 Z-0.147 I-1.279 J0.798
X76.54 Y24.656 Z-0.313 I1.279 J-0.798
X73.982 Y26.253 Z-0.478 I-1.279 J0.798
X76.54 Y24.656 Z-0.644 I1.279 J-0.798
X73.982 Y26.253 Z-0.809 I-1.279 J0.798
X76.54 Y24.656 Z-0.974 I1.279 J-0.798
X73.982 Y26.253 Z-1.14 I-1.279 J0.798
X76.54 Y24.656 Z-1.305 I1.279 J-0.798
X73.982 Y26.253 Z-1.471 I-1.279 J0.798
X76.54 Y24.656 Z-1.636 I1.279 J-0.798
X73.982 Y26.253 Z-1.802 I-1.279 J0.798
X76.54 Y24.656 Z-1.967 I1.279 J-0.798
X73.982 Y26.253 Z-2.133 I-1.279 J0.798
X76.54 Y24.656 Z-2.298 I1.279 J-0.798
X73.982 Y26.253 Z-2.464 I-1.279 J0.798
X76.54 Y24.656 Z-2.629 I1.279 J-0.798
X75.991 Y26.774 Z-2.715 I-1.279 J0.798
X73.905 Y26.114 Z-2.8 I-0.73 J-1.32
X74.362 Y24.79 I0.891 J-0.433
X75.686 Y25.248 I0.433 J0.891
G1 X75.719 Y25.314 F1000
G3 X75.554 Y25.584 I-0.165 J0.085
G1 X75.397
G3 X75.233 Y25.314 J-0.185
G2 X75.345 Y25.071 I-2.853 J-1.47
G3 X75.606 I0.131 J0.054
G1 X75.686 Y25.248
G2 X77.141 Y25.873 I1.09 J-0.53
G3 X78.707 Y25.632 I1.566 J4.95
G1 X83.101
Y27.006
X67.85
Y25.632
X72.379
G2 X74.167 Y23.844 J-1.788
G1 Y10.538
X76.785
Y23.844
G2 X78.573 Y25.632 I1.787
G1 X78.707
X78.767 Y25.638 Z-2.788
X78.826 Y25.655 Z-2.776
X78.872 Y25.678 Z-2.741
X78.913 Y25.708 Z-2.707
X78.96 Y25.758 Z-2.604
X78.974 Y25.778 Z-2.483
G0 Z5
X32.053 Y18.827
G1 Z2.817 F1000
X32.059 Y18.849 Z2.698 F333.3
X32.077 Y18.912 Z2.597
X32.098 Y19.009 Z2.527
X32.115 Y19.126 Z2.5
G3 X29.116 Y19.443 Z2.335 I-1.5 J0.159
X32.115 Y19.126 Z2.169 I1.5 J-0.159
X29.116 Y19.443 Z2.004 I-1.5 J0.159
X32.115 Y19.126 Z1.838 I1.5 J-0.159
X29.116 Y19.443 Z1.673 I-1.5 J0.159
X32.115 Y19.126 Z1.507 I1.5 J-0.159
X29.116 Y19.443 Z1.342 I-1.5 J0.159
X32.115 Y19.126 Z1.176 I1.5 J-0.159
X29.116 Y19.443 Z1.011 I-1.5 J0.159
X32.115 Y19.126 Z0.845 I1.5 J-0.159
X29.116 Y19.443 Z0.68 I-1.5 J0.159
X32.115 Y19.126 Z0.515 I1.5 J-0.159
X29.116 Y19.443 Z0.349 I-1.5 J0.159
X32.115 Y19.126 Z0.184 I1.5 J-0.159
X29.116 Y19.443 Z0.018 I-1.5 J0.159
X32.115 Y19.126 Z-0.147 I1.5 J-0.159
X29.116 Y19.443 Z-0.313 I-1.5 J0.159
X32.115 Y19.126 Z-0.478 I1.5 J-0.159
X29.116 Y19.443 Z-0.644 I-1.5 J0.159
X32.115 Y19.126 Z-0.809 I1.5 J-0.159
X29.116 Y19.443 Z-0.974 I-1.5 J0.159
X32.115 Y19.126 Z-1.14 I1.5 J-0.159
X29.116 Y19.443 Z-1.305 I-1.5 J0.159
X32.115 Y19.126 Z-1.471 I1.5 J-0.159
X29.116 Y19.443 Z-1.636 I-1.5 J0.159
X32.115 Y19.126 Z-1.802 I1.5 J-0.159
X29.116 Y19.443 Z-1.967 I-1.5 J0.159
X32.115 Y19.126 Z-2.133 I1.5 J-0.159
X29.116 Y19.443 Z-2.298 I-1.5 J0.159
X32.115 Y19.126 Z-2.464 I1.5 J-0.159
X29.116 Y19.443 Z-2.629 I-1.5 J0.159
X30.536 Y17.779 Z-2.715 I1.5 J-0.159
X32.124 Y19.285 Z-2.8 I0.079 J1.506
X30.225 I-0.949
G1 Y18.914 F1000
X30.232 Y18.876
X30.25 Y18.842
X30.278 Y18.815
X30.314 Y18.799
X30.353 Y18.795
X30.39 Y18.804
X30.423 Y18.824
X30.448 Y18.854
G2 X30.666 Y19.181 I2.775 J-1.613
G1 X30.688 Y19.22
X30.699 Y19.263
Y19.307
X30.688 Y19.35
X30.666 Y19.389
G2 X30.448 Y19.715 I2.557 J1.94
G1 X30.423 Y19.745
X30.39 Y19.766
X30.353 Y19.774
X30.314 Y19.771
X30.278 Y19.754
X30.25 Y19.728
X30.232 Y19.694
X30.225 Y19.655
Y19.285
G2 X29.514 Y18.218 I-1.155
G3 X28.803 Y17.152 I0.444 J-1.067
G1 Y10.538
X42.127
Y11.502
X33.223
G2 X31.435 Y13.29 J1.787
G1 Y17.241
G2 X33.223 Y19.028 I1.788
G1 X41.074
Y19.541
X33.223
G2 X31.435 Y21.329 J1.787
G1 Y24.514
G2 X33.223 Y26.302 I1.788
G1 X41.826
Y27.006
X28.803
Y17.152
X28.809 Y17.091 Z-2.788
X28.826 Y17.033 Z-2.776
X28.849 Y16.987 Z-2.741
X28.879 Y16.945 Z-2.707
X28.929 Y16.898 Z-2.604
X28.949 Y16.884 Z-2.483
G0 Z5
X23.124 Y3.895
G1 Z2.817 F1000
X23.131 Z2.749 F333.3
X23.153 Z2.684
X23.188 Z2.625
G19 G3 Y4.137 Z2.5 J0.253 K0.192
G1 Y4.32 Z2.494
X6.763 Z1.92
Y3.895 Z1.905
X23.188 Z1.332
Y4.32 Z1.317
X6.763 Z0.743
Y3.895 Z0.728
X23.188 Z0.155
Y4.32 Z0.14
X6.763 Z-0.434
Y3.895 Z-0.448
X23.188 Z-1.022
Y4.32 Z-1.037
X6.763 Z-1.61
Y3.895 Z-1.625
X23.188 Z-2.199
Y4.32 Z-2.214
X6.763 Z-2.787
Y3.956 Z-2.8
Y3.895 F1000
X23.188
Y4.32
X6.763
Y3.956
Y3.895 Z-2.794
G18 G2 X7.02 Z-2.483 I-0.061 K0.312
G0 Z5
X13.507 Y26.495
G1 Z2.817 F1000
X13.491 Y26.478 Z2.698 F333.3
X13.447 Y26.429 Z2.597
X13.386 Y26.351 Z2.527
X13.319 Y26.253 Z2.5
G17 G3 X15.878 Y24.656 Z2.335 I1.279 J-0.798
X13.319 Y26.253 Z2.169 I-1.279 J0.798
X15.878 Y24.656 Z2.004 I1.279 J-0.798
X13.319 Y26.253 Z1.838 I-1.279 J0.798
X15.878 Y24.656 Z1.673 I1.279 J-0.798
X13.319 Y26.253 Z1.507 I-1.279 J0.798
X15.878 Y24.656 Z1.342 I1.279 J-0.798
X13.319 Y26.253 Z1.176 I-1.279 J0.798
X15.878 Y24.656 Z1.011 I1.279 J-0.798
X13.319 Y26.253 Z0.845 I-1.279 J0.798
X15.878 Y24.656 Z0.68 I1.279 J-0.798
X13.319 Y26.253 Z0.515 I-1.279 J0.798
X15.878 Y24.656 Z0.349 I1.279 J-0.798
X13.319 Y26.253 Z0.184 I-1.279 J0.798
X15.878 Y24.656 Z0.018 I1.279 J-0.798
X13.319 Y26.253 Z-0.147 I-1.279 J0.798
X15.878 Y24.656 Z-0.313 I1.279 J-0.798
X13.319 Y26.253 Z-0.478 I-1.279 J0.798
X15.878 Y24.656 Z-0.644 I1.279 J-0.798
X13.319 Y26.253 Z-0.809 I-1.279 J0.798
X15.878 Y24.656 Z-0.974 I1.279 J-0.798
X13.319 Y26.253 Z-1.14 I-1.279 J0.798
X15.878 Y24.656 Z-1.305 I1.279 J-0.798
X13.319 Y26.253 Z-1.471 I-1.279 J0.798
X15.878 Y24.656 Z-1.636 I1.279 J-0.798
X13.319 Y26.253 Z-1.802 I-1.279 J0.798
X15.878 Y24.656 Z-1.967 I1.279 J-0.798
X13.319 Y26.253 Z-2.133 I-1.279 J0.798
X15.878 Y24.656 Z-2.298 I1.279 J-0.798
X13.319 Y26.253 Z-2.464 I-1.279 J0.798
X15.878 Y24.656 Z-2.629 I1.279 J-0.798
X15.329 Y26.774 Z-2.715 I-1.279 J0.798
X13.243 Y26.114 Z-2.8 I-0.73 J-1.32
X15.024 Y25.248 I0.891 J-0.433
G1 X15.057 Y25.314 F1000
G3 X14.892 Y25.584 I-0.165 J0.085
G1 X14.735
G3 X14.57 Y25.314 J-0.185
G2 X14.683 Y25.071 I-2.853 J-1.47
G3 X14.944 I0.131 J0.054
G1 X15.024 Y25.248
G2 X16.479 Y25.873 I1.09 J-0.53
G3 X18.045 Y25.632 I1.566 J4.95
G1 X22.439
Y27.006
X7.188
Y25.632
X11.717
G2 X13.505 Y23.844 J-1.788
G1 Y10.538
X16.123
Y23.844
G2 X17.91 Y25.632 I1.788
G1 X18.045
X18.105 Y25.638 Z-2.788
X18.163 Y25.655 Z-2.776
X18.209 Y25.678 Z-2.741
X18.251 Y25.708 Z-2.707
X18.298 Y25.758 Z-2.604
X18.312 Y25.778 Z-2.483
G0 Z15

(2D Pocket4)
X31.732 Y19.895
Z15
Z5
G1 Z2.5 F1000
Z-2.683 F333.3
X31.74 Y19.918 Z-2.804
X31.752 Y19.986 Z-2.907
X31.751 Y20.037 Z-2.941
X31.743 Y20.088 Z-2.976
X31.722 Y20.145 Z-2.988
X31.691 Y20.197 Z-3
G2 X31.318 Y21.329 I1.532 J1.132 F1000
G1 Y24.514
G2 X33.223 Y26.419 I1.905
G1 X41.708
Y26.889
X28.921
Y10.656
X42.009
Y11.385
X33.223
G2 X31.318 Y13.29 J1.905
G1 Y17.241
G2 X33.223 Y19.146 I1.905
G1 X40.957
Y19.424
X33.223
G2 X31.691 Y20.197 J1.905
X31.685 Y20.502 I0.212 J0.157
G3 X31.724 Y20.805 I-0.281 J0.191
G2 X31.635 Y21.329 I1.499 J0.524
G1 Y24.514
G2 X33.223 Y26.102 I1.587
G1 X42.026
Y27.206
X28.603
Y10.338
X42.327
Y11.702
X33.223
G2 X31.635 Y13.29 J1.587
G1 Y17.241
G2 X33.223 Y18.828 I1.587
G1 X41.274
Y19.741
X33.223
G2 X31.724 Y20.805 J1.587
G1 X31.699 Y20.86 Z-2.988
X31.663 Y20.909 Z-2.976
X31.627 Y20.945 Z-2.941
X31.584 Y20.975 Z-2.907
X31.522 Y21.003 Z-2.804
X31.498 Y21.009 Z-2.683
G0 Z5
X13.445 Y24.981
G1 Z2.5 F333.3
Z-2.683
X13.433 Y24.96 Z-2.804
X13.408 Y24.896 Z-2.907
X13.4 Y24.845 Z-2.941
X13.399 Y24.794 Z-2.976
X13.409 Y24.734 Z-2.988
X13.43 Y24.677 Z-3
G2 X13.622 Y23.844 I-1.713 J-0.833 F1000
G1 Y10.656
X16.005
Y23.844
G2 X17.91 Y25.749 I1.905
G1 X22.322
Y26.889
X7.306
Y25.749
X11.717
G2 X13.43 Y24.677 J-1.905
X13.38 Y24.376 I-0.237 J-0.115
G3 X13.286 Y24.086 I0.241 J-0.239
G1 X13.3 Y23.965
X13.304 Y23.844
Y10.338
X16.323
Y23.844
G2 X17.91 Y25.432 I1.587
G1 X22.639
Y27.206
X6.988
Y25.432
X11.717
G2 X13.286 Y24.086 J-1.588
G1 X13.301 Y24.027 Z-2.988
X13.327 Y23.972 Z-2.976
X13.357 Y23.93 Z-2.941
X13.393 Y23.893 Z-2.907
X13.449 Y23.854 Z-2.804
X13.471 Y23.844 Z-2.683
G0 Z5
X7.027 Y4.374
G1 Z2.5 F333.3
Z-2.683
X7.007 Y4.361 Z-2.804
X6.957 Y4.313 Z-2.907
X6.927 Y4.272 Z-2.941
X6.904 Y4.226 Z-2.976
X6.887 Y4.168 Z-2.988
X6.881 Y4.107 Z-3
Y4.012 F1000
X23.071
Y4.202
X6.881
Y4.107
X6.875 Y4.059
X6.857 Y4.013
X6.829 Y3.974
X6.792 Y3.942
X6.748 Y3.921
X6.713 Y3.901
X6.686 Y3.87
X6.672 Y3.832
X6.671 Y3.792
X6.685 Y3.753
X6.711 Y3.722
X6.746 Y3.702
X6.786 Y3.695
X23.388
Y4.52
X6.563
Y3.695
X6.786
X6.825 Y3.702 Z-2.992
X6.855 Y3.72 Z-2.969
X6.87 Y3.737 Z-2.935
X6.875 Y3.743 Z-2.894
G0 Z5
X62.228 Y16.132
G1 Z2.5 F333.3
Z-2.683
X62.243 Y16.151 Z-2.804
X62.276 Y16.212 Z-2.907
X62.292 Y16.26 Z-2.941
X62.3 Y16.311 Z-2.976
X62.298 Y16.372 Z-2.988
X62.286 Y16.431 Z-3
X62.28 Y16.448 F1000
X62.255 Y16.52
X62.226 Y16.595
X62.193 Y16.675
X62.155 Y16.761
X62.114 Y16.853
X62.069 Y16.948
X62.02 Y17.049
X61.968 Y17.154
X61.93 Y17.23
X61.863 Y17.319
X61.784 Y17.422
X61.709 Y17.519
X61.635 Y17.611
X61.565 Y17.696
X61.497 Y17.776
X61.432 Y17.849
X61.37 Y17.915
X61.31 Y17.976
X61.253 Y18.03
X61.195 Y18.081
X61.133 Y18.132
X61.065 Y18.185
X60.991 Y18.24
X60.91 Y18.296
X60.824 Y18.353
X60.732 Y18.412
X60.634 Y18.472
X60.53 Y18.534
X60.421 Y18.598
X60.307 Y18.663
X60.189 Y18.73
X60.167 Y18.742
X60.042 Y18.793
X59.81 Y18.887
X59.582 Y18.98
X59.355 Y19.07
X59.13 Y19.158
X58.908 Y19.244
X58.687 Y19.326
X58.469 Y19.405
X58.252 Y19.48
X58.037 Y19.552
X57.82 Y19.621
X57.601 Y19.687
X57.38 Y19.751
X57.155 Y19.813
X56.928 Y19.873
X56.699 Y19.932
X56.467 Y19.989
X56.232 Y20.045
X55.995 Y20.1
X55.755 Y20.155
X55.514 Y20.209
X55.271 Y20.262
X55.025 Y20.316
X54.796 Y20.365
X54.725 Y20.379
X54.629 Y20.398
X54.531 Y20.417
X54.521 Y20.419
X54.43 Y20.438
X54.417 Y20.441
X54.326 Y20.46
X54.309 Y20.464
X54.218 Y20.484
X54.199 Y20.489
X54.109 Y20.51
X54.085 Y20.515
X53.996 Y20.537
X53.968 Y20.544
X53.879 Y20.568
X53.849 Y20.576
X53.76 Y20.601
X53.727 Y20.611
X53.638 Y20.637
X53.602 Y20.648
X53.514 Y20.677
X53.474 Y20.69
X53.387 Y20.72
X53.346 Y20.735
X53.26 Y20.767
X53.214 Y20.785
X53.129 Y20.819
X53.081 Y20.839
X52.997 Y20.876
X52.955 Y20.895
X52.871 Y20.933
X52.836 Y20.95
X52.753 Y20.991
X52.721 Y21.007
X52.639 Y21.049
X52.612 Y21.063
X52.53 Y21.106
X52.512 Y21.116
X52.431 Y21.16
X52.415 Y21.169
X52.334 Y21.214
X52.324 Y21.22
X52.243 Y21.266
X52.158 Y21.314
G2 X51.782 Y21.596 I0.943 J1.655
G1 X51.751 Y21.626
X51.715 Y21.66
X51.702 Y21.673
X51.672 Y21.703
X51.658 Y21.716
X51.628 Y21.747
X51.604 Y21.772
X51.574 Y21.802
X51.548 Y21.83
X51.519 Y21.861
X51.489 Y21.896
X51.461 Y21.927
X51.423 Y21.972
X51.397 Y22.004
X51.357 Y22.054
X51.332 Y22.087
X51.289 Y22.144
X51.265 Y22.178
X51.216 Y22.252
X51.194 Y22.286
X51.145 Y22.366
X51.125 Y22.402
X51.076 Y22.492
X51.058 Y22.528
X51.014 Y22.621
X50.998 Y22.659
X50.96 Y22.75
X50.946 Y22.788
X50.918 Y22.866
X50.906 Y22.905
X50.883 Y22.979
X50.872 Y23.018
X50.855 Y23.082
X50.845 Y23.122
X50.832 Y23.175
X50.824 Y23.216
X50.815 Y23.259
X50.807 Y23.3
X50.8 Y23.339
X50.792 Y23.381
X50.789 Y23.404
X50.782 Y23.446
X50.779 Y23.465
X50.773 Y23.507
X50.766 Y23.554
G2 X50.759 Y24.054 I1.885 J0.276
G1 X50.765 Y24.108
X50.766 Y24.119
X50.773 Y24.173
X50.775 Y24.187
X50.782 Y24.241
X50.786 Y24.268
X50.793 Y24.321
X50.798 Y24.354
X50.807 Y24.407
X50.815 Y24.453
X50.825 Y24.505
X50.836 Y24.557
X50.847 Y24.609
X50.861 Y24.67
X50.874 Y24.721
X50.894 Y24.794
X50.909 Y24.844
X50.933 Y24.921
X50.95 Y24.97
X50.983 Y25.061
X51.002 Y25.109
X51.043 Y25.202
X51.064 Y25.249
X51.112 Y25.345
X51.136 Y25.391
X51.185 Y25.477
X51.211 Y25.521
X51.261 Y25.599
X51.29 Y25.643
X51.335 Y25.707
X51.366 Y25.75
X51.407 Y25.804
X51.44 Y25.846
X51.476 Y25.891
X51.51 Y25.931
X51.546 Y25.972
X51.581 Y26.013
X51.609 Y26.043
X51.645 Y26.082
X51.668 Y26.106
X51.705 Y26.146
X51.721 Y26.162
X51.759 Y26.201
X51.773 Y26.215
X51.812 Y26.253
X51.856 Y26.297
G2 X52.214 Y26.576 I1.342 J-1.352
G1 X52.276 Y26.614
X52.285 Y26.619
X52.347 Y26.656
X52.359 Y26.663
X52.422 Y26.7
X52.441 Y26.711
X52.504 Y26.747
X52.53 Y26.762
X52.593 Y26.796
X52.626 Y26.814
X52.689 Y26.847
X52.73 Y26.868
X52.794 Y26.9
X52.842 Y26.922
X52.907 Y26.952
X52.965 Y26.978
X53.031 Y27.005
X53.093 Y27.03
X53.159 Y27.055
X53.233 Y27.081
X53.3 Y27.103
X53.364 Y27.124
X53.215 Y27.103
X53.054 Y27.077
X52.894 Y27.047
X52.732 Y27.013
X52.567 Y26.975
X52.397 Y26.932
X52.223 Y26.885
X52.045 Y26.834
X51.864 Y26.78
X51.679 Y26.723
X51.489 Y26.663
X51.295 Y26.601
X51.232 Y26.58
X51.104 Y26.516
X50.985 Y26.456
X50.871 Y26.397
X50.763 Y26.339
X50.661 Y26.283
X50.566 Y26.229
X50.477 Y26.175
X50.394 Y26.123
X50.318 Y26.072
X50.249 Y26.022
X50.186 Y25.974
X50.127 Y25.926
X50.067 Y25.873
X50.005 Y25.814
X49.939 Y25.749
X49.871 Y25.677
X49.799 Y25.599
X49.725 Y25.514
X49.648 Y25.423
X49.567 Y25.326
X49.484 Y25.223
X49.402 Y25.121
X49.353 Y25.033
X49.296 Y24.932
X49.244 Y24.835
X49.195 Y24.742
X49.15 Y24.655
X49.11 Y24.572
X49.074 Y24.494
X49.043 Y24.421
X49.015 Y24.354
X48.993 Y24.292
X48.974 Y24.233
X48.957 Y24.175
X48.941 Y24.113
X48.926 Y24.043
X48.911 Y23.967
X48.897 Y23.884
X48.885 Y23.794
X48.873 Y23.697
X48.862 Y23.595
X48.851 Y23.485
X48.841 Y23.37
X48.834 Y23.287
X48.836 Y23.271
X48.853 Y23.097
X48.871 Y22.933
X48.89 Y22.777
X48.911 Y22.631
X48.933 Y22.496
X48.956 Y22.372
X48.982 Y22.259
X49.008 Y22.157
X49.036 Y22.067
X49.064 Y21.988
X49.093 Y21.919
X49.125 Y21.852
X49.165 Y21.78
X49.214 Y21.701
X49.272 Y21.614
X49.34 Y21.521
X49.418 Y21.422
X49.504 Y21.317
X49.6 Y21.205
X49.704 Y21.088
X49.816 Y20.967
X49.907 Y20.869
X49.938 Y20.849
X50.154 Y20.708
X50.366 Y20.571
X50.574 Y20.439
X50.779 Y20.313
X50.981 Y20.193
X51.179 Y20.079
X51.373 Y19.972
X51.565 Y19.873
X51.755 Y19.781
X51.945 Y19.695
X52.14 Y19.614
X52.341 Y19.536
X52.549 Y19.461
X52.762 Y19.389
X52.981 Y19.32
X53.205 Y19.253
X53.436 Y19.188
X53.671 Y19.125
X53.911 Y19.064
X54.156 Y19.003
X54.406 Y18.943
X54.66 Y18.883
X54.893 Y18.828
X55.009 Y18.804
X55.153 Y18.774
X55.298 Y18.743
X55.447 Y18.71
X55.461 Y18.707
X55.6 Y18.676
X55.617 Y18.672
X55.755 Y18.639
X55.773 Y18.635
X55.911 Y18.601
X55.936 Y18.595
X56.073 Y18.559
X56.098 Y18.552
X56.235 Y18.515
X56.264 Y18.507
X56.399 Y18.467
X56.433 Y18.457
X56.568 Y18.415
X56.605 Y18.403
X56.739 Y18.358
X56.775 Y18.345
X56.908 Y18.298
X56.951 Y18.282
X57.082 Y18.232
X57.126 Y18.214
X57.256 Y18.16
X57.303 Y18.14
X57.432 Y18.083
X57.472 Y18.064
X57.599 Y18.004
X57.635 Y17.987
X57.761 Y17.924
X57.791 Y17.908
X57.917 Y17.843
X57.942 Y17.829
X58.067 Y17.762
X58.085 Y17.752
X58.209 Y17.683
X58.225 Y17.674
X58.348 Y17.604
X58.358 Y17.599
X58.481 Y17.528
X58.608 Y17.454
G2 X59.022 Y17.131 I-0.954 J-1.649
G1 X59.07 Y17.082
X59.123 Y17.027
X59.132 Y17.017
X59.179 Y16.968
X59.196 Y16.95
X59.241 Y16.9
X59.262 Y16.878
X59.307 Y16.828
X59.331 Y16.8
X59.375 Y16.749
X59.407 Y16.711
X59.449 Y16.66
X59.484 Y16.615
X59.524 Y16.563
X59.561 Y16.513
X59.599 Y16.46
X59.642 Y16.397
X59.678 Y16.343
X59.722 Y16.273
X59.755 Y16.217
X59.8 Y16.139
X59.83 Y16.082
X59.877 Y15.989
X59.904 Y15.93
X59.944 Y15.84
X59.968 Y15.78
X60 Y15.695
X60.022 Y15.634
X60.048 Y15.555
X60.067 Y15.493
X60.086 Y15.422
X60.103 Y15.359
X60.117 Y15.3
X60.132 Y15.236
X60.143 Y15.185
X60.156 Y15.12
X60.165 Y15.074
X60.176 Y15.008
X60.181 Y14.979
X60.192 Y14.912
X60.196 Y14.885
X60.206 Y14.818
X60.208 Y14.8
X60.217 Y14.733
X60.227 Y14.657
G2 Y14.166 I-1.889 J-0.246
G1 X60.218 Y14.096
X60.208 Y14.017
X60.206 Y14.003
X60.196 Y13.933
X60.192 Y13.905
X60.181 Y13.836
X60.175 Y13.801
X60.163 Y13.732
X60.155 Y13.69
X60.141 Y13.621
X60.13 Y13.571
X60.115 Y13.504
X60.1 Y13.441
X60.082 Y13.374
X60.063 Y13.306
X60.043 Y13.241
X60.017 Y13.162
X59.994 Y13.098
X59.961 Y13.01
X59.935 Y12.948
X59.894 Y12.854
X59.865 Y12.793
X59.818 Y12.701
X59.786 Y12.642
X59.738 Y12.559
X59.703 Y12.502
X59.658 Y12.431
X59.62 Y12.375
X59.575 Y12.311
X59.535 Y12.256
X59.497 Y12.205
X59.454 Y12.151
X59.418 Y12.106
X59.373 Y12.053
X59.341 Y12.015
X59.295 Y11.963
X59.269 Y11.934
X59.221 Y11.882
X59.199 Y11.858
X59.15 Y11.807
X59.135 Y11.792
X59.086 Y11.741
X59.074 Y11.729
X59.024 Y11.678
X58.967 Y11.621
G2 X58.65 Y11.366 I-1.347 J1.347
G1 X58.573 Y11.316
X58.487 Y11.261
X58.476 Y11.255
X58.398 Y11.206
X58.378 Y11.193
X58.3 Y11.146
X58.275 Y11.131
X58.196 Y11.084
X58.162 Y11.065
X58.083 Y11.021
X58.043 Y10.999
X57.963 Y10.956
X57.915 Y10.932
X57.834 Y10.892
X57.778 Y10.865
X57.696 Y10.828
X57.63 Y10.8
X57.547 Y10.766
X57.475 Y10.738
X57.391 Y10.708
X57.31 Y10.681
X57.225 Y10.654
X57.148 Y10.632
X57.061 Y10.609
X56.994 Y10.592
X56.906 Y10.572
X56.839 Y10.558
X56.751 Y10.542
X56.697 Y10.532
X56.608 Y10.518
X56.554 Y10.51
X56.464 Y10.498
X56.421 Y10.493
X56.331 Y10.484
X56.294 Y10.48
X56.203 Y10.472
X56.169 Y10.469
X56.078 Y10.463
X56.055 Y10.461
X55.963 Y10.456
X55.944 Y10.455
X55.852 Y10.451
X55.839 Y10.45
X55.747 Y10.446
X55.649 Y10.443
X55.539 Y10.442
X55.43 Y10.447
X55.298 Y10.457
X55.158 Y10.468
X55.14 Y10.47
X55.009 Y10.482
X54.985 Y10.484
X54.854 Y10.498
X54.822 Y10.501
X54.692 Y10.517
X54.648 Y10.523
X54.519 Y10.541
X54.47 Y10.549
X54.343 Y10.571
X54.282 Y10.582
X54.157 Y10.607
X54.088 Y10.623
X53.965 Y10.653
X53.887 Y10.673
X53.766 Y10.708
X53.68 Y10.735
X53.561 Y10.776
X53.466 Y10.811
X53.35 Y10.857
X53.248 Y10.902
X53.135 Y10.955
X53.039 Y11.004
X52.929 Y11.063
X52.843 Y11.113
X52.736 Y11.178
X52.661 Y11.226
X52.556 Y11.297
X52.494 Y11.342
X52.391 Y11.417
X52.339 Y11.457
X52.238 Y11.537
X52.194 Y11.573
X52.095 Y11.657
X52.06 Y11.686
X51.963 Y11.773
X51.935 Y11.797
X51.839 Y11.886
X51.82 Y11.904
X51.724 Y11.994
X51.711 Y12.007
X51.615 Y12.099
X51.514 Y12.197
G2 X51.211 Y12.578 I1.328 J1.366
G1 X51.16 Y12.663
X51.108 Y12.75
X51.101 Y12.761
X51.051 Y12.846
X51.042 Y12.861
X50.993 Y12.946
X50.983 Y12.964
X50.934 Y13.049
X50.921 Y13.074
X50.874 Y13.16
X50.857 Y13.192
X50.812 Y13.278
X50.793 Y13.315
X50.75 Y13.402
X50.73 Y13.443
X50.689 Y13.531
X50.668 Y13.579
X50.63 Y13.668
X50.608 Y13.72
X50.596 Y13.75
X48.502 Y13.619
X48.517 Y13.579
X48.573 Y13.443
X48.635 Y13.311
X48.705 Y13.177
X48.784 Y13.038
X48.872 Y12.895
X48.97 Y12.748
X49.076 Y12.595
X49.191 Y12.439
X49.314 Y12.277
X49.444 Y12.112
X49.58 Y11.942
X49.679 Y11.821
X49.943 Y11.654
X50.194 Y11.499
X50.438 Y11.352
X50.676 Y11.215
X50.908 Y11.089
X51.133 Y10.974
X51.352 Y10.871
X51.565 Y10.781
X51.773 Y10.703
X51.981 Y10.636
X52.198 Y10.576
X52.424 Y10.524
X52.66 Y10.479
X52.906 Y10.441
X53.161 Y10.408
X53.426 Y10.382
X53.699 Y10.361
X53.98 Y10.346
X54.269 Y10.334
X54.566 Y10.326
X54.87 Y10.32
X55.181 Y10.316
X55.466 Y10.314
X55.639 Y10.318
X55.84 Y10.323
X56.037 Y10.329
X56.231 Y10.336
X56.42 Y10.345
X56.605 Y10.355
X56.786 Y10.366
X56.963 Y10.38
X57.135 Y10.397
X57.303 Y10.415
X57.467 Y10.437
X57.626 Y10.462
X57.781 Y10.489
X57.936 Y10.521
X58.094 Y10.557
X58.256 Y10.598
X58.421 Y10.643
X58.591 Y10.692
X58.764 Y10.745
X58.942 Y10.801
X59.123 Y10.86
X59.308 Y10.922
X59.497 Y10.986
X59.559 Y11.007
X59.58 Y11.018
X59.72 Y11.09
X59.853 Y11.16
X59.981 Y11.229
X60.103 Y11.296
X60.219 Y11.362
X60.328 Y11.427
X60.43 Y11.49
X60.525 Y11.553
X60.613 Y11.614
X60.694 Y11.674
X60.769 Y11.734
X60.841 Y11.795
X60.913 Y11.861
X60.988 Y11.935
X61.067 Y12.015
X61.147 Y12.103
X61.229 Y12.196
X61.315 Y12.296
X61.402 Y12.403
X61.493 Y12.515
X61.586 Y12.633
X61.682 Y12.756
X61.695 Y12.772
X61.702 Y12.785
X61.775 Y12.916
X61.844 Y13.042
X61.909 Y13.163
X61.97 Y13.281
X62.027 Y13.393
X62.078 Y13.5
X62.125 Y13.602
X62.167 Y13.7
X62.203 Y13.793
X62.234 Y13.879
X62.261 Y13.963
X62.285 Y14.048
X62.307 Y14.137
X62.327 Y14.234
X62.346 Y14.339
X62.364 Y14.45
X62.38 Y14.567
X62.394 Y14.691
X62.407 Y14.823
X62.42 Y14.96
X62.431 Y15.104
X62.442 Y15.253
X62.445 Y15.284
X62.437 Y15.41
X62.429 Y15.527
X62.42 Y15.638
X62.411 Y15.745
X62.401 Y15.845
X62.39 Y15.939
X62.378 Y16.028
X62.365 Y16.109
X62.351 Y16.185
X62.335 Y16.255
X62.319 Y16.319
X62.302 Y16.381
X62.286 Y16.431
X62.262 Y16.487 Z-2.988
X62.227 Y16.537 Z-2.976
X62.191 Y16.574 Z-2.941
X62.15 Y16.604 Z-2.907
X62.088 Y16.634 Z-2.804
X62.065 Y16.641 Z-2.683
G0 Z5
X58.987 Y25.476
G1 Z2.5 F333.3
Z-2.683
X58.978 Y25.453 Z-2.804
X58.961 Y25.386 Z-2.907
X58.959 Y25.335 Z-2.941
X58.964 Y25.284 Z-2.976
X58.982 Y25.226 Z-2.988
X59.01 Y25.172 Z-3
X59.033 Y25.135 F1000
X59.082 Y25.057
X59.123 Y24.987
X59.167 Y24.907
X59.206 Y24.834
X59.22 Y24.807
X61.243 Y24.925
X61.237 Y24.935
X61.175 Y25.036
X61.103 Y25.141
X61.02 Y25.252
X60.925 Y25.369
X60.82 Y25.491
X60.703 Y25.618
X60.577 Y25.75
X60.441 Y25.887
X60.296 Y26.029
X60.183 Y26.137
X59.983 Y26.239
X59.768 Y26.347
X59.558 Y26.449
X59.354 Y26.544
X59.156 Y26.633
X58.962 Y26.715
X58.774 Y26.789
X58.591 Y26.856
X58.414 Y26.913
X58.239 Y26.963
X58.061 Y27.007
X57.876 Y27.046
X57.684 Y27.08
X57.484 Y27.11
X57.278 Y27.136
X57.065 Y27.157
X56.844 Y27.175
X56.618 Y27.189
X56.385 Y27.201
X56.146 Y27.211
X55.939 Y27.217
X56.002 Y27.206
X56.091 Y27.189
X56.152 Y27.177
X56.239 Y27.157
X56.31 Y27.14
X56.397 Y27.117
X56.469 Y27.096
X56.555 Y27.07
X56.634 Y27.044
X56.718 Y27.014
X56.789 Y26.987
X56.872 Y26.954
X56.934 Y26.928
X57.016 Y26.891
X57.071 Y26.866
X57.153 Y26.827
X57.2 Y26.803
X57.28 Y26.762
X57.32 Y26.741
X57.4 Y26.697
X57.431 Y26.68
X57.51 Y26.635
X57.536 Y26.62
X57.615 Y26.573
X57.634 Y26.561
X57.713 Y26.514
X57.725 Y26.506
X57.803 Y26.458
X57.889 Y26.405
G2 X58.296 Y26.065 I-1.007 J-1.617
G1 X58.359 Y25.994
X58.427 Y25.918
X58.438 Y25.907
X58.5 Y25.836
X58.515 Y25.819
X58.576 Y25.748
X58.596 Y25.724
X58.656 Y25.652
X58.679 Y25.624
X58.738 Y25.551
X58.767 Y25.513
X58.823 Y25.439
X58.854 Y25.397
X58.908 Y25.322
X58.945 Y25.269
X58.996 Y25.193
X59.01 Y25.172
G2 X59.002 Y24.878 I-0.218 J-0.142
G3 X58.976 Y24.584 I0.233 J-0.169
G1 X58.992 Y24.551
X59.025 Y24.477
X61.723 Y24.635
X61.691 Y24.722
X61.634 Y24.855
X61.575 Y24.979
X61.512 Y25.094
X61.442 Y25.209
X61.362 Y25.326
X61.271 Y25.448
X61.169 Y25.573
X61.057 Y25.703
X60.935 Y25.835
X60.804 Y25.972
X60.664 Y26.112
X60.517 Y26.257
X60.369 Y26.399
X60.348 Y26.41
X60.126 Y26.523
X59.908 Y26.631
X59.695 Y26.735
X59.487 Y26.833
X59.282 Y26.924
X59.082 Y27.009
X58.886 Y27.086
X58.694 Y27.156
X58.507 Y27.217
X58.321 Y27.27
X58.132 Y27.317
X57.937 Y27.358
X57.735 Y27.394
X57.527 Y27.425
X57.313 Y27.451
X57.093 Y27.473
X56.867 Y27.492
X56.636 Y27.506
X56.399 Y27.518
X56.157 Y27.528
X55.91 Y27.536
X55.658 Y27.542
X55.433 Y27.548
X55.255 Y27.545
X55.049 Y27.541
X54.846 Y27.537
X54.646 Y27.532
X54.449 Y27.525
X54.256 Y27.517
X54.066 Y27.507
X53.88 Y27.494
X53.696 Y27.479
X53.517 Y27.462
X53.341 Y27.441
X53.168 Y27.417
X52.999 Y27.39
X52.832 Y27.359
X52.663 Y27.323
X52.492 Y27.283
X52.317 Y27.239
X52.138 Y27.191
X51.957 Y27.139
X51.772 Y27.084
X51.584 Y27.026
X51.393 Y26.966
X51.198 Y26.903
X51.112 Y26.875
X51.087 Y26.863
X50.961 Y26.8
X50.84 Y26.738
X50.723 Y26.678
X50.612 Y26.619
X50.505 Y26.56
X50.405 Y26.502
X50.31 Y26.445
X50.221 Y26.389
X50.138 Y26.333
X50.06 Y26.278
X49.988 Y26.223
X49.921 Y26.168
X49.853 Y26.108
X49.784 Y26.042
X49.712 Y25.971
X49.638 Y25.893
X49.563 Y25.81
X49.484 Y25.721
X49.404 Y25.627
X49.322 Y25.527
X49.237 Y25.422
X49.15 Y25.314
X49.138 Y25.298
X49.076 Y25.188
X49.018 Y25.084
X48.964 Y24.985
X48.913 Y24.888
X48.866 Y24.796
X48.823 Y24.708
X48.784 Y24.624
X48.75 Y24.544
X48.719 Y24.467
X48.693 Y24.396
X48.67 Y24.327
X48.65 Y24.258
X48.632 Y24.185
X48.615 Y24.107
X48.598 Y24.022
X48.584 Y23.932
X48.57 Y23.836
X48.557 Y23.734
X48.546 Y23.627
X48.535 Y23.514
X48.525 Y23.397
X48.516 Y23.284
X48.52 Y23.24
X48.538 Y23.064
X48.556 Y22.896
X48.576 Y22.736
X48.597 Y22.584
X48.62 Y22.44
X48.645 Y22.307
X48.673 Y22.184
X48.703 Y22.07
X48.735 Y21.967
X48.768 Y21.873
X48.803 Y21.789
X48.843 Y21.706
X48.891 Y21.62
X48.947 Y21.529
X49.012 Y21.432
X49.087 Y21.33
X49.17 Y21.223
X49.261 Y21.112
X49.361 Y20.996
X49.469 Y20.875
X49.583 Y20.751
X49.701 Y20.625
X49.764 Y20.583
X49.981 Y20.441
X50.195 Y20.303
X50.406 Y20.17
X50.614 Y20.042
X50.82 Y19.919
X51.023 Y19.802
X51.224 Y19.692
X51.423 Y19.589
X51.62 Y19.493
X51.819 Y19.404
X52.021 Y19.319
X52.23 Y19.238
X52.444 Y19.161
X52.663 Y19.087
X52.888 Y19.016
X53.117 Y18.948
X53.352 Y18.882
X53.59 Y18.818
X53.833 Y18.756
X54.081 Y18.694
X54.332 Y18.634
X54.587 Y18.573
X54.825 Y18.518
X54.945 Y18.493
X55.088 Y18.463
X55.232 Y18.432
X55.38 Y18.4
X55.391 Y18.397
X55.53 Y18.366
X55.544 Y18.363
X55.682 Y18.33
X55.697 Y18.327
X55.835 Y18.293
X55.856 Y18.287
X55.993 Y18.252
X56.014 Y18.246
X56.151 Y18.209
X56.175 Y18.202
X56.311 Y18.162
X56.338 Y18.154
X56.473 Y18.112
X56.504 Y18.102
X56.638 Y18.057
X56.668 Y18.046
X56.801 Y17.999
X56.837 Y17.986
X56.968 Y17.935
X57.005 Y17.921
X57.135 Y17.867
X57.174 Y17.85
X57.302 Y17.793
X57.336 Y17.777
X57.463 Y17.717
X57.493 Y17.703
X57.62 Y17.64
X57.645 Y17.627
X57.77 Y17.561
X57.791 Y17.55
X57.916 Y17.483
X57.931 Y17.474
X58.055 Y17.405
X58.068 Y17.398
X58.192 Y17.328
X58.323 Y17.253
X58.449 Y17.179
G2 X58.794 Y16.91 I-0.795 J-1.374
G1 X58.842 Y16.861
X58.894 Y16.807
X58.902 Y16.799
X58.949 Y16.749
X58.962 Y16.735
X59.008 Y16.685
X59.025 Y16.666
X59.07 Y16.616
X59.09 Y16.593
X59.134 Y16.542
X59.161 Y16.51
X59.203 Y16.459
X59.232 Y16.422
X59.272 Y16.369
X59.303 Y16.328
X59.341 Y16.275
X59.377 Y16.223
X59.413 Y16.168
X59.449 Y16.11
X59.483 Y16.054
X59.52 Y15.989
X59.551 Y15.932
X59.589 Y15.854
X59.617 Y15.796
X59.65 Y15.721
X59.674 Y15.66
X59.701 Y15.59
X59.722 Y15.529
X59.744 Y15.463
X59.763 Y15.4
X59.779 Y15.342
X59.796 Y15.278
X59.808 Y15.23
X59.823 Y15.165
X59.832 Y15.123
X59.845 Y15.057
X59.852 Y15.019
X59.864 Y14.953
X59.868 Y14.929
X59.878 Y14.862
X59.882 Y14.84
X59.891 Y14.773
X59.893 Y14.758
X59.903 Y14.691
X59.912 Y14.616
G2 Y14.207 I-1.574 J-0.205
G1 X59.903 Y14.136
X59.893 Y14.059
X59.891 Y14.048
X59.881 Y13.978
X59.878 Y13.954
X59.867 Y13.885
X59.862 Y13.856
X59.85 Y13.787
X59.843 Y13.752
X59.83 Y13.684
X59.821 Y13.642
X59.806 Y13.574
X59.793 Y13.522
X59.775 Y13.455
X59.759 Y13.399
X59.739 Y13.334
X59.717 Y13.267
X59.695 Y13.204
X59.667 Y13.13
X59.641 Y13.068
X59.607 Y12.99
X59.578 Y12.929
X59.539 Y12.853
X59.507 Y12.794
X59.467 Y12.725
X59.432 Y12.667
X59.395 Y12.608
X59.357 Y12.552
X59.319 Y12.498
X59.279 Y12.443
X59.247 Y12.401
X59.205 Y12.347
X59.174 Y12.309
X59.13 Y12.256
X59.103 Y12.225
X59.056 Y12.173
X59.035 Y12.148
X58.987 Y12.097
X58.969 Y12.077
X58.92 Y12.026
X58.908 Y12.013
X58.859 Y11.962
X58.849 Y11.952
X58.799 Y11.902
X58.743 Y11.846
G2 X58.478 Y11.633 I-1.123 J1.123
G1 X58.401 Y11.583
X58.316 Y11.529
X58.308 Y11.524
X58.23 Y11.475
X58.213 Y11.465
X58.135 Y11.417
X58.114 Y11.404
X58.035 Y11.358
X58.007 Y11.342
X57.928 Y11.298
X57.894 Y11.279
X57.814 Y11.237
X57.774 Y11.217
X57.694 Y11.177
X57.646 Y11.154
X57.565 Y11.117
X57.51 Y11.094
X57.427 Y11.06
X57.367 Y11.037
X57.283 Y11.006
X57.215 Y10.984
X57.13 Y10.957
X57.066 Y10.939
X56.98 Y10.916
X56.923 Y10.902
X56.836 Y10.882
X56.78 Y10.87
X56.692 Y10.854
X56.647 Y10.846
X56.558 Y10.831
X56.513 Y10.825
X56.423 Y10.813
X56.387 Y10.809
X56.297 Y10.799
X56.266 Y10.796
X56.175 Y10.788
X56.147 Y10.786
X56.056 Y10.78
X56.036 Y10.778
X55.945 Y10.773
X55.929 Y10.772
X55.837 Y10.768
X55.826 Y10.767
X55.734 Y10.764
X55.636 Y10.76
X55.545 Y10.759
X55.454 Y10.763
X55.322 Y10.774
X55.184 Y10.785
X55.169 Y10.786
X55.037 Y10.798
X55.017 Y10.8
X54.886 Y10.813
X54.86 Y10.816
X54.73 Y10.832
X54.693 Y10.837
X54.565 Y10.855
X54.524 Y10.862
X54.396 Y10.884
X54.346 Y10.893
X54.22 Y10.919
X54.163 Y10.931
X54.04 Y10.961
X53.975 Y10.979
X53.854 Y11.013
X53.782 Y11.036
X53.663 Y11.076
X53.584 Y11.106
X53.469 Y11.152
X53.383 Y11.189
X53.27 Y11.242
X53.19 Y11.283
X53.08 Y11.342
X53.008 Y11.384
X52.901 Y11.449
X52.839 Y11.489
X52.734 Y11.56
X52.682 Y11.597
X52.58 Y11.673
X52.536 Y11.706
X52.435 Y11.786
X52.398 Y11.816
X52.299 Y11.899
X52.271 Y11.924
X52.173 Y12.011
X52.15 Y12.031
X52.054 Y12.12
X52.038 Y12.135
X51.942 Y12.225
X51.931 Y12.236
X51.836 Y12.327
X51.735 Y12.425
G2 X51.483 Y12.743 I1.107 J1.138
G1 X51.432 Y12.827
X51.38 Y12.914
X51.374 Y12.923
X51.324 Y13.007
X51.317 Y13.02
X51.268 Y13.105
X51.259 Y13.12
X51.211 Y13.206
X51.199 Y13.226
X51.152 Y13.312
X51.138 Y13.338
X51.093 Y13.425
X51.078 Y13.455
X51.035 Y13.543
X51.018 Y13.577
X50.977 Y13.665
X50.96 Y13.705
X50.921 Y13.793
X50.903 Y13.838
X50.867 Y13.928
X50.849 Y13.976
X50.816 Y14.067
X50.811 Y14.082
X48.073 Y13.91
X48.109 Y13.787
X48.163 Y13.621
X48.221 Y13.464
X48.283 Y13.315
X48.35 Y13.17
X48.426 Y13.025
X48.511 Y12.876
X48.604 Y12.725
X48.707 Y12.569
X48.818 Y12.411
X48.936 Y12.249
X49.062 Y12.083
X49.195 Y11.914
X49.333 Y11.742
X49.465 Y11.58
X49.516 Y11.548
X49.775 Y11.385
X50.029 Y11.228
X50.277 Y11.079
X50.521 Y10.938
X50.76 Y10.808
X50.994 Y10.689
X51.223 Y10.581
X51.447 Y10.486
X51.668 Y10.403
X51.891 Y10.331
X52.12 Y10.268
X52.359 Y10.214
X52.606 Y10.166
X52.862 Y10.126
X53.126 Y10.093
X53.398 Y10.066
X53.678 Y10.045
X53.965 Y10.028
X54.259 Y10.017
X54.559 Y10.008
X54.865 Y10.003
X55.177 Y9.999
X55.468 Y9.996
X55.647 Y10.001
X55.849 Y10.006
X56.048 Y10.012
X56.243 Y10.019
X56.435 Y10.027
X56.624 Y10.038
X56.809 Y10.05
X56.99 Y10.064
X57.168 Y10.081
X57.342 Y10.1
X57.512 Y10.123
X57.678 Y10.148
X57.841 Y10.178
X58.003 Y10.211
X58.168 Y10.249
X58.336 Y10.291
X58.507 Y10.337
X58.681 Y10.388
X58.858 Y10.441
X59.039 Y10.498
X59.223 Y10.558
X59.409 Y10.621
X59.6 Y10.686
X59.684 Y10.714
X59.726 Y10.736
X59.866 Y10.809
X60.002 Y10.88
X60.133 Y10.95
X60.258 Y11.019
X60.379 Y11.088
X60.493 Y11.156
X60.601 Y11.223
X60.703 Y11.29
X60.798 Y11.356
X60.887 Y11.422
X60.971 Y11.489
X61.051 Y11.557
X61.131 Y11.631
X61.213 Y11.711
X61.297 Y11.797
X61.383 Y11.89
X61.469 Y11.988
X61.558 Y12.092
X61.649 Y12.202
X61.741 Y12.317
X61.836 Y12.437
X61.933 Y12.561
X61.96 Y12.597
X61.979 Y12.63
X62.053 Y12.762
X62.123 Y12.89
X62.19 Y13.015
X62.253 Y13.136
X62.312 Y13.253
X62.366 Y13.365
X62.415 Y13.474
X62.46 Y13.58
X62.5 Y13.681
X62.535 Y13.778
X62.565 Y13.872
X62.592 Y13.967
X62.616 Y14.067
X62.639 Y14.173
X62.659 Y14.285
X62.678 Y14.404
X62.695 Y14.528
X62.71 Y14.657
X62.723 Y14.792
X62.736 Y14.933
X62.748 Y15.079
X62.759 Y15.23
X62.763 Y15.282
X62.761 Y15.307
X62.754 Y15.43
X62.746 Y15.55
X62.737 Y15.664
X62.727 Y15.775
X62.717 Y15.879
X62.705 Y15.979
X62.692 Y16.075
X62.678 Y16.163
X62.662 Y16.248
X62.645 Y16.327
X62.626 Y16.401
X62.605 Y16.473
X62.581 Y16.549
X62.553 Y16.629
X62.521 Y16.712
X62.485 Y16.799
X62.446 Y16.891
X62.402 Y16.987
X62.355 Y17.086
X62.305 Y17.189
X62.252 Y17.296
X62.201 Y17.398
X62.116 Y17.511
X62.036 Y17.616
X61.958 Y17.715
X61.882 Y17.81
X61.808 Y17.9
X61.737 Y17.984
X61.667 Y18.063
X61.598 Y18.136
X61.532 Y18.203
X61.467 Y18.264
X61.402 Y18.322
X61.332 Y18.38
X61.257 Y18.438
X61.175 Y18.498
X61.089 Y18.558
X60.998 Y18.619
X60.9 Y18.681
X60.799 Y18.744
X60.691 Y18.808
X60.58 Y18.873
X60.464 Y18.939
X60.344 Y19.006
X60.305 Y19.028
X60.162 Y19.087
X59.93 Y19.182
X59.7 Y19.275
X59.472 Y19.366
X59.245 Y19.454
X59.02 Y19.54
X58.797 Y19.624
X58.575 Y19.704
X58.354 Y19.781
X58.135 Y19.854
X57.914 Y19.924
X57.691 Y19.991
X57.466 Y20.056
X57.238 Y20.119
X57.008 Y20.18
X56.776 Y20.24
X56.542 Y20.298
X56.305 Y20.354
X56.066 Y20.41
X55.825 Y20.464
X55.582 Y20.519
X55.338 Y20.572
X55.092 Y20.626
X54.86 Y20.676
X54.785 Y20.691
X54.69 Y20.709
X54.594 Y20.729
X54.494 Y20.749
X54.483 Y20.751
X54.392 Y20.771
X54.378 Y20.774
X54.287 Y20.794
X54.271 Y20.798
X54.181 Y20.819
X54.162 Y20.823
X54.072 Y20.846
X54.049 Y20.852
X53.959 Y20.875
X53.934 Y20.882
X53.845 Y20.907
X53.818 Y20.915
X53.729 Y20.941
X53.699 Y20.951
X53.612 Y20.979
X53.578 Y20.99
X53.491 Y21.02
X53.457 Y21.033
X53.371 Y21.065
X53.332 Y21.08
X53.247 Y21.114
X53.208 Y21.13
X53.124 Y21.167
X53.088 Y21.183
X53.005 Y21.221
X52.975 Y21.235
X52.893 Y21.276
X52.866 Y21.289
X52.784 Y21.331
X52.761 Y21.343
X52.679 Y21.387
X52.665 Y21.395
X52.583 Y21.439
X52.57 Y21.446
X52.489 Y21.492
X52.4 Y21.542
X52.316 Y21.59
G2 X52.002 Y21.825 I0.786 J1.379
G1 X51.971 Y21.855
X51.936 Y21.888
X51.925 Y21.899
X51.895 Y21.929
X51.883 Y21.94
X51.853 Y21.97
X51.833 Y21.991
X51.804 Y22.022
X51.782 Y22.045
X51.753 Y22.076
X51.728 Y22.105
X51.7 Y22.136
X51.668 Y22.174
X51.642 Y22.206
X51.609 Y22.248
X51.584 Y22.28
X51.548 Y22.328
X51.524 Y22.362
X51.483 Y22.423
X51.461 Y22.458
X51.42 Y22.524
X51.4 Y22.56
X51.359 Y22.635
X51.341 Y22.671
X51.305 Y22.749
X51.288 Y22.786
X51.257 Y22.862
X51.243 Y22.9
X51.22 Y22.965
X51.207 Y23.004
X51.188 Y23.066
X51.177 Y23.105
X51.163 Y23.158
X51.153 Y23.199
X51.143 Y23.243
X51.134 Y23.284
X51.126 Y23.319
X51.118 Y23.361
X51.113 Y23.393
X51.105 Y23.435
X51.102 Y23.454
X51.095 Y23.496
X51.093 Y23.512
X51.087 Y23.554
X51.08 Y23.6
G2 X51.074 Y24.017 I1.571 J0.23
G1 X51.08 Y24.071
X51.088 Y24.134
X51.09 Y24.146
X51.097 Y24.2
X51.1 Y24.222
X51.108 Y24.276
X51.112 Y24.303
X51.121 Y24.356
X51.127 Y24.394
X51.137 Y24.446
X51.146 Y24.49
X51.157 Y24.542
X51.169 Y24.593
X51.182 Y24.644
X51.198 Y24.704
X51.213 Y24.754
X51.234 Y24.818
X51.25 Y24.868
X51.278 Y24.943
X51.297 Y24.991
X51.331 Y25.069
X51.353 Y25.116
X51.392 Y25.196
X51.417 Y25.242
X51.457 Y25.313
X51.484 Y25.358
X51.525 Y25.423
X51.554 Y25.466
X51.591 Y25.52
X51.622 Y25.562
X51.657 Y25.608
X51.69 Y25.65
X51.72 Y25.687
X51.754 Y25.728
X51.783 Y25.762
X51.819 Y25.802
X51.842 Y25.827
X51.878 Y25.867
X51.897 Y25.887
X51.935 Y25.926
X51.948 Y25.939
X51.986 Y25.978
X51.997 Y25.99
X52.036 Y26.029
X52.079 Y26.072
G2 X52.378 Y26.304 I1.118 J-1.127
G1 X52.44 Y26.342
X52.51 Y26.383
X52.52 Y26.389
X52.582 Y26.426
X52.598 Y26.435
X52.661 Y26.471
X52.683 Y26.483
X52.746 Y26.518
X52.773 Y26.532
X52.837 Y26.566
X52.871 Y26.583
X52.935 Y26.615
X52.975 Y26.634
X53.039 Y26.663
X53.088 Y26.685
X53.153 Y26.712
X53.205 Y26.733
X53.271 Y26.758
X53.333 Y26.78
X53.4 Y26.802
X53.465 Y26.822
X53.533 Y26.842
X53.593 Y26.857
X53.661 Y26.874
X53.718 Y26.887
X53.787 Y26.901
X53.838 Y26.911
X53.908 Y26.923
X53.953 Y26.93
X54.024 Y26.94
X54.062 Y26.945
X54.134 Y26.953
X54.169 Y26.957
X54.241 Y26.963
X54.27 Y26.966
X54.342 Y26.971
X54.369 Y26.973
X54.441 Y26.977
X54.459 Y26.978
X54.532 Y26.982
X54.547
X54.62 Y26.985
X54.701 Y26.988
X54.781 Y26.99
X54.888 Y26.989
X54.98 Y26.985
X55.078 Y26.981
X55.089
X55.181 Y26.976
X55.197 Y26.975
X55.289 Y26.97
X55.308 Y26.969
X55.4 Y26.962
X55.426 Y26.96
X55.517 Y26.952
X55.547 Y26.949
X55.638 Y26.939
X55.676 Y26.934
X55.766 Y26.923
X55.805 Y26.917
X55.895 Y26.903
X55.943 Y26.894
X56.032 Y26.877
X56.082 Y26.867
X56.17 Y26.847
X56.229 Y26.833
X56.316 Y26.81
X56.376 Y26.793
X56.462 Y26.766
X56.528 Y26.745
X56.612 Y26.715
X56.671 Y26.692
X56.754 Y26.659
X56.805 Y26.637
X56.888 Y26.601
X56.934 Y26.58
X57.015 Y26.541
X57.054 Y26.521
X57.135 Y26.479
X57.168 Y26.462
X57.248 Y26.418
X57.274 Y26.404
X57.353 Y26.359
X57.374 Y26.346
X57.453 Y26.3
X57.47 Y26.29
X57.548 Y26.242
X57.558 Y26.236
X57.637 Y26.188
X57.721 Y26.135
G2 X58.06 Y25.852 I-0.839 J-1.348
G1 X58.124 Y25.782
X58.191 Y25.707
X58.2 Y25.697
X58.262 Y25.626
X58.274 Y25.612
X58.335 Y25.541
X58.352 Y25.521
X58.412 Y25.449
X58.431 Y25.425
X58.49 Y25.353
X58.514 Y25.321
X58.571 Y25.247
X58.597 Y25.212
X58.651 Y25.137
X58.681 Y25.093
X58.732 Y25.016
X58.763 Y24.968
X58.811 Y24.89
X58.846 Y24.832
X58.89 Y24.752
X58.923 Y24.691
X58.964 Y24.609
X58.976 Y24.584
X58.995 Y24.558 Z-2.994
X59.018 Y24.544 Z-2.975
X59.035 Y24.538 Z-2.948
X59.042 Y24.537 Z-2.916
G0 Z5
X74.107 Y24.981
G1 Z2.5 F333.3
Z-2.683
X74.095 Y24.96 Z-2.804
X74.071 Y24.896 Z-2.907
X74.062 Y24.845 Z-2.941
X74.061 Y24.794 Z-2.976
X74.071 Y24.734 Z-2.988
X74.092 Y24.677 Z-3
G2 X74.284 Y23.844 I-1.713 J-0.833 F1000
G1 Y10.656
X76.668
Y23.844
G2 X78.573 Y25.749 I1.905
G1 X82.984
Y26.889
X67.968
Y25.749
X72.379
G2 X74.092 Y24.677 J-1.905
X74.042 Y24.376 I-0.237 J-0.115
G3 X73.948 Y24.086 I0.241 J-0.239
G1 X73.962 Y23.965
X73.967 Y23.844
Y10.338
X76.985
Y23.844
G2 X78.573 Y25.432 I1.588
G1 X83.301
Y27.206
X67.65
Y25.432
X72.379
G2 X73.948 Y24.086 J-1.588
G1 X73.963 Y24.027 Z-2.988
X73.989 Y23.972 Z-2.976
X74.019 Y23.93 Z-2.941
X74.055 Y23.893 Z-2.907
X74.111 Y23.854 Z-2.804
X74.133 Y23.844 Z-2.683
G0 Z15
M30
%
