(Nozzle_OP_B)
(Conventional Milling)
(Machine)
(  vendor: Banggood)
(  model: 3018)
(  description: Generic 3-axis)
(T2  D=3.175 CR=0 - ZMIN=-9.6 - flat end mill)
(T3  D=2 CR=1 - ZMIN=-12.7 - ball end mill)
G90 G94
G17
G21

(Adaptive4)
T2 M6
S9000 M3
G54
G0 X26.274 Y6.706
Z5
Z2
Z0.75
G2 X26.876 Y9.662 Z0.667 I0.301 J1.478 F60
X26.274 Y6.706 Z0.585 I-0.301 J-1.478
X26.876 Y9.662 Z0.502 I0.301 J1.478
X26.274 Y6.706 Z0.419 I-0.301 J-1.478
X26.876 Y9.662 Z0.336 I0.301 J1.478
X26.274 Y6.706 Z0.254 I-0.301 J-1.478
X26.876 Y9.662 Z0.171 I0.301 J1.478
X26.274 Y6.706 Z0.088 I-0.301 J-1.478
X26.876 Y9.662 Z0.006 I0.301 J1.478
X26.274 Y6.706 Z-0.077 I-0.301 J-1.478
X26.876 Y9.662 Z-0.16 I0.301 J1.478
X26.274 Y6.706 Z-0.242 I-0.301 J-1.478
X26.876 Y9.662 Z-0.325 I0.301 J1.478
X26.274 Y6.706 Z-0.408 I-0.301 J-1.478
X26.876 Y9.662 Z-0.491 I0.301 J1.478
X26.274 Y6.706 Z-0.573 I-0.301 J-1.478
X26.876 Y9.662 Z-0.656 I0.301 J1.478
X26.274 Y6.706 Z-0.739 I-0.301 J-1.478
X26.876 Y9.662 Z-0.821 I0.301 J1.478
X26.274 Y6.706 Z-0.904 I-0.301 J-1.478
X26.876 Y9.662 Z-0.987 I0.301 J1.478
X26.274 Y6.706 Z-1.069 I-0.301 J-1.478
X26.876 Y9.662 Z-1.152 I0.301 J1.478
X26.274 Y6.706 Z-1.235 I-0.301 J-1.478
X26.876 Y9.662 Z-1.318 I0.301 J1.478
X26.274 Y6.706 Z-1.4 I-0.301 J-1.478
X26.876 Y9.662 Z-1.483 I0.301 J1.478
X26.274 Y6.706 Z-1.566 I-0.301 J-1.478
X26.876 Y9.662 Z-1.648 I0.301 J1.478
X26.274 Y6.706 Z-1.731 I-0.301 J-1.478
X26.876 Y9.662 Z-1.814 I0.301 J1.478
X26.274 Y6.706 Z-1.896 I-0.301 J-1.478
X26.876 Y9.662 Z-1.979 I0.301 J1.478
X26.274 Y6.706 Z-2.062 I-0.301 J-1.478
X26.876 Y9.662 Z-2.145 I0.301 J1.478
X26.274 Y6.706 Z-2.227 I-0.301 J-1.478
X26.876 Y9.662 Z-2.31 I0.301 J1.478
X26.274 Y6.706 Z-2.393 I-0.301 J-1.478
X26.876 Y9.662 Z-2.475 I0.301 J1.478
X26.274 Y6.706 Z-2.558 I-0.301 J-1.478
X26.876 Y9.662 Z-2.641 I0.301 J1.478
X26.274 Y6.706 Z-2.723 I-0.301 J-1.478
X26.876 Y9.662 Z-2.806 I0.301 J1.478
X26.274 Y6.706 Z-2.889 I-0.301 J-1.478
X26.876 Y9.662 Z-2.972 I0.301 J1.478
X26.274 Y6.706 Z-3.054 I-0.301 J-1.478
X26.876 Y9.662 Z-3.137 I0.301 J1.478
X26.274 Y6.706 Z-3.22 I-0.301 J-1.478
X26.876 Y9.662 Z-3.302 I0.301 J1.478
X26.274 Y6.706 Z-3.385 I-0.301 J-1.478
X26.876 Y9.662 Z-3.468 I0.301 J1.478
X26.274 Y6.706 Z-3.55 I-0.301 J-1.478
X26.876 Y9.662 Z-3.633 I0.301 J1.478
X26.274 Y6.706 Z-3.716 I-0.301 J-1.478
X26.876 Y9.662 Z-3.799 I0.301 J1.478
X26.274 Y6.706 Z-3.881 I-0.301 J-1.478
X26.876 Y9.662 Z-3.964 I0.301 J1.478
X28.083 Y8.184 Z-4 I-0.301 J-1.478
X25.067 Y8.184 I-1.508 J0
X28.083 Y8.184 I1.508 J0
G1 X28.093 Y7.801 F250
X28.092 Y7.651
X28.06 Y7.504
X28.007 Y7.364
X27.936 Y7.232
X27.851 Y7.108
X27.754 Y6.994
X27.645 Y6.89
X27.528 Y6.798
X27.401 Y6.717
X27.268 Y6.647
X27.129 Y6.591
X26.986 Y6.547
X26.839 Y6.516
X26.69 Y6.499
X26.54 Y6.495
X26.39 Y6.505
X26.242 Y6.528
X26.096 Y6.564
X25.955 Y6.612
X25.818 Y6.673
X25.687 Y6.747
X25.563 Y6.831
X25.447 Y6.926
X25.34 Y7.031
X25.242 Y7.145
X25.155 Y7.267
X25.08 Y7.397
X25.016 Y7.533
X24.964 Y7.673
X24.925 Y7.818
X24.899 Y7.966
X24.887 Y8.116
Y8.266
X24.901 Y8.415
X24.928 Y8.562
X24.968 Y8.707
X25.021 Y8.847
X25.086 Y8.983
X25.163 Y9.112
X25.25 Y9.233
X25.349 Y9.346
X25.457 Y9.451
X25.573 Y9.545
X25.698 Y9.628
X25.83 Y9.7
X25.967 Y9.76
X26.109 Y9.808
X26.255 Y9.843
X26.404 Y9.865
X26.553 Y9.873
X26.703 Y9.869
X26.852 Y9.851
X26.999 Y9.82
X27.142 Y9.775
X27.281 Y9.719
X27.414 Y9.65
X27.541 Y9.57
X27.66 Y9.479
X27.771 Y9.377
X27.872 Y9.267
X27.963 Y9.147
X28.043 Y9.02
X28.111 Y8.887
X28.168 Y8.748
X28.211 Y8.604
X28.245 Y8.458
X28.273 Y8.311
X28.294 Y8.162
X28.305 Y8.013
Y7.863
X28.29 Y7.714
X28.261 Y7.566
X28.218 Y7.423
X28.161 Y7.284
X28.091 Y7.151
X28.009 Y7.026
X27.916 Y6.908
X27.812 Y6.8
X27.699 Y6.701
X27.578 Y6.612
X27.45 Y6.535
X27.316 Y6.468
X27.176 Y6.412
X27.033 Y6.369
X26.886 Y6.337
X26.737 Y6.317
X26.588 Y6.309
X26.438 Y6.313
X26.289 Y6.33
X26.141 Y6.358
X25.997 Y6.398
X25.856 Y6.45
X25.72 Y6.513
X25.589 Y6.587
X25.465 Y6.671
X25.348 Y6.764
X25.238 Y6.867
X25.137 Y6.977
X25.045 Y7.096
X24.963 Y7.221
X24.891 Y7.353
X24.83 Y7.49
X24.781 Y7.632
X24.743 Y7.777
X24.716 Y7.925
X24.701 Y8.074
X24.698 Y8.224
X24.707 Y8.374
X24.728 Y8.522
X24.761 Y8.669
X24.805 Y8.812
X24.861 Y8.951
X24.928 Y9.085
X25.006 Y9.214
X25.093 Y9.336
X25.19 Y9.45
X25.295 Y9.557
X25.409 Y9.655
X25.53 Y9.744
X25.658 Y9.822
X25.791 Y9.89
X25.93 Y9.947
X26.073 Y9.993
X26.219 Y10.027
X26.367 Y10.049
X26.517 Y10.06
X26.667 Y10.059
X26.816 Y10.045
X26.964 Y10.02
X27.11 Y9.984
X27.252 Y9.935
X27.389 Y9.875
X27.522 Y9.805
X27.648 Y9.724
X27.767 Y9.633
X27.879 Y9.533
X27.983 Y9.425
X28.078 Y9.309
X28.163 Y9.185
X28.238 Y9.055
X28.303 Y8.92
X28.359 Y8.781
X28.407 Y8.639
X28.446 Y8.494
X28.475 Y8.347
X28.495 Y8.198
X28.504 Y8.048
X28.502 Y7.898
X28.489 Y7.749
X28.464 Y7.601
X28.426 Y7.456
X28.377 Y7.314
X28.316 Y7.177
X28.244 Y7.046
X28.161 Y6.92
X28.069 Y6.802
X27.967 Y6.692
X27.858 Y6.59
X27.74 Y6.497
X27.616 Y6.413
X27.485 Y6.339
X27.349 Y6.275
X27.209 Y6.222
X27.065 Y6.18
X26.918 Y6.148
X26.77 Y6.127
X26.62 Y6.118
X26.47 Y6.119
X26.321 Y6.131
X26.172 Y6.155
X26.026 Y6.188
X25.883 Y6.233
X25.744 Y6.288
X25.608 Y6.353
X25.478 Y6.428
X25.354 Y6.512
X25.236 Y6.605
X25.125 Y6.706
X25.022 Y6.814
X24.927 Y6.93
X24.84 Y7.053
X24.763 Y7.181
X24.695 Y7.315
X24.637 Y7.453
X24.589 Y7.596
X24.552 Y7.741
X24.525 Y7.888
X24.509 Y8.038
X24.504 Y8.188
X24.51 Y8.337
X24.526 Y8.487
X24.553 Y8.634
X24.591 Y8.779
X24.639 Y8.921
X24.698 Y9.059
X24.766 Y9.193
X24.844 Y9.321
X24.931 Y9.443
X25.027 Y9.559
X25.13 Y9.667
X25.241 Y9.768
X25.359 Y9.861
X25.484 Y9.944
X25.614 Y10.019
X25.749 Y10.084
X25.889 Y10.138
X26.032 Y10.183
X26.179 Y10.216
X26.327 Y10.24
X26.476 Y10.252
X26.626 Y10.254
X26.776 Y10.245
X26.925 Y10.225
X27.072 Y10.195
X27.216 Y10.154
X27.357 Y10.102
X27.493 Y10.04
X27.625 Y9.969
X27.752 Y9.888
X27.872 Y9.798
X27.985 Y9.7
X28.091 Y9.594
X28.189 Y9.481
X28.28 Y9.361
X28.361 Y9.235
X28.435 Y9.104
X28.5 Y8.969
X28.557 Y8.83
X28.605 Y8.688
X28.644 Y8.543
X28.673 Y8.396
X28.694 Y8.247
X28.704 Y8.098
Y7.948
X28.694 Y7.798
X28.673 Y7.65
X28.642 Y7.503
X28.6 Y7.359
X28.547 Y7.218
X28.485 Y7.082
X28.412 Y6.951
X28.33 Y6.825
X28.24 Y6.705
X28.141 Y6.593
X28.034 Y6.487
X27.92 Y6.39
X27.8 Y6.3
X27.673 Y6.22
X27.541 Y6.148
X27.405 Y6.086
X27.264 Y6.033
X27.121 Y5.991
X26.974 Y5.958
X26.826 Y5.935
X26.677 Y5.922
X26.527 Y5.92
X26.377 Y5.927
X26.228 Y5.944
X26.08 Y5.971
X25.935 Y6.008
X25.792 Y6.054
X25.653 Y6.11
X25.518 Y6.176
X25.388 Y6.25
X25.262 Y6.333
X25.143 Y6.423
X25.03 Y6.522
X24.923 Y6.627
X24.824 Y6.74
X24.732 Y6.858
X24.648 Y6.983
X24.573 Y7.112
X24.507 Y7.247
X24.449 Y7.385
X24.401 Y7.528
X24.363 Y7.673
X24.334 Y7.82
X24.315 Y7.969
X24.306 Y8.118
Y8.268
X24.317 Y8.418
X24.337 Y8.567
X24.367 Y8.714
X24.406 Y8.858
X24.456 Y9
X24.514 Y9.138
X24.582 Y9.272
X24.658 Y9.401
X24.743 Y9.525
X24.836 Y9.643
X24.936 Y9.754
X25.043 Y9.859
X25.157 Y9.957
X25.277 Y10.047
X25.403 Y10.129
X25.534 Y10.202
X25.669 Y10.266
X25.809 Y10.321
X25.952 Y10.367
X26.097 Y10.403
X26.245 Y10.43
X26.394 Y10.447
X26.544 Y10.454
X26.694 Y10.451
X26.843 Y10.439
X26.991 Y10.416
X27.138 Y10.384
X27.282 Y10.342
X27.423 Y10.29
X27.56 Y10.23
X27.693 Y10.16
X27.821 Y10.082
X27.943 Y9.995
X28.06 Y9.901
X28.17 Y9.799
X28.274 Y9.691
X28.37 Y9.576
X28.46 Y9.455
X28.542 Y9.33
X28.616 Y9.2
X28.682 Y9.065
X28.741 Y8.927
X28.791 Y8.785
X28.832 Y8.641
X28.865 Y8.495
X28.889 Y8.347
X28.904 Y8.198
X28.909 Y8.048
X28.906 Y7.898
X28.893 Y7.748
X28.87 Y7.6
X28.837 Y7.454
X28.795 Y7.31
X28.743 Y7.169
X28.682 Y7.032
X28.613 Y6.899
X28.535 Y6.771
X28.448 Y6.648
X28.354 Y6.531
X28.253 Y6.421
X28.145 Y6.317
X28.03 Y6.22
X27.909 Y6.131
X27.783 Y6.051
X27.651 Y5.978
X27.516 Y5.914
X27.376 Y5.859
X27.234 Y5.813
X27.088 Y5.775
X26.941 Y5.747
X26.792 Y5.728
X26.643 Y5.717
X26.493
X26.343 Y5.725
X26.194 Y5.743
X26.046 Y5.769
X25.901 Y5.805
X25.758 Y5.85
X25.617 Y5.904
X25.481 Y5.966
X25.348 Y6.036
X25.22 Y6.114
X25.097 Y6.2
X24.98 Y6.293
X24.868 Y6.393
X24.762 Y6.499
X24.663 Y6.612
X24.571 Y6.731
X24.487 Y6.855
X24.41 Y6.984
X24.341 Y7.117
X24.281 Y7.254
X24.229 Y7.395
X24.186 Y7.539
X24.151 Y7.685
X24.125 Y7.832
X24.108 Y7.981
X24.1 Y8.131
X24.101 Y8.281
X24.112 Y8.431
X24.131 Y8.58
X24.16 Y8.727
X24.197 Y8.872
X24.243 Y9.015
X24.298 Y9.154
X24.361 Y9.29
X24.432 Y9.422
X24.511 Y9.55
X24.598 Y9.673
X24.691 Y9.79
X24.792 Y9.901
X24.899 Y10.006
X25.012 Y10.104
X25.132 Y10.195
X25.256 Y10.279
X25.386 Y10.355
X25.519 Y10.423
X25.657 Y10.482
X25.798 Y10.534
X25.942 Y10.576
X26.088 Y10.61
X26.236 Y10.636
X26.385 Y10.652
X26.535 Y10.659
X26.685 Y10.657
X26.834 Y10.646
X26.983 Y10.626
X27.13 Y10.596
X27.275 Y10.558
X27.417 Y10.511
X27.557 Y10.456
X27.693 Y10.392
X27.824 Y10.32
X27.952 Y10.241
X28.074 Y10.154
X28.191 Y10.06
X28.302 Y9.959
X28.407 Y9.852
X28.505 Y9.739
X28.597 Y9.62
X28.683 Y9.497
X28.761 Y9.369
X28.832 Y9.237
X28.896 Y9.101
X28.952 Y8.962
X29 Y8.82
X29.04 Y8.675
X29.072 Y8.529
X29.096 Y8.381
X29.111 Y8.232
X29.118 Y8.082
X29.116 Y7.932
X29.105 Y7.782
X29.085 Y7.633
X29.057 Y7.486
X29.02 Y7.341
X28.974 Y7.198
X28.92 Y7.058
X28.858 Y6.922
X28.787 Y6.789
X28.709 Y6.661
X28.624 Y6.538
X28.531 Y6.42
X28.431 Y6.308
X28.324 Y6.202
X28.212 Y6.103
X28.094 Y6.011
X27.971 Y5.925
X27.842 Y5.847
X27.71 Y5.777
X27.574 Y5.714
X27.434 Y5.66
X27.291 Y5.613
X27.146 Y5.575
X26.999 Y5.545
X26.851 Y5.524
X26.701 Y5.512
X26.551 Y5.507
X26.401 Y5.512
X26.252 Y5.525
X26.104 Y5.546
X25.957 Y5.576
X25.811 Y5.614
X25.669 Y5.66
X25.529 Y5.715
X25.392 Y5.776
X25.259 Y5.846
X25.131 Y5.923
X25.006 Y6.007
X24.887 Y6.098
X24.773 Y6.195
X24.664 Y6.299
X24.562 Y6.408
X24.466 Y6.524
X24.376 Y6.644
X24.294 Y6.769
X24.218 Y6.899
X24.15 Y7.032
X24.089 Y7.169
X24.036 Y7.31
X23.991 Y7.453
X23.955 Y7.598
X23.926 Y7.746
X23.906 Y7.894
X23.894 Y8.044
X23.89 Y8.194
X23.895 Y8.344
X23.908 Y8.493
X23.929 Y8.641
X23.959 Y8.788
X23.997 Y8.934
X24.043 Y9.076
X24.096 Y9.216
X24.158 Y9.353
X24.227 Y9.486
X24.303 Y9.615
X24.387 Y9.74
X24.477 Y9.86
X24.574 Y9.974
X24.677 Y10.083
X24.786 Y10.186
X24.901 Y10.283
X25.021 Y10.373
X25.145 Y10.457
X25.274 Y10.533
X25.408 Y10.602
X25.545 Y10.663
X25.685 Y10.717
X25.828 Y10.763
X25.973 Y10.8
X26.12 Y10.83
X26.268 Y10.851
X26.418 Y10.864
X26.568 Y10.869
X26.718 Y10.865
X26.867 Y10.853
X27.016 Y10.833
X27.163 Y10.804
X27.308 Y10.767
X27.451 Y10.722
X27.592 Y10.669
X27.729 Y10.608
X27.862 Y10.54
X27.992 Y10.464
X28.117 Y10.382
X28.238 Y10.293
X28.354 Y10.197
X28.464 Y10.096
X28.569 Y9.988
X28.668 Y9.876
X28.761 Y9.758
X28.847 Y9.635
X28.927 Y9.508
X29 Y9.377
X29.067 Y9.243
X29.126 Y9.105
X29.178 Y8.964
X29.223 Y8.821
X29.26 Y8.676
X29.289 Y8.529
X29.311 Y8.38
X29.325 Y8.231
X29.331 Y8.081
X29.329 Y7.931
X29.318 Y7.782
X29.3 Y7.633
X29.273 Y7.485
X29.239 Y7.339
X29.196 Y7.195
X29.146 Y7.054
X29.088 Y6.916
X29.022 Y6.781
X28.95 Y6.65
X28.87 Y6.523
X28.783 Y6.4
X28.69 Y6.283
X28.59 Y6.17
X28.485 Y6.064
X28.374 Y5.963
X28.257 Y5.869
X28.135 Y5.781
X28.009 Y5.7
X27.879 Y5.626
X27.745 Y5.559
X27.607 Y5.499
X27.466 Y5.447
X27.323 Y5.402
X27.178 Y5.365
X27.031 Y5.335
X26.882 Y5.314
X26.733 Y5.3
X26.583 Y5.295
X26.433 Y5.297
X26.283 Y5.307
X26.135 Y5.325
X25.987 Y5.351
X25.841 Y5.385
X25.696 Y5.426
X25.555 Y5.475
X25.415 Y5.531
X25.279 Y5.594
X25.147 Y5.664
X25.018 Y5.741
X24.893 Y5.825
X24.773 Y5.915
X24.658 Y6.011
X24.548 Y6.113
X24.444 Y6.22
X24.345 Y6.333
X24.252 Y6.451
X24.165 Y6.573
X24.085 Y6.7
X24.012 Y6.831
X23.945 Y6.965
X23.885 Y7.103
X23.833 Y7.243
X23.788 Y7.386
X23.75 Y7.532
X23.72 Y7.679
X23.698 Y7.827
X23.683 Y7.976
X23.676 Y8.126
X23.677 Y8.276
X23.686 Y8.426
X23.702 Y8.575
X23.726 Y8.723
X23.758 Y8.87
X23.797 Y9.014
X23.844 Y9.157
X23.898 Y9.297
X23.959 Y9.434
X24.027 Y9.568
X24.102 Y9.698
X24.184 Y9.823
X24.272 Y9.945
X24.366 Y10.062
X24.466 Y10.173
X24.572 Y10.28
X24.683 Y10.38
X24.799 Y10.475
X24.92 Y10.564
X25.045 Y10.647
X25.175 Y10.722
X25.308 Y10.792
X25.444 Y10.854
X25.584 Y10.909
X25.726 Y10.956
X25.871 Y10.996
X26.017 Y11.029
X26.165 Y11.054
X26.314 Y11.071
X26.464 Y11.081
X26.614 Y11.083
X26.763 Y11.077
X26.913 Y11.063
X27.061 Y11.042
X27.208 Y11.013
X27.354 Y10.977
X27.497 Y10.933
X27.638 Y10.881
X27.776 Y10.823
X27.911 Y10.757
X28.043 Y10.685
X28.17 Y10.606
X28.294 Y10.52
X28.413 Y10.429
X28.527 Y10.332
X28.636 Y10.229
X28.74 Y10.121
X28.839 Y10.008
X28.932 Y9.89
X29.019 Y9.768
X29.1 Y9.642
X29.175 Y9.512
X29.243 Y9.379
X29.305 Y9.242
X29.36 Y9.103
X29.409 Y8.961
X29.45 Y8.816
X29.484 Y8.67
X29.511 Y8.523
X29.531 Y8.374
X29.543 Y8.224
X29.548 Y8.075
X29.545 Y7.925
X29.535 Y7.775
X29.518 Y7.626
X29.493 Y7.478
X29.46 Y7.332
X29.42 Y7.187
X29.373 Y7.045
X29.318 Y6.905
X29.257 Y6.768
X29.189 Y6.635
X29.114 Y6.505
X29.032 Y6.379
X28.945 Y6.257
X28.851 Y6.14
X28.751 Y6.027
X28.646 Y5.92
X28.536 Y5.819
X28.421 Y5.723
X28.301 Y5.633
X28.176 Y5.55
X28.047 Y5.472
X27.915 Y5.402
X27.78 Y5.337
X27.641 Y5.28
X27.5 Y5.23
X27.356 Y5.186
X27.21 Y5.15
X27.063 Y5.121
X26.915 Y5.099
X26.766 Y5.085
X26.616 Y5.078
X26.466
X26.316 Y5.086
X26.167 Y5.101
X26.018 Y5.124
X25.871 Y5.154
X25.726 Y5.191
X25.583 Y5.234
X25.441 Y5.285
X25.303 Y5.343
X25.167 Y5.407
X25.035 Y5.477
X24.906 Y5.554
X24.781 Y5.637
X24.66 Y5.726
X24.544 Y5.821
X24.432 Y5.921
X24.326 Y6.027
X24.225 Y6.137
X24.129 Y6.253
X24.039 Y6.373
X23.955 Y6.497
X23.876 Y6.625
X23.804 Y6.756
X23.739 Y6.891
X23.68 Y7.029
X23.627 Y7.17
X23.582 Y7.313
X23.543 Y7.458
X23.512 Y7.604
X23.487 Y7.752
X23.47 Y7.901
X23.46 Y8.051
X23.457 Y8.201
X23.462 Y8.351
X23.474 Y8.5
X23.493 Y8.649
X23.519 Y8.797
X23.552 Y8.943
X23.592 Y9.088
X23.638 Y9.23
X23.692 Y9.37
X23.752 Y9.508
X23.819 Y9.642
X23.892 Y9.773
X23.972 Y9.9
X24.057 Y10.023
X24.149 Y10.142
X24.246 Y10.257
X24.349 Y10.366
X24.456 Y10.471
X24.569 Y10.57
X24.686 Y10.664
X24.807 Y10.752
X24.933 Y10.834
X25.062 Y10.91
X25.195 Y10.979
X25.331 Y11.043
X25.47 Y11.099
X25.611 Y11.149
X25.755 Y11.192
X25.901 Y11.228
X26.048 Y11.257
X26.196 Y11.278
X26.346 Y11.293
X26.495 Y11.3
X26.645
X26.795 Y11.293
X26.945 Y11.279
X27.093 Y11.258
X27.24 Y11.23
X27.386 Y11.194
X27.53 Y11.152
X27.672 Y11.103
X27.811 Y11.047
X27.947 Y10.984
X28.08 Y10.915
X28.21 Y10.84
X28.336 Y10.759
X28.458 Y10.672
X28.576 Y10.579
X28.69 Y10.481
X28.799 Y10.378
X28.903 Y10.27
X29.002 Y10.157
X29.096 Y10.04
X29.184 Y9.919
X29.267 Y9.794
X29.344 Y9.665
X29.414 Y9.533
X29.479 Y9.397
X29.538 Y9.259
X29.59 Y9.119
X29.635 Y8.976
X29.674 Y8.831
X29.707 Y8.684
X29.732 Y8.537
X29.751 Y8.388
X29.763 Y8.238
X29.768 Y8.088
X29.767 Y7.938
X29.758 Y7.789
X29.742 Y7.639
X29.719 Y7.491
X29.689 Y7.344
X29.652 Y7.199
X29.609 Y7.055
X29.559 Y6.914
X29.502 Y6.775
X29.438 Y6.639
X29.369 Y6.506
X29.293 Y6.377
X29.211 Y6.251
X29.123 Y6.129
X29.03 Y6.012
X28.932 Y5.899
X28.828 Y5.791
X28.719 Y5.687
X28.605 Y5.59
X28.487 Y5.497
X28.365 Y5.41
X28.238 Y5.329
X28.108 Y5.255
X27.975 Y5.186
X27.839 Y5.123
X27.7 Y5.067
X27.558 Y5.017
X27.415 Y4.974
X27.269 Y4.937
X27.122 Y4.907
X26.974 Y4.884
X26.825 Y4.868
X26.675 Y4.859
X26.525 Y4.856
X26.375 Y4.861
X26.226 Y4.872
X26.077 Y4.891
X25.929 Y4.916
X25.782 Y4.947
X25.637 Y4.986
X25.494 Y5.031
X25.353 Y5.082
X25.215 Y5.139
X25.079 Y5.203
X24.946 Y5.273
X24.816 Y5.349
X24.69 Y5.43
X24.568 Y5.517
X24.45 Y5.61
X24.337 Y5.708
X24.228 Y5.81
X24.123 Y5.918
X24.024 Y6.031
X23.93 Y6.147
X23.841 Y6.268
X23.758 Y6.393
X23.68 Y6.521
X23.608 Y6.653
X23.542 Y6.788
X23.482 Y6.925
X23.429 Y7.065
X23.381 Y7.208
X23.34 Y7.352
X23.306 Y7.498
X23.279 Y7.645
X23.258 Y7.794
X23.244 Y7.943
X23.236 Y8.093
Y8.243
X23.242 Y8.393
X23.255 Y8.543
X23.274 Y8.691
X23.3 Y8.839
X23.333 Y8.985
X23.372 Y9.13
X23.418 Y9.273
X23.47 Y9.414
X23.528 Y9.552
X23.592 Y9.688
X23.663 Y9.82
X23.739 Y9.949
X23.821 Y10.074
X23.909 Y10.196
X24.002 Y10.314
X24.101 Y10.427
X24.204 Y10.536
X24.312 Y10.64
X24.425 Y10.739
X24.541 Y10.833
X24.662 Y10.922
X24.787 Y11.005
X24.916 Y11.083
X25.047 Y11.154
X25.182 Y11.22
X25.32 Y11.279
X25.46 Y11.333
X25.603 Y11.379
X25.747 Y11.42
X25.893 Y11.453
X26.041 Y11.481
X26.189 Y11.501
X26.339 Y11.515
X26.489 Y11.522
X26.639 Y11.523
X26.788 Y11.517
X26.938 Y11.504
X27.087 Y11.484
X27.234 Y11.458
X27.381 Y11.426
X27.525 Y11.386
X27.668 Y11.34
X27.809 Y11.288
X27.947 Y11.23
X28.083 Y11.165
X28.215 Y11.095
X28.344 Y11.019
X28.47 Y10.937
X28.592 Y10.85
X28.71 Y10.758
X28.825 Y10.66
X28.934 Y10.558
X29.04 Y10.452
X29.14 Y10.34
X29.236 Y10.225
X29.327 Y10.106
X29.412 Y9.982
X29.493 Y9.855
X29.567 Y9.725
X29.636 Y9.592
X29.699 Y9.456
X29.756 Y9.317
X29.807 Y9.176
X29.853 Y9.033
X29.891 Y8.888
X29.924 Y8.742
X29.951 Y8.594
X29.971 Y8.446
X29.985 Y8.296
X29.992 Y8.147
X29.993 Y7.997
X29.987 Y7.847
X29.974 Y7.697
X29.955 Y7.548
X29.93 Y7.401
X29.898 Y7.254
X29.859 Y7.109
X29.814 Y6.966
X29.763 Y6.825
X29.706 Y6.686
X29.643 Y6.55
X29.574 Y6.417
X29.5 Y6.287
X29.419 Y6.16
X29.333 Y6.037
X29.242 Y5.918
X29.146 Y5.803
X29.045 Y5.692
X28.938 Y5.586
X28.828 Y5.485
X28.713 Y5.389
X28.593 Y5.298
X28.47 Y5.212
X28.344 Y5.132
X28.213 Y5.057
X28.08 Y4.988
X27.944 Y4.925
X27.806 Y4.868
X27.665 Y4.816
X27.522 Y4.771
X27.377 Y4.732
X27.231 Y4.699
X27.083 Y4.673
X26.934 Y4.653
X26.785 Y4.64
X26.635 Y4.633
X26.485 Y4.632
X26.335 Y4.638
X26.186 Y4.651
X26.037 Y4.67
X25.889 Y4.695
X25.742 Y4.726
X25.597 Y4.763
X25.453 Y4.807
X25.312 Y4.856
X25.172 Y4.912
X25.036 Y4.973
X24.901 Y5.04
X24.77 Y5.113
X24.642 Y5.192
X24.518 Y5.275
X24.397 Y5.364
X24.28 Y5.458
X24.167 Y5.557
X24.059 Y5.661
X23.955 Y5.769
X23.855 Y5.881
X23.761 Y5.997
X23.671 Y6.118
X23.587 Y6.242
X23.507 Y6.369
X23.433 Y6.5
X23.365 Y6.633
X23.303 Y6.769
X23.246 Y6.908
X23.195 Y7.049
X23.15 Y7.192
X23.111 Y7.337
X23.079 Y7.484
X23.053 Y7.632
X23.033 Y7.78
X23.019 Y7.93
X23.011 Y8.079
X23.01 Y8.229
X23.015 Y8.379
X23.026 Y8.529
X23.044 Y8.678
X23.068 Y8.826
X23.098 Y8.973
X23.134 Y9.118
X23.176 Y9.262
X23.224 Y9.404
X23.279 Y9.544
X23.339 Y9.682
X23.405 Y9.816
X23.476 Y9.948
X23.553 Y10.077
X23.636 Y10.202
X23.723 Y10.324
X23.816 Y10.442
X23.913 Y10.556
X24.015 Y10.666
X24.122 Y10.772
X24.233 Y10.873
X24.348 Y10.969
X24.467 Y11.06
X24.59 Y11.146
X24.716 Y11.227
X24.846 Y11.303
X24.979 Y11.372
X25.114 Y11.437
X25.252 Y11.495
X25.393 Y11.548
X25.535 Y11.594
X25.68 Y11.635
X25.826 Y11.67
X25.973 Y11.698
X26.121 Y11.72
X26.27 Y11.736
X26.42 Y11.746
X26.57 Y11.75
X26.72 Y11.747
X26.87 Y11.738
X27.019 Y11.722
X27.167 Y11.7
X27.315 Y11.672
X27.461 Y11.638
X27.605 Y11.598
X27.748 Y11.552
X27.889 Y11.5
X28.027 Y11.442
X28.163 Y11.378
X28.296 Y11.309
X28.426 Y11.234
X28.553 Y11.155
X28.677 Y11.07
X28.797 Y10.98
X28.913 Y10.885
X29.025 Y10.786
X29.134 Y10.682
X29.238 Y10.574
X29.337 Y10.461
X29.432 Y10.345
X29.522 Y10.225
X29.607 Y10.101
X29.687 Y9.974
X29.761 Y9.844
X29.831 Y9.711
X29.895 Y9.576
X29.954 Y9.438
X30.007 Y9.297
X30.054 Y9.155
X30.096 Y9.011
X30.132 Y8.865
X30.161 Y8.718
X30.185 Y8.57
X30.203 Y8.421
X30.215 Y8.272
X30.22 Y8.122
Y7.972
X30.213 Y7.822
X30.2 Y7.673
X30.181 Y7.524
X30.156 Y7.376
X30.125 Y7.229
X30.088 Y7.084
X30.045 Y6.94
X29.996 Y6.798
X29.942 Y6.659
X29.881 Y6.521
X29.816 Y6.386
X29.744 Y6.254
X29.667 Y6.126
X29.585 Y6
X29.498 Y5.878
X29.406 Y5.76
X29.309 Y5.645
X29.207 Y5.535
X29.101 Y5.429
X28.991 Y5.327
X28.877 Y5.23
X28.758 Y5.138
X28.636 Y5.051
X28.511 Y4.968
X28.382 Y4.891
X28.251 Y4.819
X28.116 Y4.753
X27.979 Y4.692
X27.84 Y4.637
X27.698 Y4.587
X27.555 Y4.544
X27.409 Y4.506
X27.263 Y4.474
X27.115 Y4.448
X26.966 Y4.428
X26.817 Y4.414
X26.667 Y4.406
X26.517 Y4.404
X26.367 Y4.408
X26.218 Y4.419
X26.068 Y4.435
X25.92 Y4.457
X25.773 Y4.485
X25.627 Y4.519
X25.482 Y4.558
X25.339 Y4.604
X25.198 Y4.655
X25.059 Y4.712
X24.923 Y4.774
X24.789 Y4.842
X24.658 Y4.915
X24.53 Y4.993
X24.405 Y5.076
X24.283 Y5.164
X24.166 Y5.257
X24.051 Y5.354
X23.941 Y5.456
X23.835 Y5.562
X23.733 Y5.672
X23.636 Y5.786
X23.544 Y5.904
X23.456 Y6.026
X23.373 Y6.151
X23.295 Y6.279
X23.222 Y6.41
X23.154 Y6.544
X23.092 Y6.68
X23.035 Y6.819
X22.984 Y6.96
X22.938 Y7.103
X22.898 Y7.248
X22.864 Y7.394
X22.836 Y7.541
X22.813 Y7.689
X22.796 Y7.838
X22.786 Y7.988
X22.781 Y8.138
X22.782 Y8.288
X22.789 Y8.438
X22.802 Y8.587
X22.821 Y8.736
X22.845 Y8.884
X22.876 Y9.031
X22.912 Y9.176
X22.954 Y9.32
X23.002 Y9.462
X23.055 Y9.603
X23.114 Y9.741
X23.179 Y9.876
X23.248 Y10.009
X23.323 Y10.139
X23.403 Y10.266
X23.487 Y10.39
X23.577 Y10.51
X23.671 Y10.627
X23.77 Y10.74
X23.873 Y10.849
X23.981 Y10.953
X24.092 Y11.054
X24.207 Y11.149
X24.326 Y11.241
X24.449 Y11.327
X24.575 Y11.409
X24.704 Y11.485
X24.836 Y11.557
X24.971 Y11.623
X25.108 Y11.683
X25.247 Y11.739
X25.389 Y11.788
X25.532 Y11.833
X25.677 Y11.871
X25.823 Y11.903
X25.971 Y11.93
X26.12 Y11.951
X26.269 Y11.966
X26.419 Y11.975
X26.568 Y11.979
X26.718 Y11.976
X26.868 Y11.967
X27.018 Y11.953
X27.166 Y11.932
X27.314 Y11.906
X27.46 Y11.874
X27.606 Y11.837
X27.749 Y11.793
X27.891 Y11.744
X28.031 Y11.69
X28.168 Y11.63
X28.303 Y11.565
X28.436 Y11.494
X28.565 Y11.419
X28.692 Y11.339
X28.816 Y11.253
X28.936 Y11.163
X29.052 Y11.069
X29.165 Y10.97
X29.274 Y10.867
X29.379 Y10.76
X29.48 Y10.649
X29.576 Y10.534
X29.668 Y10.415
X29.756 Y10.294
X29.838 Y10.169
X29.916 Y10.04
X29.989 Y9.909
X30.057 Y9.776
X30.12 Y9.639
X30.178 Y9.501
X30.23 Y9.36
X30.277 Y9.218
X30.318 Y9.074
X30.354 Y8.928
X30.385 Y8.781
X30.409 Y8.633
X30.428 Y8.484
X30.442 Y8.335
X30.449 Y8.185
X30.451 Y8.035
X30.447 Y7.885
X30.438 Y7.736
X30.422 Y7.586
X30.401 Y7.438
X30.374 Y7.29
X30.342 Y7.144
X30.304 Y6.999
X30.26 Y6.855
X30.211 Y6.714
X30.156 Y6.574
X30.096 Y6.437
X30.03 Y6.301
X29.96 Y6.169
X29.884 Y6.04
X29.804 Y5.913
X29.718 Y5.79
X29.628 Y5.67
X29.534 Y5.553
X29.435 Y5.441
X29.331 Y5.332
X29.224 Y5.227
X29.112 Y5.127
X28.997 Y5.031
X28.878 Y4.94
X28.756 Y4.853
X28.63 Y4.771
X28.501 Y4.694
X28.37 Y4.622
X28.236 Y4.555
X28.099 Y4.493
X27.96 Y4.436
X27.819 Y4.385
X27.676 Y4.339
X27.532 Y4.298
X27.386 Y4.264
X27.239 Y4.234
X27.091 Y4.211
X26.942 Y4.193
X26.792 Y4.181
X26.643 Y4.174
X26.493 Y4.173
X26.343 Y4.178
X26.193 Y4.189
X26.044 Y4.205
X25.895 Y4.226
X25.748 Y4.254
X25.602 Y4.287
X25.457 Y4.325
X25.313 Y4.369
X25.171 Y4.418
X25.032 Y4.472
X24.894 Y4.532
X24.759 Y4.596
X24.626 Y4.666
X24.496 Y4.741
X24.369 Y4.821
X24.245 Y4.905
X24.124 Y4.994
X24.006 Y5.087
X23.893 Y5.185
X23.782 Y5.287
X23.676 Y5.393
X23.574 Y5.503
X23.476 Y5.616
X23.382 Y5.733
X23.293 Y5.854
X23.208 Y5.978
X23.128 Y6.104
X23.053 Y6.234
X22.983 Y6.367
X22.917 Y6.502
X22.857 Y6.639
X22.802 Y6.779
X22.752 Y6.92
X22.708 Y7.063
X22.669 Y7.208
X22.635 Y7.354
X22.607 Y7.502
X22.584 Y7.65
X22.567 Y7.799
X22.556 Y7.948
X22.549 Y8.098
Y8.248
X22.554 Y8.398
X22.565 Y8.548
X22.581 Y8.697
X22.603 Y8.845
X22.63 Y8.993
X22.663 Y9.139
X22.701 Y9.284
X22.745 Y9.428
X22.794 Y9.57
X22.848 Y9.709
X22.908 Y9.847
X22.972 Y9.983
X23.042 Y10.115
X23.116 Y10.246
X23.195 Y10.373
X23.279 Y10.497
X23.368 Y10.619
X23.461 Y10.736
X23.558 Y10.851
X23.659 Y10.961
X23.764 Y11.068
X23.874 Y11.171
X23.987 Y11.269
X24.104 Y11.363
X24.224 Y11.453
X24.347 Y11.539
X24.474 Y11.619
X24.603 Y11.695
X24.735 Y11.766
X24.87 Y11.832
X25.007 Y11.893
X25.146 Y11.949
X25.287 Y11.999
X25.43 Y12.045
X25.575 Y12.084
X25.721 Y12.119
X25.868 Y12.148
X26.016 Y12.172
X26.165 Y12.19
X26.315 Y12.203
X26.464 Y12.209
X26.614 Y12.211
X26.764 Y12.207
X26.914 Y12.197
X27.063 Y12.181
X27.212 Y12.16
X27.359 Y12.134
X27.506 Y12.102
X27.651 Y12.065
X27.795 Y12.022
X27.937 Y11.975
X28.078 Y11.922
X28.216 Y11.864
X28.352 Y11.8
X28.486 Y11.732
X28.617 Y11.66
X28.745 Y11.582
X28.871 Y11.5
X28.993 Y11.413
X29.112 Y11.322
X29.228 Y11.226
X29.34 Y11.127
X29.448 Y11.023
X29.553 Y10.916
X29.654 Y10.804
X29.751 Y10.69
X29.843 Y10.572
X29.931 Y10.45
X30.015 Y10.326
X30.094 Y10.199
X30.169 Y10.068
X30.239 Y9.936
X30.304 Y9.801
X30.364 Y9.663
X30.419 Y9.524
X30.47 Y9.382
X30.515 Y9.239
X30.555 Y9.095
X30.589 Y8.949
X30.619 Y8.802
X30.643 Y8.654
X30.661 Y8.505
X30.675 Y8.355
X30.682 Y8.206
X30.685 Y8.056
X30.682 Y7.906
X30.673 Y7.756
X30.66 Y7.607
X30.64 Y7.458
X30.616 Y7.31
X30.586 Y7.163
X30.551 Y7.017
X30.51 Y6.873
X30.464 Y6.73
X30.413 Y6.589
X30.357 Y6.45
X30.296 Y6.313
X30.229 Y6.178
X30.158 Y6.046
X30.083 Y5.917
X30.002 Y5.79
X29.917 Y5.667
X29.827 Y5.546
X29.734 Y5.429
X29.636 Y5.316
X29.533 Y5.206
X29.427 Y5.1
X29.318 Y4.997
X29.204 Y4.899
X29.087 Y4.805
X28.967 Y4.716
X28.843 Y4.631
X28.717 Y4.55
X28.588 Y4.474
X28.456 Y4.403
X28.321 Y4.336
X28.184 Y4.275
X28.045 Y4.218
X27.904 Y4.167
X27.762 Y4.121
X27.618 Y4.079
X27.472 Y4.044
X27.325 Y4.013
X27.177 Y3.987
X27.029 Y3.967
X26.879 Y3.952
X26.73 Y3.943
X26.58 Y3.939
X26.43 Y3.94
X26.28 Y3.947
X26.13 Y3.959
X25.981 Y3.976
X25.833 Y3.999
X25.686 Y4.027
X25.539 Y4.06
X25.394 Y4.099
X25.251 Y4.142
X25.109 Y4.191
X24.969 Y4.245
X24.831 Y4.303
X24.695 Y4.367
X24.561 Y4.435
X24.43 Y4.508
X24.302 Y4.585
X24.176 Y4.667
X24.053 Y4.753
X23.934 Y4.844
X23.818 Y4.939
X23.705 Y5.038
X23.596 Y5.141
X23.49 Y5.247
X23.389 Y5.358
X23.291 Y5.471
X23.197 Y5.589
X23.108 Y5.709
X23.023 Y5.833
X22.942 Y5.959
X22.866 Y6.088
X22.794 Y6.22
X22.727 Y6.354
X22.665 Y6.491
X22.608 Y6.629
X22.555 Y6.77
X22.508 Y6.912
X22.466 Y7.056
X22.428 Y7.201
X22.396 Y7.348
X22.37 Y7.496
X22.348 Y7.644
X22.332 Y7.793
X22.32 Y7.943
X22.315 Y8.093
X22.314 Y8.243
X22.319 Y8.392
X22.329 Y8.542
X22.344 Y8.691
X22.364 Y8.84
X22.39 Y8.988
X22.421 Y9.135
X22.457 Y9.28
X22.498 Y9.424
X22.544 Y9.567
X22.595 Y9.708
X22.651 Y9.847
X22.712 Y9.984
X22.778 Y10.119
X22.848 Y10.252
X22.923 Y10.381
X23.003 Y10.509
X23.087 Y10.633
X23.175 Y10.754
X23.268 Y10.872
X23.365 Y10.987
X23.465 Y11.098
X23.57 Y11.206
X23.678 Y11.31
X23.79 Y11.41
X23.905 Y11.506
X24.023 Y11.598
X24.145 Y11.685
X24.27 Y11.769
X24.397 Y11.848
X24.528 Y11.922
X24.66 Y11.992
X24.796 Y12.057
X24.933 Y12.117
X25.073 Y12.172
X25.214 Y12.222
X25.357 Y12.268
X25.501 Y12.308
X25.647 Y12.343
X25.794 Y12.373
X25.942 Y12.398
X26.091 Y12.418
X26.24 Y12.433
X26.39 Y12.442
X26.54 Y12.446
X26.69 Y12.444
X26.839 Y12.438
X26.989 Y12.426
X27.138 Y12.409
X27.286 Y12.387
X27.434 Y12.359
X27.58 Y12.327
X27.725 Y12.289
X27.869 Y12.246
X28.011 Y12.198
X28.152 Y12.146
X28.29 Y12.088
X28.427 Y12.026
X28.561 Y11.959
X28.693 Y11.887
X28.822 Y11.811
X28.949 Y11.731
X29.073 Y11.646
X29.193 Y11.557
X29.311 Y11.464
X29.426 Y11.367
X29.537 Y11.266
X29.644 Y11.162
X29.748 Y11.054
X29.848 Y10.942
X29.944 Y10.827
X30.036 Y10.708
X30.124 Y10.587
X30.208 Y10.463
X30.288 Y10.336
X30.363 Y10.206
X30.434 Y10.074
X30.5 Y9.939
X30.562 Y9.802
X30.619 Y9.664
X30.671 Y9.523
X30.719 Y9.381
X30.762 Y9.237
X30.799 Y9.092
X30.832 Y8.945
X30.86 Y8.798
X30.882 Y8.65
X30.9 Y8.501
X30.912 Y8.351
X30.919 Y8.201
X30.921 Y8.051
X30.918 Y7.901
X30.91 Y7.752
X30.897 Y7.602
X30.878 Y7.453
X30.855 Y7.305
X30.826 Y7.158
X30.793 Y7.012
X30.754 Y6.867
X30.71 Y6.723
X30.662 Y6.581
X30.609 Y6.441
X30.55 Y6.303
X30.488 Y6.167
X30.42 Y6.033
X30.348 Y5.901
X30.271 Y5.772
X30.19 Y5.646
X30.104 Y5.523
X30.015 Y5.403
X29.921 Y5.286
X29.823 Y5.172
X29.722 Y5.061
X29.617 Y4.955
X29.508 Y4.851
X29.395 Y4.752
X29.28 Y4.657
X29.161 Y4.565
X29.039 Y4.478
X28.914 Y4.395
X28.786 Y4.316
X28.656 Y4.242
X28.523 Y4.172
X28.388 Y4.107
X28.251 Y4.046
X28.111 Y3.991
X27.97 Y3.94
X27.828 Y3.893
X27.683 Y3.852
X27.538 Y3.816
X27.391 Y3.785
X27.243 Y3.758
X27.095 Y3.737
X26.946 Y3.721
X26.796 Y3.71
X26.646 Y3.703
X26.496 Y3.702
X26.346 Y3.706
X26.197 Y3.716
X26.047 Y3.73
X25.899 Y3.749
X25.751 Y3.773
X25.603 Y3.802
X25.457 Y3.836
X25.313 Y3.876
X25.169 Y3.92
X25.027 Y3.968
X24.887 Y4.022
X24.749 Y4.08
X24.613 Y4.143
X24.479 Y4.21
X24.347 Y4.282
X24.218 Y4.358
X24.091 Y4.439
X23.967 Y4.523
X23.846 Y4.612
X23.728 Y4.705
X23.614 Y4.801
X23.502 Y4.902
X23.394 Y5.006
X23.29 Y5.114
X23.189 Y5.225
X23.092 Y5.339
X22.999 Y5.457
X22.91 Y5.577
X22.825 Y5.701
X22.744 Y5.827
X22.668 Y5.956
X22.595 Y6.088
X22.528 Y6.222
X22.464 Y6.358
X22.406 Y6.496
X22.352 Y6.636
X22.302 Y6.777
X22.258 Y6.92
X22.218 Y7.065
X22.183 Y7.211
X22.153 Y7.358
X22.127 Y7.506
X22.107 Y7.654
X22.092 Y7.804
X22.082 Y7.953
X22.077 Y8.103
X22.076 Y8.253
X22.081 Y8.403
X22.091 Y8.553
X22.106 Y8.702
X22.126 Y8.851
X22.15 Y8.999
X22.18 Y9.146
X22.214 Y9.292
X22.254 Y9.436
X22.298 Y9.58
X22.347 Y9.722
X22.4 Y9.862
X22.458 Y10
X22.521 Y10.136
X22.588 Y10.27
X22.66 Y10.402
X22.736 Y10.531
X22.817 Y10.658
X22.901 Y10.782
X22.99 Y10.903
X23.083 Y11.021
X23.179 Y11.136
X23.279 Y11.247
X23.383 Y11.355
X23.491 Y11.46
X23.602 Y11.561
X23.716 Y11.658
X23.833 Y11.751
X23.954 Y11.841
X24.077 Y11.926
X24.203 Y12.008
X24.332 Y12.085
X24.463 Y12.157
X24.597 Y12.225
X24.733 Y12.289
X24.87 Y12.348
X25.01 Y12.403
X25.152 Y12.452
X25.295 Y12.497
X25.439 Y12.538
X25.585 Y12.573
X25.732 Y12.604
X25.88 Y12.629
X26.028 Y12.65
X26.177 Y12.666
X26.327 Y12.677
X26.477 Y12.682
X26.627 Y12.683
X26.777 Y12.679
X26.927 Y12.67
X27.076 Y12.656
X27.225 Y12.637
X27.373 Y12.613
X27.52 Y12.584
X27.666 Y12.551
X27.811 Y12.512
X27.955 Y12.469
X28.097 Y12.421
X28.237 Y12.368
X28.376 Y12.311
X28.513 Y12.249
X28.647 Y12.183
X28.78 Y12.112
X28.909 Y12.037
X29.037 Y11.958
X29.162 Y11.875
X29.284 Y11.788
X29.403 Y11.697
X29.519 Y11.602
X29.632 Y11.503
X29.742 Y11.401
X29.848 Y11.295
X29.951 Y11.186
X30.05 Y11.073
X30.146 Y10.957
X30.237 Y10.839
X30.325 Y10.717
X30.409 Y10.593
X30.489 Y10.466
X30.564 Y10.336
X30.636 Y10.204
X30.703 Y10.07
X30.766 Y9.934
X30.824 Y9.796
X30.878 Y9.656
X30.927 Y9.514
X30.972 Y9.371
X31.012 Y9.226
X31.047 Y9.08
X31.078 Y8.934
X31.104 Y8.786
X31.125 Y8.637
X31.141 Y8.488
X31.152 Y8.339
X31.159 Y8.189
X31.16 Y8.039
X31.157 Y7.889
X31.149 Y7.739
X31.136 Y7.59
X31.118 Y7.441
X31.095 Y7.292
X31.067 Y7.145
X31.035 Y6.998
X30.998 Y6.853
X30.956 Y6.709
X30.91 Y6.566
X30.859 Y6.425
X30.803 Y6.286
X30.743 Y6.149
X30.678 Y6.013
X30.609 Y5.88
X30.536 Y5.749
X30.458 Y5.621
X30.376 Y5.495
X30.29 Y5.372
X30.2 Y5.252
X30.106 Y5.135
X30.009 Y5.021
X29.908 Y4.911
X29.803 Y4.803
X29.695 Y4.699
X29.583 Y4.599
X29.469 Y4.502
X29.351 Y4.41
X29.23 Y4.321
X29.106 Y4.236
X28.98 Y4.155
X28.851 Y4.078
X28.72 Y4.005
X28.587 Y3.937
X28.451 Y3.873
X28.313 Y3.813
X28.174 Y3.759
X28.032 Y3.708
X27.889 Y3.662
X27.745 Y3.621
X27.6 Y3.585
X27.453 Y3.553
X27.305 Y3.526
X27.157 Y3.504
X27.008 Y3.487
X26.859 Y3.474
X26.709 Y3.466
X26.559 Y3.463
X26.409 Y3.465
X26.259 Y3.471
X26.109 Y3.483
X25.96 Y3.499
X25.812 Y3.52
X25.664 Y3.546
X25.517 Y3.576
X25.371 Y3.611
X25.227 Y3.651
X25.083 Y3.695
X24.942 Y3.744
X24.802 Y3.798
X24.663 Y3.856
X24.527 Y3.918
X24.392 Y3.985
X24.26 Y4.056
X24.13 Y4.131
X24.003 Y4.21
X23.878 Y4.293
X23.756 Y4.38
X23.637 Y4.471
X23.52 Y4.566
X23.407 Y4.664
X23.297 Y4.766
X23.19 Y4.871
X23.087 Y4.98
X22.987 Y5.092
X22.89 Y5.207
X22.798 Y5.325
X22.709 Y5.446
X22.624 Y5.57
X22.543 Y5.696
X22.467 Y5.825
X22.394 Y5.956
X22.325 Y6.089
X22.261 Y6.225
X22.201 Y6.362
X22.146 Y6.502
X22.094 Y6.643
X22.048 Y6.785
X22.006 Y6.929
X21.968 Y7.074
X21.935 Y7.221
X21.907 Y7.368
X21.883 Y7.516
X21.864 Y7.665
X21.85 Y7.814
X21.841 Y7.964
X21.836 Y8.114
Y8.264
X21.841 Y8.414
X21.851 Y8.564
X21.865 Y8.713
X21.885 Y8.862
X21.908 Y9.01
X21.937 Y9.157
X21.97 Y9.303
X22.008 Y9.449
X22.05 Y9.592
X22.097 Y9.735
X22.148 Y9.876
X22.204 Y10.015
X22.264 Y10.153
X22.328 Y10.288
X22.397 Y10.422
X22.47 Y10.553
X22.547 Y10.681
X22.628 Y10.808
X22.713 Y10.931
X22.802 Y11.052
X22.894 Y11.17
X22.991 Y11.285
X23.091 Y11.397
X23.194 Y11.505
X23.301 Y11.611
X23.411 Y11.712
X23.524 Y11.811
X23.641 Y11.906
X23.76 Y11.997
X23.882 Y12.084
X24.007 Y12.167
X24.134 Y12.246
X24.264 Y12.322
X24.396 Y12.393
X24.53 Y12.46
X24.666 Y12.522
X24.805 Y12.581
X24.945 Y12.634
X25.086 Y12.684
X25.229 Y12.729
X25.374 Y12.769
X25.52 Y12.804
X25.666 Y12.835
X25.814 Y12.862
X25.962 Y12.884
X26.111 Y12.901
X26.261 Y12.913
X26.411 Y12.921
X26.561 Y12.924
X26.711 Y12.922
X26.861 Y12.915
X27.01 Y12.904
X27.159 Y12.888
X27.308 Y12.868
X27.456 Y12.842
X27.603 Y12.812
X27.749 Y12.778
X27.893 Y12.739
X28.037 Y12.695
X28.179 Y12.647
X28.32 Y12.594
X28.46 Y12.537
X28.597 Y12.475
X28.734 Y12.409
X28.868 Y12.338
X29 Y12.264
X29.129 Y12.185
X29.257 Y12.102
X29.381 Y12.015
X29.503 Y11.924
X29.622 Y11.829
X29.738 Y11.731
X29.851 Y11.629
X29.961 Y11.523
X30.067 Y11.415
X30.17 Y11.302
X30.27 Y11.187
X30.366 Y11.068
X30.458 Y10.947
X30.546 Y10.822
X30.631 Y10.695
X30.711 Y10.565
X30.787 Y10.433
X30.859 Y10.298
X30.927 Y10.161
X30.991 Y10.022
X31.05 Y9.881
X31.105 Y9.738
X31.155 Y9.594
X31.201 Y9.448
X31.242 Y9.301
X31.279 Y9.153
X31.31 Y9.004
X31.337 Y8.854
X31.36 Y8.703
X31.377 Y8.552
X31.39 Y8.4
X31.398 Y8.248
X31.401 Y8.096
X31.4 Y7.943
X31.394 Y7.791
X31.383 Y7.639
X31.367 Y7.488
X31.346 Y7.337
X31.321 Y7.186
X31.291 Y7.037
X31.257 Y6.889
X31.218 Y6.742
X31.174 Y6.597
X31.126 Y6.454
X31.074 Y6.313
X31.017 Y6.173
X30.956 Y6.036
X30.891 Y5.9
X30.821 Y5.766
X30.748 Y5.635
X30.67 Y5.505
X30.587 Y5.378
X30.501 Y5.253
X30.411 Y5.131
X30.317 Y5.012
X30.219 Y4.896
X30.118 Y4.783
X30.013 Y4.673
X29.904 Y4.566
X29.793 Y4.462
X29.678 Y4.362
X29.559 Y4.266
X29.438 Y4.174
X29.314 Y4.085
X29.188 Y4
X29.059 Y3.92
X28.928 Y3.843
X28.794 Y3.771
X28.659 Y3.703
X28.521 Y3.64
X28.381 Y3.58
X28.24 Y3.525
X28.096 Y3.475
X27.95 Y3.428
X27.803 Y3.387
X27.655 Y3.35
X27.505 Y3.317
X27.354 Y3.289
X27.202 Y3.266
X27.049 Y3.248
X26.896 Y3.234
X26.742 Y3.225
X26.588 Y3.221
X26.434 Y3.222
X26.28 Y3.228
X26.126 Y3.239
X25.973 Y3.254
X25.82 Y3.274
X25.669 Y3.299
X25.517 Y3.329
X25.367 Y3.363
X25.218 Y3.402
X25.07 Y3.446
X24.923 Y3.494
X24.777 Y3.548
X24.634 Y3.605
X24.492 Y3.668
X24.351 Y3.734
X24.213 Y3.805
X24.078 Y3.881
X23.944 Y3.961
X23.813 Y4.044
X23.685 Y4.132
X23.559 Y4.224
X23.437 Y4.32
X23.318 Y4.419
X23.202 Y4.523
X23.089 Y4.629
X22.98 Y4.739
X22.874 Y4.853
X22.772 Y4.969
X22.674 Y5.089
X22.579 Y5.212
X22.488 Y5.338
X22.401 Y5.467
X22.318 Y5.599
X22.239 Y5.733
X22.164 Y5.87
X22.094 Y6.009
X22.028 Y6.151
X21.966 Y6.294
X21.909 Y6.44
X21.857 Y6.587
X21.809 Y6.735
X21.766 Y6.885
X21.727 Y7.036
X21.694 Y7.187
X21.665 Y7.34
X21.641 Y7.494
X21.622 Y7.648
X21.608 Y7.803
X21.598 Y7.958
X21.593 Y8.114
X21.594 Y8.27
X21.599 Y8.426
X21.609 Y8.582
X21.624 Y8.738
X21.644 Y8.893
X21.668 Y9.047
X21.698 Y9.201
X21.732 Y9.353
X21.771 Y9.505
X21.815 Y9.655
X21.863 Y9.803
X21.916 Y9.95
X21.974 Y10.095
X22.036 Y10.238
X22.102 Y10.379
X22.173 Y10.518
X22.248 Y10.654
X22.327 Y10.788
X22.411 Y10.92
X22.499 Y11.048
X22.59 Y11.175
X22.686 Y11.298
X22.786 Y11.419
X22.889 Y11.536
X22.996 Y11.65
X23.107 Y11.76
X23.221 Y11.868
X23.338 Y11.971
X23.459 Y12.071
X23.582 Y12.167
X23.709 Y12.259
X23.838 Y12.347
X23.969 Y12.43
X24.103 Y12.51
X24.24 Y12.585
X24.378 Y12.656
X24.519 Y12.722
X24.662 Y12.784
X24.807 Y12.842
X24.954 Y12.895
X25.102 Y12.943
X25.252 Y12.987
X25.404 Y13.026
X25.557 Y13.061
X25.71 Y13.09
X25.865 Y13.115
X26.021 Y13.135
X26.177 Y13.15
X26.333 Y13.16
X26.49 Y13.166
X26.647
X26.804 Y13.161
X26.96 Y13.152
X27.116 Y13.138
X27.272 Y13.118
X27.426 Y13.094
X27.581 Y13.065
X27.734 Y13.031
X27.886 Y12.993
X28.038 Y12.949
X28.188 Y12.901
X28.337 Y12.848
X28.484 Y12.79
X28.63 Y12.728
X28.774 Y12.66
X28.916 Y12.589
X29.055 Y12.513
X29.193 Y12.432
X29.327 Y12.347
X29.459 Y12.258
X29.589 Y12.165
X29.715 Y12.068
X29.839 Y11.966
X29.959 Y11.861
X30.076 Y11.752
X30.189 Y11.64
X30.299 Y11.524
X30.406 Y11.404
X30.508 Y11.281
X30.607 Y11.155
X30.702 Y11.026
X30.792 Y10.894
X30.879 Y10.759
X30.961 Y10.621
X31.039 Y10.481
X31.113 Y10.338
X31.182 Y10.194
X31.246 Y10.047
X31.306 Y9.898
X31.361 Y9.747
X31.412 Y9.595
X31.457 Y9.442
X31.498 Y9.287
X31.534 Y9.131
X31.565 Y8.974
X31.59 Y8.816
X31.611 Y8.657
X31.627 Y8.498
X31.638 Y8.338
X31.644 Y8.178
X31.645 Y8.018
X31.641 Y7.858
X31.632 Y7.698
X31.618 Y7.539
X31.599 Y7.38
X31.575 Y7.223
X31.547 Y7.066
X31.513 Y6.91
X31.474 Y6.756
X31.431 Y6.603
X31.383 Y6.451
X31.33 Y6.302
X31.273 Y6.154
X31.211 Y6.007
X31.144 Y5.863
X31.073 Y5.721
X30.998 Y5.581
X30.918 Y5.444
X30.834 Y5.309
X30.745 Y5.177
X30.653 Y5.047
X30.556 Y4.92
X30.455 Y4.796
X30.351 Y4.676
X30.242 Y4.559
X30.13 Y4.445
X30.015 Y4.334
X29.896 Y4.228
X29.773 Y4.125
X29.648 Y4.026
X29.52 Y3.931
X29.388 Y3.84
X29.254 Y3.753
X29.118 Y3.671
X28.979 Y3.593
X28.837 Y3.519
X28.693 Y3.45
X28.547 Y3.385
X28.464 Y3.351
X28.355 Y3.312
X28.244 Y3.282
X28.13 Y3.262
X27.41 Y3.163
X26.907 Y3.107
X26.74 Y3.096
X25.902
X25.74 Y3.105
X25.591 Y3.117
X25.442 Y3.136
X25.294 Y3.163
X25.148 Y3.195
X25.003 Y3.232
X24.859 Y3.275
X24.717 Y3.323
X24.577 Y3.376
X24.438 Y3.433
X24.3 Y3.495
X24.162 Y3.563
X24.024 Y3.635
X23.888 Y3.712
X23.754 Y3.794
X23.621 Y3.881
X23.491 Y3.972
X23.363 Y4.068
X23.238 Y4.168
X23.115 Y4.272
X22.996 Y4.38
X22.88 Y4.492
X22.767 Y4.608
X22.657 Y4.728
X22.552 Y4.851
X22.45 Y4.978
X22.351 Y5.107
X22.257 Y5.24
X22.167 Y5.376
X22.082 Y5.515
X22 Y5.657
X21.923 Y5.801
X21.851 Y5.948
X21.783 Y6.096
X21.72 Y6.247
X21.662 Y6.4
X21.608 Y6.554
X21.56 Y6.71
X21.516 Y6.868
X21.477 Y7.026
X21.444 Y7.186
X21.415 Y7.347
X21.391 Y7.509
X21.373 Y7.671
X21.359 Y7.834
X21.351 Y7.997
X21.347 Y8.161
X21.349 Y8.325
X21.356 Y8.488
X21.368 Y8.652
X21.385 Y8.815
X21.408 Y8.977
X21.435 Y9.139
X21.468 Y9.3
X21.505 Y9.459
X21.548 Y9.618
X21.595 Y9.774
X21.647 Y9.929
X21.704 Y10.083
X21.766 Y10.234
X21.832 Y10.384
X21.904 Y10.531
X21.979 Y10.676
X22.059 Y10.819
X22.144 Y10.959
X22.233 Y11.096
X22.327 Y11.231
X22.424 Y11.362
X22.526 Y11.491
X22.632 Y11.616
X22.741 Y11.738
X22.855 Y11.857
X22.972 Y11.972
X23.092 Y12.083
X23.216 Y12.19
X23.344 Y12.293
X23.474 Y12.393
X23.607 Y12.488
X23.743 Y12.579
X23.882 Y12.665
X24.024 Y12.747
X24.168 Y12.825
X24.314 Y12.898
X24.463 Y12.966
X24.614 Y13.03
X24.767 Y13.089
X24.921 Y13.143
X25.078 Y13.193
X25.111 Y13.202
X25.234 Y13.231
X25.36 Y13.248
X25.487 Y13.254
X26.07
X26.237 Y13.255
X26.74 Y13.293
X26.79 Y13.3
X26.94 Y13.312
X27.09 Y13.318
X27.24 Y13.316
X27.389 Y13.305
X27.538 Y13.289
X27.687 Y13.266
X27.834 Y13.237
X27.98 Y13.203
X28.125 Y13.164
X28.268 Y13.121
X28.411 Y13.072
X28.555 Y13.018
X28.699 Y12.959
X28.843 Y12.894
X28.986 Y12.825
X29.129 Y12.75
X29.27 Y12.67
X29.409 Y12.585
X29.546 Y12.495
X29.681 Y12.401
X29.813 Y12.303
X29.943 Y12.2
X30.069 Y12.092
X30.193 Y11.981
X30.313 Y11.865
X30.429 Y11.746
X30.542 Y11.623
X30.651 Y11.496
X30.756 Y11.366
X30.857 Y11.232
X30.954 Y11.095
X31.047 Y10.956
X31.135 Y10.813
X31.219 Y10.667
X31.298 Y10.519
X31.373 Y10.369
X31.443 Y10.216
X31.508 Y10.061
X31.568 Y9.904
X31.623 Y9.746
X31.673 Y9.585
X31.718 Y9.424
X31.758 Y9.261
X31.793 Y9.096
X31.823 Y8.931
X31.847 Y8.765
X31.866 Y8.599
X31.88 Y8.431
X31.889 Y8.264
X31.893 Y8.096
X31.891 Y7.928
X31.884 Y7.761
X31.872 Y7.594
X31.854 Y7.427
X31.832 Y7.262
X31.804 Y7.097
X31.771 Y6.933
X31.733 Y6.771
X31.69 Y6.609
X31.642 Y6.45
X31.589 Y6.292
X31.531 Y6.135
X31.468 Y5.981
X31.401 Y5.829
X31.328 Y5.678
X31.251 Y5.53
X31.17 Y5.385
X31.083 Y5.242
X30.993 Y5.102
X30.898 Y4.964
X30.798 Y4.83
X30.695 Y4.699
X30.587 Y4.571
X30.475 Y4.446
X30.36 Y4.325
X30.24 Y4.208
X30.117 Y4.094
X29.991 Y3.984
X29.861 Y3.879
X29.728 Y3.777
X29.592 Y3.68
X29.453 Y3.587
X29.41 Y3.56
X29.238 Y3.469
X29.055 Y3.403
X28.865 Y3.363
X28.13 Y3.262
G2 X27.886 Y3.331 I-0.043 J0.315
G1 X27.837 Y3.364
X27.784 Y3.387
X27.727 Y3.401
X27.669 Y3.403
X27.379 Y3.389
X26.803 Y3.362
X26.752 Y3.355
X26.702 Y3.34
X26.656 Y3.318
G2 X25.902 Y3.096 I-0.809 J1.36
G1 X25.14
X24.991 Y3.104
X24.842 Y3.121
X24.694 Y3.149
X24.549 Y3.186
X24.406 Y3.231
X24.265 Y3.282
X24.126 Y3.339
X23.99 Y3.402
X23.856 Y3.47
X23.725 Y3.542
X23.596 Y3.619
X23.469 Y3.7
X23.343 Y3.786
X23.217 Y3.879
X23.092 Y3.976
X22.968 Y4.079
X22.847 Y4.187
X22.728 Y4.3
X22.611 Y4.417
X22.498 Y4.539
X22.388 Y4.664
X22.281 Y4.794
X22.178 Y4.927
X22.079 Y5.064
X21.985 Y5.205
X21.894 Y5.348
X21.808 Y5.495
X21.726 Y5.644
X21.649 Y5.796
X21.577 Y5.951
X21.51 Y6.108
X21.447 Y6.266
X21.39 Y6.427
X21.337 Y6.59
X21.29 Y6.754
X21.248 Y6.92
X21.211 Y7.087
X21.179 Y7.255
X21.153 Y7.424
X21.131 Y7.594
X21.115 Y7.764
X21.105 Y7.935
X21.1 Y8.107
Y8.278
X21.106 Y8.45
X21.117 Y8.621
X21.133 Y8.792
X21.155 Y8.962
X21.182 Y9.131
X21.214 Y9.3
X21.252 Y9.467
X21.294 Y9.633
X21.342 Y9.798
X21.395 Y9.961
X21.454 Y10.122
X21.517 Y10.282
X21.585 Y10.439
X21.658 Y10.594
X21.736 Y10.747
X21.818 Y10.897
X21.906 Y11.045
X21.998 Y11.19
X22.094 Y11.332
X22.195 Y11.471
X22.3 Y11.606
X22.41 Y11.739
X22.523 Y11.867
X22.641 Y11.993
X22.762 Y12.114
X22.887 Y12.232
X23.016 Y12.345
X23.148 Y12.455
X23.283 Y12.56
X23.422 Y12.661
X23.564 Y12.758
X23.708 Y12.85
X23.856 Y12.937
X24.006 Y13.02
X24.159 Y13.098
X24.208 Y13.121
X24.398 Y13.195
X24.597 Y13.239
X24.8 Y13.254
X25.487
G2 X25.793 Y12.925 I-0.011 J-0.317
G1 X25.783 Y12.639
X25.458 Y3.711
X25.447 Y3.402
G2 X25.14 Y3.096 I-0.317 J0.012
G1 X24.597
X24.447 Y3.104
X24.298 Y3.123
X24.152 Y3.155
X24.008 Y3.198
X23.867 Y3.251
X23.73 Y3.31
X23.595 Y3.376
X23.463 Y3.447
X23.334 Y3.524
X23.208 Y3.605
X23.084 Y3.69
X22.964 Y3.78
X22.844 Y3.875
X22.725 Y3.976
X22.607 Y4.082
X22.491 Y4.194
X22.377 Y4.311
X22.264 Y4.434
X22.154 Y4.561
X22.047 Y4.694
X21.943 Y4.831
X21.842 Y4.972
X21.746 Y5.118
X21.653 Y5.267
X21.566 Y5.419
X21.482 Y5.574
X21.403 Y5.733
X21.33 Y5.894
X21.261 Y6.058
X21.197 Y6.224
X21.138 Y6.392
X21.085 Y6.562
X21.037 Y6.734
X20.994 Y6.907
X20.957 Y7.082
X20.925 Y7.258
X20.899 Y7.435
X20.878 Y7.612
X20.863 Y7.791
X20.853 Y7.97
X20.849 Y8.149
X20.851 Y8.328
X20.858 Y8.507
X20.871 Y8.686
X20.89 Y8.864
X20.914 Y9.042
X20.943 Y9.219
X20.979 Y9.395
X21.019 Y9.569
X21.065 Y9.743
X21.117 Y9.914
X21.174 Y10.084
X21.236 Y10.253
X21.303 Y10.419
X21.376 Y10.583
X21.453 Y10.744
X21.536 Y10.904
X21.624 Y11.06
X21.716 Y11.214
X21.814 Y11.364
X21.916 Y11.512
X22.022 Y11.657
X22.133 Y11.798
X22.249 Y11.935
X22.368 Y12.069
X22.492 Y12.199
X22.62 Y12.325
X22.752 Y12.447
X22.887 Y12.564
X23.026 Y12.678
X23.169 Y12.787
X23.315 Y12.891
X23.461 Y12.989
X23.588 Y13.069
X23.62 Y13.087
X23.871 Y13.199
X24.139 Y13.26
X24.414 Y13.266
X24.563 Y13.255
X24.8 Y13.254
G2 X25.107 Y12.93 I-0.011 J-0.317
G1 X25.101 Y12.639
X24.909 Y3.711
X24.903 Y3.407
G2 X24.597 Y3.096 I-0.317 J0.007
G1 X24.094
X23.944 Y3.104
X23.797 Y3.13
X23.652 Y3.17
X23.511 Y3.221
X23.373 Y3.281
X23.239 Y3.348
X23.108 Y3.421
X22.981 Y3.5
X22.857 Y3.584
X22.736 Y3.673
X22.618 Y3.766
X22.503 Y3.862
X22.391 Y3.963
X22.278 Y4.07
X22.166 Y4.185
X22.054 Y4.306
X21.944 Y4.433
X21.836 Y4.566
X21.731 Y4.704
X21.629 Y4.847
X21.53 Y4.994
X21.436 Y5.146
X21.345 Y5.302
X21.259 Y5.462
X21.178 Y5.625
X21.101 Y5.791
X21.03 Y5.96
X20.963 Y6.132
X20.902 Y6.306
X20.846 Y6.483
X20.796 Y6.661
X20.751 Y6.841
X20.712 Y7.023
X20.678 Y7.206
X20.65 Y7.39
X20.628 Y7.575
X20.612 Y7.761
X20.602 Y7.948
X20.597 Y8.135
X20.598 Y8.322
X20.605 Y8.508
X20.618 Y8.695
X20.637 Y8.881
X20.662 Y9.067
X20.692 Y9.251
X20.729 Y9.435
X20.771 Y9.617
X20.818 Y9.798
X20.872 Y9.978
X20.931 Y10.155
X20.995 Y10.331
X21.065 Y10.505
X21.14 Y10.676
X21.221 Y10.845
X21.307 Y11.011
X21.398 Y11.175
X21.494 Y11.336
X21.596 Y11.493
X21.702 Y11.648
X21.813 Y11.799
X21.928 Y11.946
X22.049 Y12.09
X22.173 Y12.23
X22.302 Y12.366
X22.435 Y12.498
X22.572 Y12.625
X22.713 Y12.748
X22.853 Y12.863
X22.972 Y12.954
X23.094 Y13.041
X23.174 Y13.093
X23.451 Y13.229
X23.752 Y13.297
X24.06 Y13.293
X24.414 Y13.266
G2 X24.697 Y12.941 I-0.035 J-0.316
G1 X24.687 Y12.629
X24.41 Y3.711
X24.4 Y3.404
G2 X24.094 Y3.096 I-0.317 J0.01
G1 X24.06
X23.893 Y3.107
X23.507 Y3.15
X23.359 Y3.174
X23.214 Y3.21
X23.073 Y3.261
X22.936 Y3.323
X22.803 Y3.394
X22.675 Y3.471
X22.55 Y3.554
X22.429 Y3.643
X22.312 Y3.737
X22.198 Y3.834
X22.088 Y3.936
X21.981 Y4.042
X21.873 Y4.155
X21.765 Y4.275
X21.658 Y4.402
X21.554 Y4.534
X21.452 Y4.672
X21.353 Y4.815
X21.256 Y4.965
X21.162 Y5.12
X21.073 Y5.28
X20.987 Y5.444
X20.906 Y5.612
X20.83 Y5.784
X20.759 Y5.96
X20.693 Y6.138
X20.632 Y6.319
X20.577 Y6.503
X20.527 Y6.689
X20.483 Y6.876
X20.445 Y7.066
X20.413 Y7.257
X20.387 Y7.449
X20.367 Y7.642
X20.353 Y7.835
X20.345 Y8.03
X20.343 Y8.224
X20.347 Y8.419
X20.357 Y8.613
X20.374 Y8.807
X20.396 Y9.001
X20.425 Y9.194
X20.459 Y9.386
X20.5 Y9.577
X20.546 Y9.766
X20.599 Y9.954
X20.657 Y10.14
X20.721 Y10.324
X20.791 Y10.507
X20.867 Y10.687
X20.948 Y10.864
X21.034 Y11.039
X21.127 Y11.211
X21.224 Y11.38
X21.327 Y11.547
X21.435 Y11.709
X21.548 Y11.869
X21.666 Y12.024
X21.788 Y12.176
X21.916 Y12.324
X22.048 Y12.468
X22.183 Y12.607
X22.313 Y12.732
X22.436 Y12.843
X22.55 Y12.94
X22.668 Y13.032
X22.797 Y13.123
X23.016 Y13.239
X23.252 Y13.315
X23.497 Y13.347
X23.745 Y13.336
X24.026 Y13.298
X24.06 Y13.293
G2 X24.325 Y12.964 I-0.052 J-0.313
G1 X24.309 Y12.642
X23.863 Y3.728
X23.849 Y3.45
G2 X23.507 Y3.15 I-0.317 J0.016
G1 X23.39 Y3.163
X23.005 Y3.216
X22.857 Y3.244
X22.714 Y3.289
X22.576 Y3.348
X22.443 Y3.417
X22.315 Y3.495
X22.191 Y3.579
X22.072 Y3.67
X21.956 Y3.766
X21.845 Y3.866
X21.737 Y3.97
X21.632 Y4.078
X21.531 Y4.189
X21.43 Y4.308
X21.329 Y4.435
X21.228 Y4.57
X21.129 Y4.711
X21.032 Y4.859
X20.938 Y5.014
X20.847 Y5.173
X20.761 Y5.338
X20.678 Y5.507
X20.6 Y5.68
X20.527 Y5.858
X20.459 Y6.039
X20.396 Y6.224
X20.338 Y6.413
X20.286 Y6.604
X20.24 Y6.797
X20.199 Y6.993
X20.165 Y7.19
X20.137 Y7.389
X20.115 Y7.589
X20.099 Y7.79
X20.09 Y7.992
X20.087 Y8.194
X20.09 Y8.396
X20.1 Y8.598
X20.116 Y8.8
X20.138 Y9.002
X20.167 Y9.202
X20.201 Y9.402
X20.243 Y9.601
X20.29 Y9.798
X20.343 Y9.994
X20.403 Y10.188
X20.469 Y10.381
X20.541 Y10.571
X20.618 Y10.758
X20.702 Y10.944
X20.791 Y11.126
X20.886 Y11.306
X20.987 Y11.483
X21.093 Y11.656
X21.204 Y11.826
X21.321 Y11.993
X21.443 Y12.155
X21.569 Y12.314
X21.699 Y12.466
X21.827 Y12.607
X21.946 Y12.73
X22.057 Y12.839
X22.168 Y12.94
X22.283 Y13.036
X22.402 Y13.128
X22.433 Y13.149
X22.665 Y13.279
X22.918 Y13.363
X23.182 Y13.396
X23.447 Y13.379
X23.558 Y13.361
X23.745 Y13.336
G2 X24.007 Y13.001 I-0.054 J-0.313
G1 X23.985 Y12.682
X23.373 Y3.786
X23.354 Y3.51
G2 X23.005 Y3.216 I-0.317 J0.022
G1 X22.587 Y3.273
X22.44 Y3.301
X22.297 Y3.349
X22.161 Y3.412
X22.03 Y3.485
X21.905 Y3.567
X21.784 Y3.656
X21.668 Y3.751
X21.556 Y3.851
X21.448 Y3.955
X21.344 Y4.063
X21.244 Y4.175
X21.146 Y4.292
X21.049 Y4.415
X20.954 Y4.545
X20.859 Y4.682
X20.765 Y4.827
X20.673 Y4.98
X20.584 Y5.14
X20.498 Y5.306
X20.416 Y5.477
X20.338 Y5.654
X20.264 Y5.836
X20.196 Y6.022
X20.132 Y6.212
X20.075 Y6.406
X20.023 Y6.602
X19.976 Y6.802
X19.936 Y7.003
X19.902 Y7.207
X19.875 Y7.412
X19.854 Y7.619
X19.839 Y7.827
X19.831 Y8.036
X19.829 Y8.245
X19.834 Y8.455
X19.845 Y8.664
X19.863 Y8.874
X19.888 Y9.083
X19.919 Y9.291
X19.957 Y9.498
X20.001 Y9.705
X20.052 Y9.909
X20.109 Y10.113
X20.172 Y10.314
X20.242 Y10.513
X20.318 Y10.71
X20.4 Y10.905
X20.488 Y11.097
X20.582 Y11.286
X20.682 Y11.472
X20.788 Y11.655
X20.9 Y11.835
X21.016 Y12.01
X21.138 Y12.18
X21.26 Y12.341
X21.382 Y12.492
X21.502 Y12.63
X21.615 Y12.753
X21.722 Y12.863
X21.831 Y12.967
X21.944 Y13.066
X22.061 Y13.159
X22.101 Y13.188
X22.34 Y13.327
X22.603 Y13.416
X22.877 Y13.451
X23.153 Y13.43
X23.422 Y13.383
X23.447 Y13.379
G2 X23.702 Y13.042 I-0.062 J-0.311
G1 X23.676 Y12.72
X22.958 Y3.843
X22.936 Y3.564
G2 X22.587 Y3.273 I-0.316 J0.026
G1 X22.218 Y3.324
X22.071 Y3.352
X21.928 Y3.399
X21.793 Y3.463
X21.663 Y3.538
X21.539 Y3.622
X21.42 Y3.714
X21.305 Y3.811
X21.196 Y3.913
X21.091 Y4.02
X20.99 Y4.131
X20.892 Y4.245
X20.799 Y4.363
X20.707 Y4.487
X20.615 Y4.62
X20.523 Y4.762
X20.432 Y4.912
X20.343 Y5.07
X20.257 Y5.234
X20.175 Y5.404
X20.097 Y5.579
X20.023 Y5.76
X19.953 Y5.946
X19.889 Y6.138
X19.829 Y6.335
X19.775 Y6.535
X19.727 Y6.739
X19.685 Y6.946
X19.65 Y7.155
X19.621 Y7.366
X19.598 Y7.58
X19.582 Y7.794
X19.573 Y8.01
X19.57 Y8.227
X19.574 Y8.443
X19.585 Y8.661
X19.603 Y8.878
X19.628 Y9.094
X19.659 Y9.31
X19.698 Y9.525
X19.743 Y9.739
X19.795 Y9.952
X19.853 Y10.163
X19.918 Y10.372
X19.99 Y10.579
X20.068 Y10.784
X20.152 Y10.987
X20.243 Y11.186
X20.34 Y11.383
X20.443 Y11.576
X20.552 Y11.766
X20.666 Y11.951
X20.783 Y12.128
X20.903 Y12.298
X21.023 Y12.457
X21.139 Y12.602
X21.248 Y12.728
X21.349 Y12.84
X21.454 Y12.947
X21.562 Y13.051
X21.676 Y13.149
X21.794 Y13.242
X21.827 Y13.265
X22.078 Y13.402
X22.351 Y13.486
X22.636 Y13.511
X22.92 Y13.478
X23.055 Y13.447
X23.153 Y13.43
G2 X23.404 Y13.092 I-0.066 J-0.311
G1 X23.375 Y12.768
X22.591 Y3.893
X22.567 Y3.612
G2 X22.218 Y3.324 I-0.316 J0.028
G1 X21.855 Y3.374
X21.708 Y3.402
X21.566 Y3.451
X21.431 Y3.517
X21.303 Y3.594
X21.18 Y3.681
X21.063 Y3.775
X20.951 Y3.874
X20.844 Y3.979
X20.742 Y4.089
X20.643 Y4.202
X20.549 Y4.319
X20.459 Y4.439
X20.37 Y4.566
X20.28 Y4.702
X20.191 Y4.847
X20.103 Y5
X20.018 Y5.161
X19.936 Y5.327
X19.858 Y5.499
X19.784 Y5.679
X19.713 Y5.865
X19.647 Y6.058
X19.586 Y6.256
X19.53 Y6.459
X19.48 Y6.666
X19.436 Y6.877
X19.398 Y7.091
X19.367 Y7.307
X19.343 Y7.526
X19.325 Y7.747
X19.314 Y7.969
X19.31 Y8.192
X19.313 Y8.416
X19.323 Y8.641
X19.34 Y8.865
X19.364 Y9.089
X19.396 Y9.313
X19.434 Y9.536
X19.479 Y9.758
X19.532 Y9.978
X19.591 Y10.197
X19.657 Y10.414
X19.73 Y10.629
X19.81 Y10.842
X19.896 Y11.052
X19.989 Y11.26
X20.088 Y11.464
X20.193 Y11.663
X20.303 Y11.857
X20.417 Y12.045
X20.533 Y12.223
X20.65 Y12.391
X20.764 Y12.544
X20.874 Y12.682
X20.972 Y12.798
X21.073 Y12.909
X21.177 Y13.017
X21.285 Y13.122
X21.398 Y13.219
X21.516 Y13.312
X21.643 Y13.399
X21.894 Y13.513
X22.164 Y13.575
X22.44 Y13.582
X22.712 Y13.534
X22.888 Y13.485
X22.92 Y13.478
G2 X23.155 Y13.139 I-0.08 J-0.307
G1 X23.122 Y12.805
X22.232 Y3.943
X22.203 Y3.658
G2 X21.855 Y3.374 I-0.316 J0.032
G1 X21.52 Y3.42
X21.373 Y3.448
X21.231 Y3.496
X21.097 Y3.563
X20.969 Y3.641
X20.847 Y3.729
X20.731 Y3.824
X20.621 Y3.926
X20.515 Y4.032
X20.414 Y4.143
X20.318 Y4.258
X20.226 Y4.377
X20.138 Y4.498
X20.051 Y4.627
X19.964 Y4.765
X19.878 Y4.912
X19.794 Y5.064
X19.713 Y5.223
X19.635 Y5.391
X19.559 Y5.568
X19.486 Y5.752
X19.418 Y5.944
X19.354 Y6.142
X19.295 Y6.345
X19.242 Y6.554
X19.195 Y6.767
X19.153 Y6.984
X19.119 Y7.205
X19.091 Y7.428
X19.07 Y7.654
X19.056 Y7.881
X19.049 Y8.11
Y8.341
X19.057 Y8.572
X19.071 Y8.803
X19.093 Y9.034
X19.123 Y9.266
X19.159 Y9.496
X19.203 Y9.726
X19.255 Y9.954
X19.313 Y10.182
X19.379 Y10.407
X19.451 Y10.63
X19.531 Y10.851
X19.617 Y11.07
X19.71 Y11.284
X19.809 Y11.495
X19.914 Y11.7
X20.022 Y11.898
X20.134 Y12.087
X20.248 Y12.266
X20.36 Y12.431
X20.471 Y12.585
X20.579 Y12.724
X20.675 Y12.84
X20.774 Y12.953
X20.877 Y13.062
X20.984 Y13.167
X21.094 Y13.269
X21.211 Y13.363
X21.335 Y13.451
X21.593 Y13.577
X21.872 Y13.647
X22.16 Y13.658
X22.443 Y13.609
X22.712 Y13.534
G2 X22.931 Y13.196 I-0.096 J-0.303
G1 X22.893 Y12.849
X21.9 Y3.988
X21.868 Y3.7
G2 X21.52 Y3.42 I-0.316 J0.035
G1 X21.213 Y3.462
X21.127 Y3.478
X20.981 Y3.513
X20.843 Y3.57
X20.712 Y3.643
X20.587 Y3.727
X20.469 Y3.82
X20.357 Y3.919
X20.25 Y4.025
X20.149 Y4.135
X20.052 Y4.249
X19.959 Y4.367
X19.871 Y4.488
X19.786 Y4.612
X19.704 Y4.742
X19.621 Y4.883
X19.539 Y5.033
X19.458 Y5.193
X19.378 Y5.361
X19.302 Y5.538
X19.231 Y5.719
X19.163 Y5.907
X19.099 Y6.104
X19.04 Y6.308
X18.986 Y6.519
X18.937 Y6.734
X18.895 Y6.955
X18.86 Y7.179
X18.831 Y7.407
X18.809 Y7.638
X18.794 Y7.872
X18.787 Y8.107
Y8.344
X18.794 Y8.581
X18.809 Y8.82
X18.831 Y9.058
X18.861 Y9.297
X18.899 Y9.535
X18.944 Y9.772
X18.996 Y10.008
X19.056 Y10.243
X19.123 Y10.475
X19.198 Y10.706
X19.28 Y10.934
X19.368 Y11.158
X19.463 Y11.378
X19.563 Y11.592
X19.668 Y11.799
X19.777 Y11.998
X19.888 Y12.187
X20.001 Y12.365
X20.109 Y12.525
X20.215 Y12.672
X20.32 Y12.807
X20.423 Y12.932
X20.522 Y13.045
X20.624 Y13.154
X20.731 Y13.259
X20.843 Y13.359
X20.961 Y13.452
X21.087 Y13.541
X21.342 Y13.66
X21.616 Y13.725
X21.897 Y13.733
X22.174 Y13.685
X22.443 Y13.609
G2 X22.662 Y13.268 I-0.096 J-0.303
G1 X22.62 Y12.925
X21.523 Y4.03
X21.489 Y3.753
G2 X21.127 Y3.478 I-0.315 J0.039
G1 X21.046 Y3.493
X20.786 Y3.545
X20.641 Y3.582
X20.502 Y3.639
X20.371 Y3.712
X20.248 Y3.798
X20.131 Y3.892
X20.02 Y3.993
X19.915 Y4.1
X19.816 Y4.212
X19.721 Y4.328
X19.63 Y4.448
X19.544 Y4.571
X19.463 Y4.697
X19.381 Y4.832
X19.3 Y4.977
X19.219 Y5.131
X19.142 Y5.291
X19.068 Y5.458
X18.995 Y5.635
X18.926 Y5.822
X18.86 Y6.018
X18.799 Y6.221
X18.743 Y6.431
X18.692 Y6.647
X18.647 Y6.869
X18.609 Y7.096
X18.577 Y7.327
X18.552 Y7.562
X18.535 Y7.799
X18.525 Y8.039
X18.522 Y8.28
X18.527 Y8.524
X18.54 Y8.768
X18.56 Y9.013
X18.588 Y9.258
X18.624 Y9.503
X18.668 Y9.748
X18.719 Y9.991
X18.779 Y10.234
X18.845 Y10.474
X18.92 Y10.713
X19.001 Y10.948
X19.09 Y11.179
X19.184 Y11.405
X19.284 Y11.623
X19.388 Y11.834
X19.494 Y12.034
X19.603 Y12.223
X19.713 Y12.401
X19.823 Y12.568
X19.931 Y12.72
X20.034 Y12.856
X20.131 Y12.977
X20.229 Y13.091
X20.331 Y13.201
X20.437 Y13.308
X20.546 Y13.41
X20.662 Y13.505
X20.789 Y13.596
X21.052 Y13.727
X21.337 Y13.799
X21.63 Y13.809
X21.919 Y13.758
X22.149 Y13.692
X22.174 Y13.685
G2 X22.392 Y13.342 I-0.097 J-0.302
G1 X22.348 Y13.001
X21.188 Y4.091
X21.153 Y3.818
G2 X20.786 Y3.545 I-0.315 J0.041
G1 X20.711 Y3.561
X20.543 Y3.598
X20.376 Y3.645
X20.234 Y3.693
X20.098 Y3.757
X19.971 Y3.837
X19.852 Y3.927
X19.739 Y4.026
X19.633 Y4.132
X19.532 Y4.243
X19.437 Y4.359
X19.346 Y4.479
X19.26 Y4.602
X19.179 Y4.728
X19.101 Y4.857
X19.025 Y4.993
X18.949 Y5.14
X18.873 Y5.299
X18.798 Y5.468
X18.726 Y5.647
X18.657 Y5.833
X18.593 Y6.025
X18.533 Y6.226
X18.477 Y6.435
X18.427 Y6.652
X18.382 Y6.876
X18.344 Y7.106
X18.312 Y7.34
X18.287 Y7.579
X18.27 Y7.821
X18.26 Y8.067
X18.258 Y8.314
X18.264 Y8.564
X18.277 Y8.815
X18.299 Y9.067
X18.328 Y9.319
X18.366 Y9.571
X18.411 Y9.822
X18.465 Y10.073
X18.526 Y10.322
X18.595 Y10.569
X18.672 Y10.813
X18.756 Y11.052
X18.846 Y11.287
X18.942 Y11.514
X19.042 Y11.734
X19.147 Y11.945
X19.255 Y12.146
X19.365 Y12.337
X19.474 Y12.512
X19.58 Y12.671
X19.683 Y12.817
X19.785 Y12.951
X19.885 Y13.074
X19.983 Y13.188
X20.085 Y13.298
X20.191 Y13.404
X20.302 Y13.505
X20.42 Y13.598
X20.542 Y13.685
X20.55 Y13.69
X20.81 Y13.813
X21.089 Y13.879
X21.376 Y13.886
X21.659 Y13.834
X21.919 Y13.758
G2 X22.134 Y13.411 I-0.099 J-0.302
G1 X22.085 Y13.073
X20.802 Y4.162
X20.765 Y3.908
G2 X20.376 Y3.645 I-0.314 J0.045
G1 X20.013 Y3.747
X19.871 Y3.794
X19.737 Y3.861
X19.612 Y3.944
X19.495 Y4.038
X19.384 Y4.14
X19.281 Y4.248
X19.183 Y4.362
X19.09 Y4.48
X19.003 Y4.602
X18.92 Y4.727
X18.842 Y4.855
X18.767 Y4.986
X18.692 Y5.129
X18.617 Y5.283
X18.543 Y5.447
X18.473 Y5.619
X18.406 Y5.796
X18.342 Y5.985
X18.281 Y6.184
X18.224 Y6.392
X18.173 Y6.609
X18.126 Y6.833
X18.086 Y7.064
X18.053 Y7.301
X18.027 Y7.542
X18.008 Y7.788
X17.996 Y8.037
X17.992 Y8.289
X17.997 Y8.544
X18.009 Y8.8
X18.029 Y9.057
X18.058 Y9.315
X18.095 Y9.573
X18.14 Y9.831
X18.194 Y10.089
X18.255 Y10.344
X18.324 Y10.598
X18.401 Y10.848
X18.485 Y11.093
X18.575 Y11.331
X18.671 Y11.562
X18.772 Y11.785
X18.876 Y11.998
X18.983 Y12.2
X19.091 Y12.39
X19.2 Y12.567
X19.308 Y12.733
X19.413 Y12.882
X19.513 Y13.015
X19.607 Y13.133
X19.705 Y13.247
X19.806 Y13.358
X19.911 Y13.464
X20.021 Y13.567
X20.137 Y13.662
X20.265 Y13.753
X20.528 Y13.883
X20.813 Y13.954
X21.107 Y13.964
X21.396 Y13.911
X21.659 Y13.834
G2 X21.872 Y13.484 I-0.1 J-0.301
G1 X21.82 Y13.149
X20.442 Y4.263
X20.402 Y4.007
G2 X20.013 Y3.747 I-0.314 J0.049
G1 X19.678 Y3.841
X19.536 Y3.888
X19.402 Y3.956
X19.278 Y4.04
X19.162 Y4.135
X19.053 Y4.239
X18.951 Y4.349
X18.855 Y4.464
X18.765 Y4.583
X18.679 Y4.707
X18.599 Y4.833
X18.523 Y4.962
X18.45 Y5.097
X18.377 Y5.242
X18.304 Y5.397
X18.236 Y5.557
X18.169 Y5.729
X18.104 Y5.912
X18.041 Y6.106
X17.983 Y6.311
X17.929 Y6.525
X17.88 Y6.747
X17.837 Y6.976
X17.801 Y7.21
X17.772 Y7.449
X17.749 Y7.693
X17.734 Y7.944
X17.727 Y8.199
X17.728 Y8.457
X17.737 Y8.718
X17.755 Y8.981
X17.78 Y9.245
X17.815 Y9.51
X17.857 Y9.775
X17.909 Y10.039
X17.968 Y10.302
X18.035 Y10.562
X18.111 Y10.818
X18.193 Y11.07
X18.282 Y11.316
X18.377 Y11.554
X18.477 Y11.784
X18.581 Y12.003
X18.686 Y12.208
X18.793 Y12.401
X18.9 Y12.582
X19.006 Y12.749
X19.111 Y12.902
X19.211 Y13.04
X19.309 Y13.166
X19.405 Y13.281
X19.505 Y13.393
X19.608 Y13.502
X19.716 Y13.606
X19.83 Y13.703
X19.95 Y13.794
X20.074 Y13.878
X20.088 Y13.885
X20.356 Y13.998
X20.641 Y14.051
X20.931 Y14.042
X21.213 Y13.973
X21.381 Y13.916
X21.396 Y13.911
G2 X21.61 Y13.559 I-0.1 J-0.301
G1 X21.555 Y13.226
X20.109 Y4.357
X20.067 Y4.098
G2 X19.678 Y3.841 I-0.313 J0.051
G1 X19.331 Y3.938
X19.188 Y3.986
X19.057 Y4.058
X18.935 Y4.146
X18.822 Y4.244
X18.716 Y4.35
X18.616 Y4.462
X18.523 Y4.579
X18.435 Y4.701
X18.352 Y4.826
X18.274 Y4.954
X18.2 Y5.085
X18.13 Y5.221
X18.059 Y5.369
X17.989 Y5.528
X17.923 Y5.693
X17.858 Y5.868
X17.796 Y6.055
X17.736 Y6.254
X17.681 Y6.464
X17.631 Y6.681
X17.586 Y6.908
X17.547 Y7.142
X17.515 Y7.381
X17.49 Y7.625
X17.473 Y7.874
X17.463 Y8.13
X17.461 Y8.391
X17.467 Y8.655
X17.482 Y8.923
X17.505 Y9.192
X17.537 Y9.463
X17.578 Y9.734
X17.627 Y10.005
X17.685 Y10.274
X17.751 Y10.541
X17.825 Y10.804
X17.906 Y11.062
X17.995 Y11.314
X18.089 Y11.559
X18.189 Y11.794
X18.291 Y12.016
X18.394 Y12.224
X18.5 Y12.42
X18.607 Y12.605
X18.714 Y12.776
X18.819 Y12.935
X18.921 Y13.078
X19.02 Y13.207
X19.114 Y13.324
X19.212 Y13.437
X19.315 Y13.547
X19.421 Y13.652
X19.532 Y13.753
X19.649 Y13.847
X19.78 Y13.937
X20.061 Y14.069
X20.365 Y14.135
X20.676 Y14.131
X20.979 Y14.058
X21.213 Y13.973
G2 X21.407 Y13.622 I-0.119 J-0.294
G1 X21.345 Y13.276
X19.765 Y4.454
X19.718 Y4.191
G2 X19.331 Y3.938 I-0.313 J0.056
G1 X19.036 Y4.021
X18.894 Y4.068
X18.761 Y4.137
X18.638 Y4.223
X18.524 Y4.321
X18.418 Y4.427
X18.318 Y4.539
X18.225 Y4.656
X18.138 Y4.778
X18.056 Y4.904
X17.979 Y5.033
X17.906 Y5.164
X17.837 Y5.302
X17.769 Y5.445
X17.704 Y5.597
X17.638 Y5.763
X17.574 Y5.942
X17.512 Y6.132
X17.454 Y6.332
X17.401 Y6.538
X17.354 Y6.752
X17.311 Y6.977
X17.274 Y7.21
X17.243 Y7.452
X17.22 Y7.702
X17.204 Y7.958
X17.195 Y8.219
Y8.486
X17.204 Y8.756
X17.221 Y9.029
X17.247 Y9.304
X17.281 Y9.58
X17.325 Y9.856
X17.377 Y10.131
X17.438 Y10.405
X17.507 Y10.675
X17.584 Y10.94
X17.668 Y11.2
X17.759 Y11.452
X17.854 Y11.695
X17.955 Y11.927
X18.058 Y12.148
X18.165 Y12.358
X18.273 Y12.555
X18.379 Y12.735
X18.483 Y12.899
X18.585 Y13.05
X18.685 Y13.189
X18.784 Y13.316
X18.88 Y13.433
X18.979 Y13.546
X19.082 Y13.655
X19.19 Y13.759
X19.302 Y13.858
X19.421 Y13.95
X19.545 Y14.035
X19.563 Y14.045
X19.849 Y14.171
X20.157 Y14.23
X20.469 Y14.218
X20.771 Y14.137
X20.878 Y14.094
X20.979 Y14.058
G2 X21.172 Y13.706 I-0.119 J-0.294
G1 X21.108 Y13.361
X19.472 Y4.536
X19.423 Y4.271
G2 X19.036 Y4.021 I-0.312 J0.058
G1 X18.701 Y4.114
X18.559 Y4.162
X18.429 Y4.236
X18.309 Y4.326
X18.197 Y4.426
X18.093 Y4.534
X17.996 Y4.649
X17.905 Y4.768
X17.82 Y4.892
X17.74 Y5.019
X17.665 Y5.149
X17.595 Y5.281
X17.528 Y5.42
X17.46 Y5.571
X17.394 Y5.73
X17.332 Y5.896
X17.272 Y6.074
X17.214 Y6.264
X17.159 Y6.466
X17.108 Y6.679
X17.062 Y6.903
X17.023 Y7.133
X16.989 Y7.368
X16.963 Y7.613
X16.943 Y7.867
X16.931 Y8.128
X16.928 Y8.396
X16.932 Y8.668
X16.946 Y8.945
X16.968 Y9.224
X16.999 Y9.504
X17.04 Y9.785
X17.089 Y10.066
X17.147 Y10.345
X17.214 Y10.621
X17.288 Y10.893
X17.37 Y11.159
X17.459 Y11.417
X17.553 Y11.667
X17.653 Y11.908
X17.757 Y12.138
X17.862 Y12.352
X17.967 Y12.549
X18.072 Y12.734
X18.178 Y12.907
X18.284 Y13.068
X18.387 Y13.216
X18.486 Y13.347
X18.58 Y13.464
X18.677 Y13.578
X18.778 Y13.689
X18.884 Y13.795
X18.994 Y13.897
X19.109 Y13.993
X19.231 Y14.081
X19.357 Y14.162
X19.374 Y14.171
X19.663 Y14.285
X19.971 Y14.332
X20.281 Y14.31
X20.578 Y14.218
X20.711 Y14.161
X20.771 Y14.137
G2 X20.956 Y13.784 I-0.127 J-0.291
G1 X20.887 Y13.436
X19.141 Y4.629
X19.088 Y4.361
G2 X18.701 Y4.114 I-0.311 J0.062
G1 X18.4 Y4.199
X18.258 Y4.246
X18.128 Y4.321
X18.008 Y4.411
X17.896 Y4.511
X17.793 Y4.62
X17.697 Y4.735
X17.607 Y4.855
X17.523 Y4.979
X17.444 Y5.107
X17.37 Y5.238
X17.301 Y5.371
X17.235 Y5.51
X17.171 Y5.656
X17.109 Y5.811
X17.047 Y5.98
X16.987 Y6.162
X16.929 Y6.356
X16.876 Y6.559
X16.828 Y6.768
X16.785 Y6.986
X16.748 Y7.216
X16.716 Y7.457
X16.691 Y7.708
X16.673 Y7.967
X16.663 Y8.233
X16.661 Y8.505
X16.668 Y8.783
X16.684 Y9.064
X16.709 Y9.347
X16.743 Y9.632
X16.787 Y9.917
X16.839 Y10.201
X16.9 Y10.483
X16.97 Y10.761
X17.047 Y11.034
X17.132 Y11.301
X17.223 Y11.56
X17.32 Y11.809
X17.42 Y12.046
X17.524 Y12.271
X17.631 Y12.484
X17.739 Y12.685
X17.845 Y12.868
X17.95 Y13.034
X18.053 Y13.19
X18.155 Y13.332
X18.254 Y13.461
X18.35 Y13.579
X18.448 Y13.692
X18.55 Y13.802
X18.657 Y13.907
X18.768 Y14.008
X18.884 Y14.104
X19.007 Y14.19
X19.134 Y14.269
X19.142 Y14.274
X19.43 Y14.387
X19.737 Y14.434
X20.047 Y14.411
X20.344 Y14.32
X20.578 Y14.218
G2 X20.752 Y13.867 I-0.137 J-0.287
G1 X20.678 Y13.512
X18.842 Y4.713
X18.786 Y4.442
G2 X18.4 Y4.199 I-0.311 J0.065
G1 X18.366 Y4.208
X18.199 Y4.26
X18.077 Y4.299
X17.937 Y4.352
X17.807 Y4.428
X17.688 Y4.519
X17.579 Y4.621
X17.477 Y4.732
X17.382 Y4.848
X17.294 Y4.969
X17.212 Y5.095
X17.135 Y5.224
X17.063 Y5.355
X16.996 Y5.49
X16.932 Y5.631
X16.867 Y5.784
X16.807 Y5.942
X16.748 Y6.11
X16.691 Y6.291
X16.637 Y6.485
X16.586 Y6.691
X16.539 Y6.909
X16.499 Y7.134
X16.464 Y7.366
X16.436 Y7.61
X16.414 Y7.864
X16.4 Y8.128
X16.394 Y8.4
X16.396 Y8.677
X16.408 Y8.96
X16.428 Y9.246
X16.458 Y9.534
X16.497 Y9.823
X16.546 Y10.112
X16.603 Y10.399
X16.669 Y10.682
X16.743 Y10.962
X16.825 Y11.235
X16.914 Y11.5
X17.008 Y11.757
X17.108 Y12.003
X17.212 Y12.238
X17.319 Y12.46
X17.425 Y12.665
X17.531 Y12.853
X17.637 Y13.029
X17.743 Y13.193
X17.847 Y13.345
X17.948 Y13.481
X18.045 Y13.604
X18.141 Y13.718
X18.241 Y13.83
X18.345 Y13.938
X18.453 Y14.042
X18.566 Y14.141
X18.684 Y14.233
X18.809 Y14.317
X18.937 Y14.394
X18.95 Y14.4
X19.252 Y14.507
X19.569 Y14.542
X19.886 Y14.503
X20.186 Y14.393
G2 X20.345 Y14.053 I-0.153 J-0.278
G1 X20.27 Y13.676
X18.525 Y4.8
X18.475 Y4.544
G2 X18.077 Y4.299 I-0.312 J0.061
G1 X17.864 Y4.367
X17.73 Y4.417
X17.593 Y4.476
X17.466 Y4.556
X17.35 Y4.652
X17.244 Y4.757
X17.145 Y4.87
X17.053 Y4.989
X16.968 Y5.112
X16.888 Y5.239
X16.814 Y5.37
X16.745 Y5.503
X16.681 Y5.639
X16.619 Y5.781
X16.557 Y5.937
X16.497 Y6.103
X16.441 Y6.274
X16.387 Y6.459
X16.336 Y6.657
X16.289 Y6.868
X16.246 Y7.09
X16.208 Y7.324
X16.178 Y7.564
X16.154 Y7.811
X16.137 Y8.07
X16.128 Y8.339
X16.127 Y8.616
X16.135 Y8.899
X16.153 Y9.187
X16.18 Y9.478
X16.216 Y9.771
X16.261 Y10.063
X16.316 Y10.355
X16.38 Y10.644
X16.452 Y10.928
X16.532 Y11.207
X16.62 Y11.479
X16.713 Y11.742
X16.813 Y11.995
X16.916 Y12.236
X17.021 Y12.461
X17.126 Y12.669
X17.233 Y12.865
X17.34 Y13.048
X17.448 Y13.218
X17.554 Y13.376
X17.659 Y13.521
X17.758 Y13.65
X17.853 Y13.767
X17.952 Y13.88
X18.055 Y13.989
X18.161 Y14.095
X18.272 Y14.196
X18.388 Y14.292
X18.508 Y14.381
X18.635 Y14.46
X18.767 Y14.533
X18.773 Y14.535
X19.065 Y14.628
X19.371 Y14.655
X19.674 Y14.613
X19.962 Y14.506
X20.186 Y14.393
G2 X20.342 Y14.042 I-0.153 J-0.278
G1 X20.257 Y13.679
X18.198 Y4.897
X18.14 Y4.646
G2 X17.73 Y4.417 I-0.309 J0.072
G1 X17.697 Y4.429
X17.362 Y4.575
X17.227 Y4.641
X17.104 Y4.727
X16.991 Y4.826
X16.888 Y4.935
X16.793 Y5.051
X16.705 Y5.173
X16.624 Y5.299
X16.549 Y5.428
X16.478 Y5.561
X16.413 Y5.696
X16.353 Y5.833
X16.294 Y5.978
X16.235 Y6.138
X16.178 Y6.311
X16.125 Y6.49
X16.075 Y6.68
X16.028 Y6.884
X15.985 Y7.1
X15.947 Y7.329
X15.915 Y7.57
X15.889 Y7.822
X15.871 Y8.08
X15.861 Y8.344
X15.859 Y8.618
X15.866 Y8.9
X15.882 Y9.188
X15.908 Y9.481
X15.943 Y9.777
X15.987 Y10.073
X16.041 Y10.369
X16.105 Y10.662
X16.176 Y10.951
X16.256 Y11.234
X16.344 Y11.511
X16.438 Y11.779
X16.537 Y12.036
X16.639 Y12.276
X16.742 Y12.501
X16.849 Y12.714
X16.957 Y12.915
X17.066 Y13.104
X17.176 Y13.279
X17.283 Y13.441
X17.388 Y13.587
X17.49 Y13.721
X17.588 Y13.842
X17.686 Y13.955
X17.788 Y14.066
X17.894 Y14.172
X18.004 Y14.274
X18.119 Y14.371
X18.237 Y14.463
X18.362 Y14.546
X18.492 Y14.62
X18.501 Y14.625
X18.803 Y14.732
X19.122 Y14.767
X19.44 Y14.729
X19.741 Y14.618
X19.962 Y14.506
G2 X20.117 Y14.151 I-0.153 J-0.278
G1 X20.028 Y13.793
X17.845 Y5.031
X17.786 Y4.794
G2 X17.362 Y4.575 I-0.308 J0.077
G1 X17.027 Y4.72
X16.892 Y4.787
X16.771 Y4.875
X16.661 Y4.977
X16.561 Y5.089
X16.468 Y5.207
X16.383 Y5.33
X16.304 Y5.458
X16.231 Y5.589
X16.163 Y5.723
X16.101 Y5.859
X16.043 Y5.997
X15.985 Y6.148
X15.929 Y6.312
X15.876 Y6.479
X15.826 Y6.661
X15.778 Y6.858
X15.733 Y7.07
X15.693 Y7.294
X15.659 Y7.528
X15.632 Y7.766
X15.611 Y8.016
X15.598 Y8.278
X15.592 Y8.551
X15.595 Y8.833
X15.608 Y9.121
X15.629 Y9.415
X15.661 Y9.712
X15.702 Y10.01
X15.753 Y10.309
X15.813 Y10.606
X15.882 Y10.9
X15.959 Y11.189
X16.044 Y11.471
X16.136 Y11.743
X16.233 Y12.003
X16.334 Y12.252
X16.44 Y12.489
X16.548 Y12.713
X16.656 Y12.92
X16.765 Y13.113
X16.874 Y13.293
X16.983 Y13.461
X17.091 Y13.617
X17.196 Y13.758
X17.297 Y13.886
X17.394 Y14.001
X17.494 Y14.113
X17.598 Y14.221
X17.706 Y14.325
X17.818 Y14.425
X17.934 Y14.52
X18.056 Y14.608
X18.183 Y14.687
X18.315 Y14.759
X18.341 Y14.77
X18.594 Y14.854
X18.858 Y14.888
X19.124 Y14.87
X19.382 Y14.802
X19.622 Y14.686
G2 X19.756 Y14.345 I-0.174 J-0.265
G1 X19.662 Y13.962
X17.509 Y5.177
X17.451 Y4.94
G2 X17.027 Y4.72 I-0.308 J0.076
G1 X16.722 Y4.853
X16.587 Y4.919
X16.466 Y5.008
X16.356 Y5.11
X16.256 Y5.222
X16.165 Y5.341
X16.081 Y5.465
X16.003 Y5.593
X15.931 Y5.725
X15.865 Y5.859
X15.804 Y5.996
X15.747 Y6.136
X15.691 Y6.288
X15.639 Y6.445
X15.588 Y6.616
X15.538 Y6.803
X15.492 Y7.003
X15.449 Y7.215
X15.413 Y7.432
X15.382 Y7.661
X15.357 Y7.904
X15.339 Y8.16
X15.328 Y8.428
X15.326 Y8.706
X15.332 Y8.991
X15.348 Y9.283
X15.373 Y9.58
X15.408 Y9.879
X15.453 Y10.18
X15.507 Y10.48
X15.571 Y10.778
X15.643 Y11.071
X15.724 Y11.358
X15.811 Y11.636
X15.905 Y11.906
X16.005 Y12.165
X16.109 Y12.412
X16.216 Y12.646
X16.326 Y12.867
X16.438 Y13.075
X16.549 Y13.267
X16.657 Y13.442
X16.766 Y13.605
X16.874 Y13.757
X16.98 Y13.897
X17.084 Y14.025
X17.184 Y14.141
X17.285 Y14.252
X17.39 Y14.359
X17.499 Y14.462
X17.613 Y14.56
X17.73 Y14.653
X17.853 Y14.74
X17.981 Y14.818
X18.113 Y14.888
X18.148 Y14.903
X18.399 Y14.983
X18.66 Y15.014
X18.923 Y14.996
X19.177 Y14.928
X19.415 Y14.813
X19.622 Y14.686
G2 X19.754 Y14.335 I-0.174 J-0.265
G1 X19.65 Y13.965
X17.213 Y5.307
X17.144 Y5.062
G2 X16.722 Y4.853 I-0.306 J0.086
G1 X16.425 Y4.982
X16.29 Y5.048
X16.169 Y5.136
X16.059 Y5.239
X15.96 Y5.351
X15.869 Y5.47
X15.785 Y5.595
X15.708 Y5.724
X15.638 Y5.856
X15.573 Y5.991
X15.513 Y6.129
X15.457 Y6.269
X15.403 Y6.419
X15.353 Y6.576
X15.303 Y6.747
X15.256 Y6.932
X15.211 Y7.131
X15.171 Y7.341
X15.137 Y7.556
X15.108 Y7.788
X15.085 Y8.035
X15.069 Y8.294
X15.06 Y8.565
Y8.846
X15.069 Y9.134
X15.087 Y9.428
X15.116 Y9.727
X15.154 Y10.027
X15.201 Y10.329
X15.258 Y10.629
X15.325 Y10.927
X15.399 Y11.219
X15.482 Y11.505
X15.572 Y11.782
X15.668 Y12.05
X15.77 Y12.308
X15.876 Y12.554
X15.986 Y12.787
X16.097 Y13.007
X16.21 Y13.213
X16.323 Y13.404
X16.433 Y13.579
X16.543 Y13.74
X16.652 Y13.891
X16.76 Y14.031
X16.864 Y14.157
X16.965 Y14.272
X17.067 Y14.381
X17.173 Y14.487
X17.283 Y14.589
X17.397 Y14.687
X17.515 Y14.779
X17.638 Y14.866
X17.766 Y14.943
X17.899 Y15.013
X17.935 Y15.029
X18.187 Y15.11
X18.449 Y15.142
X18.712 Y15.123
X18.967 Y15.055
X19.205 Y14.94
X19.415 Y14.813
G2 X19.545 Y14.459 I-0.174 J-0.265
G1 X19.438 Y14.093
X16.918 Y5.436
X16.846 Y5.188
G2 X16.425 Y4.982 I-0.305 J0.089
G1 X16.123 Y5.113
X15.988 Y5.179
X15.868 Y5.269
X15.759 Y5.372
X15.661 Y5.485
X15.571 Y5.605
X15.489 Y5.731
X15.413 Y5.86
X15.344 Y5.993
X15.28 Y6.129
X15.221 Y6.267
X15.168 Y6.407
X15.115 Y6.559
X15.066 Y6.715
X15.019 Y6.885
X14.973 Y7.07
X14.931 Y7.27
X14.893 Y7.482
X14.86 Y7.699
X14.833 Y7.933
X14.812 Y8.181
X14.799 Y8.443
X14.793 Y8.717
X14.796 Y9
X14.808 Y9.29
X14.829 Y9.586
X14.861 Y9.886
X14.902 Y10.188
X14.952 Y10.49
X15.013 Y10.791
X15.082 Y11.088
X15.16 Y11.379
X15.245 Y11.664
X15.338 Y11.94
X15.437 Y12.207
X15.541 Y12.463
X15.649 Y12.708
X15.761 Y12.94
X15.874 Y13.158
X15.989 Y13.362
X16.103 Y13.551
X16.214 Y13.723
X16.325 Y13.883
X16.436 Y14.033
X16.546 Y14.172
X16.651 Y14.297
X16.753 Y14.411
X16.856 Y14.519
X16.963 Y14.624
X17.074 Y14.726
X17.189 Y14.822
X17.308 Y14.913
X17.431 Y14.999
X17.56 Y15.075
X17.693 Y15.145
X17.736 Y15.163
X17.99 Y15.242
X18.255 Y15.272
X18.521 Y15.25
X18.777 Y15.178
X19.015 Y15.059
X19.205 Y14.94
G2 X19.335 Y14.583 I-0.174 J-0.265
G1 X19.226 Y14.221
X16.618 Y5.566
X16.543 Y5.317
G2 X16.123 Y5.113 I-0.304 J0.092
G1 X15.827 Y5.242
X15.692 Y5.308
X15.572 Y5.398
X15.464 Y5.503
X15.367 Y5.617
X15.278 Y5.737
X15.197 Y5.863
X15.122 Y5.994
X15.054 Y6.127
X14.991 Y6.263
X14.934 Y6.402
X14.882 Y6.543
X14.83 Y6.694
X14.783 Y6.85
X14.737 Y7.021
X14.693 Y7.207
X14.652 Y7.408
X14.616 Y7.619
X14.586 Y7.837
X14.561 Y8.072
X14.542 Y8.323
X14.53 Y8.587
X14.527 Y8.863
X14.532 Y9.147
X14.547 Y9.439
X14.571 Y9.737
X14.605 Y10.037
X14.649 Y10.339
X14.703 Y10.642
X14.766 Y10.942
X14.838 Y11.239
X14.918 Y11.53
X15.006 Y11.814
X15.101 Y12.09
X15.202 Y12.356
X15.309 Y12.611
X15.419 Y12.854
X15.533 Y13.084
X15.648 Y13.301
X15.764 Y13.504
X15.88 Y13.692
X15.993 Y13.864
X16.106 Y14.024
X16.218 Y14.173
X16.329 Y14.311
X16.436 Y14.436
X16.54 Y14.55
X16.645 Y14.658
X16.753 Y14.762
X16.864 Y14.862
X16.98 Y14.958
X17.1 Y15.048
X17.223 Y15.132
X17.353 Y15.208
X17.486 Y15.277
X17.531 Y15.296
X17.784 Y15.375
X18.049 Y15.404
X18.313 Y15.382
X18.569 Y15.31
X18.807 Y15.19
X19.015 Y15.059
G2 X19.14 Y14.701 I-0.178 J-0.263
G1 X19.027 Y14.339
X16.325 Y5.694
X16.246 Y5.442
G2 X15.827 Y5.242 I-0.303 J0.095
G1 X15.553 Y5.361
X15.418 Y5.428
X15.297 Y5.515
X15.188 Y5.618
X15.089 Y5.732
X15 Y5.852
X14.918 Y5.978
X14.844 Y6.108
X14.776 Y6.242
X14.714 Y6.378
X14.657 Y6.517
X14.605 Y6.658
X14.556 Y6.802
X14.509 Y6.959
X14.464 Y7.13
X14.421 Y7.315
X14.381 Y7.513
X14.347 Y7.716
X14.317 Y7.937
X14.293 Y8.174
X14.275 Y8.425
X14.264 Y8.69
X14.261 Y8.965
X14.267 Y9.249
X14.283 Y9.536
X14.308 Y9.829
X14.343 Y10.129
X14.387 Y10.432
X14.442 Y10.736
X14.507 Y11.038
X14.581 Y11.338
X14.663 Y11.632
X14.753 Y11.919
X14.85 Y12.197
X14.952 Y12.464
X15.059 Y12.718
X15.17 Y12.96
X15.284 Y13.19
X15.4 Y13.407
X15.518 Y13.61
X15.636 Y13.801
X15.754 Y13.979
X15.869 Y14.141
X15.982 Y14.29
X16.094 Y14.429
X16.205 Y14.557
X16.311 Y14.673
X16.416 Y14.78
X16.524 Y14.884
X16.636 Y14.984
X16.752 Y15.079
X16.871 Y15.17
X16.995 Y15.255
X17.124 Y15.331
X17.257 Y15.4
X17.395 Y15.46
X17.404 Y15.463
X17.707 Y15.53
X18.017 Y15.529
X18.319 Y15.458
X18.598 Y15.322
X18.807 Y15.19
G2 X18.931 Y14.831 I-0.178 J-0.263
G1 X18.816 Y14.471
X16.052 Y5.812
X15.972 Y5.56
G2 X15.553 Y5.361 I-0.302 J0.097
G1 X15.519 Y5.375
X15.212 Y5.524
X15.081 Y5.596
X14.964 Y5.69
X14.859 Y5.798
X14.765 Y5.914
X14.679 Y6.037
X14.601 Y6.166
X14.53 Y6.298
X14.465 Y6.433
X14.406 Y6.571
X14.352 Y6.711
X14.303 Y6.853
X14.256 Y7.005
X14.209 Y7.172
X14.167 Y7.345
X14.128 Y7.53
X14.092 Y7.732
X14.06 Y7.951
X14.034 Y8.185
X14.014 Y8.428
X14.001 Y8.678
X13.996 Y8.942
X13.999 Y9.217
X14.011 Y9.503
X14.033 Y9.797
X14.065 Y10.096
X14.107 Y10.4
X14.159 Y10.705
X14.221 Y11.01
X14.292 Y11.312
X14.372 Y11.61
X14.46 Y11.901
X14.555 Y12.183
X14.656 Y12.456
X14.764 Y12.718
X14.875 Y12.969
X14.991 Y13.208
X15.109 Y13.433
X15.226 Y13.641
X15.343 Y13.835
X15.462 Y14.017
X15.58 Y14.188
X15.698 Y14.347
X15.815 Y14.495
X15.929 Y14.629
X16.037 Y14.75
X16.142 Y14.859
X16.249 Y14.964
X16.359 Y15.065
X16.473 Y15.162
X16.591 Y15.255
X16.713 Y15.343
X16.839 Y15.424
X16.97 Y15.498
X17.105 Y15.562
X17.131 Y15.572
X17.387 Y15.647
X17.653 Y15.672
X17.919 Y15.645
X18.175 Y15.568
X18.411 Y15.444
X18.551 Y15.352
X18.598 Y15.322
G2 X18.72 Y14.96 I-0.179 J-0.262
G1 X18.601 Y14.604
X15.723 Y5.958
X15.642 Y5.714
G2 X15.212 Y5.524 I-0.301 J0.1
G1 X14.975 Y5.639
X14.875 Y5.697
X14.749 Y5.779
X14.636 Y5.877
X14.535 Y5.988
X14.443 Y6.107
X14.361 Y6.232
X14.286 Y6.362
X14.219 Y6.496
X14.157 Y6.633
X14.101 Y6.772
X14.05 Y6.913
X14.003 Y7.056
X13.957 Y7.215
X13.914 Y7.386
X13.875 Y7.562
X13.838 Y7.755
X13.805 Y7.964
X13.777 Y8.187
X13.755 Y8.424
X13.74 Y8.666
X13.732 Y8.92
Y9.189
X13.741 Y9.469
X13.76 Y9.76
X13.788 Y10.058
X13.826 Y10.361
X13.875 Y10.666
X13.933 Y10.972
X14.001 Y11.277
X14.078 Y11.577
X14.164 Y11.872
X14.257 Y12.16
X14.358 Y12.439
X14.465 Y12.708
X14.576 Y12.967
X14.692 Y13.213
X14.81 Y13.445
X14.929 Y13.662
X15.048 Y13.864
X15.168 Y14.053
X15.289 Y14.231
X15.409 Y14.397
X15.528 Y14.551
X15.645 Y14.692
X15.758 Y14.82
X15.866 Y14.936
X15.972 Y15.043
X16.082 Y15.145
X16.194 Y15.245
X16.31 Y15.339
X16.43 Y15.43
X16.554 Y15.514
X16.683 Y15.592
X16.816 Y15.661
X16.953 Y15.722
X16.983 Y15.733
X17.293 Y15.802
X17.61 Y15.799
X17.919 Y15.724
X18.202 Y15.581
X18.411 Y15.444
G2 X18.527 Y15.08 I-0.184 J-0.259
G1 X18.404 Y14.725
X15.403 Y6.097
X15.325 Y5.873
G2 X14.875 Y5.697 I-0.3 J0.104
G1 X14.85 Y5.712
X14.549 Y5.895
X14.424 Y5.979
X14.313 Y6.079
X14.214 Y6.192
X14.125 Y6.313
X14.046 Y6.44
X13.974 Y6.572
X13.909 Y6.707
X13.85 Y6.845
X13.797 Y6.986
X13.749 Y7.128
X13.705 Y7.275
X13.661 Y7.438
X13.621 Y7.609
X13.584 Y7.79
X13.551 Y7.987
X13.522 Y8.199
X13.498 Y8.426
X13.481 Y8.666
X13.47 Y8.91
X13.468 Y9.169
X13.473 Y9.443
X13.488 Y9.728
X13.513 Y10.022
X13.547 Y10.323
X13.592 Y10.628
X13.647 Y10.934
X13.712 Y11.24
X13.786 Y11.543
X13.869 Y11.842
X13.96 Y12.134
X14.059 Y12.419
X14.165 Y12.695
X14.276 Y12.96
X14.391 Y13.213
X14.51 Y13.453
X14.631 Y13.68
X14.753 Y13.891
X14.874 Y14.087
X14.996 Y14.271
X15.118 Y14.444
X15.239 Y14.604
X15.359 Y14.753
X15.477 Y14.89
X15.591 Y15.014
X15.702 Y15.128
X15.81 Y15.232
X15.921 Y15.332
X16.036 Y15.429
X16.154 Y15.521
X16.276 Y15.608
X16.402 Y15.689
X16.533 Y15.763
X16.612 Y15.801
X16.896 Y15.9
X17.194 Y15.939
X17.494 Y15.915
X17.783 Y15.83
X18.047 Y15.687
X18.202 Y15.581
G2 X18.317 Y15.214 I-0.184 J-0.259
G1 X18.19 Y14.864
X15.082 Y6.284
X15.002 Y6.064
G2 X14.549 Y5.895 I-0.299 J0.108
G1 X14.214 Y6.099
X14.09 Y6.183
X13.983 Y6.289
X13.889 Y6.406
X13.805 Y6.53
X13.729 Y6.659
X13.661 Y6.793
X13.6 Y6.93
X13.544 Y7.069
X13.494 Y7.211
X13.449 Y7.354
X13.407 Y7.505
X13.367 Y7.672
X13.33 Y7.847
X13.296 Y8.032
X13.267 Y8.233
X13.242 Y8.449
X13.223 Y8.681
X13.21 Y8.926
X13.205 Y9.174
X13.208 Y9.439
X13.22 Y9.717
X13.241 Y10.006
X13.272 Y10.303
X13.314 Y10.606
X13.365 Y10.912
X13.427 Y11.219
X13.499 Y11.524
X13.58 Y11.826
X13.669 Y12.122
X13.766 Y12.412
X13.871 Y12.693
X13.981 Y12.964
X14.097 Y13.224
X14.216 Y13.472
X14.338 Y13.706
X14.461 Y13.924
X14.584 Y14.127
X14.707 Y14.318
X14.832 Y14.497
X14.956 Y14.665
X15.079 Y14.821
X15.2 Y14.965
X15.317 Y15.095
X15.43 Y15.213
X15.539 Y15.32
X15.65 Y15.422
X15.763 Y15.52
X15.88 Y15.614
X16.001 Y15.703
X16.126 Y15.786
X16.255 Y15.862
X16.388 Y15.931
X16.526 Y15.99
X16.668 Y16.039
X16.688 Y16.045
X16.946 Y16.09
X17.208 Y16.085
X17.465 Y16.031
X17.706 Y15.93
X17.925 Y15.786
X18.047 Y15.687
G2 X18.136 Y15.334 I-0.208 J-0.24
G1 X17.994 Y14.962
X14.751 Y6.487
X14.666 Y6.262
G2 X14.214 Y6.099 I-0.297 J0.113
G1 X13.938 Y6.266
X13.814 Y6.35
X13.706 Y6.454
X13.61 Y6.57
X13.526 Y6.693
X13.45 Y6.823
X13.382 Y6.957
X13.321 Y7.094
X13.266 Y7.233
X13.217 Y7.375
X13.173 Y7.518
X13.132 Y7.669
X13.095 Y7.824
X13.059 Y7.997
X13.027 Y8.187
X12.998 Y8.39
X12.975 Y8.598
X12.958 Y8.82
X12.947 Y9.059
X12.944 Y9.314
X12.948 Y9.583
X12.962 Y9.863
X12.985 Y10.153
X13.017 Y10.447
X13.06 Y10.744
X13.113 Y11.047
X13.176 Y11.353
X13.25 Y11.659
X13.333 Y11.962
X13.425 Y12.26
X13.525 Y12.552
X13.631 Y12.833
X13.743 Y13.103
X13.859 Y13.36
X13.979 Y13.604
X14.102 Y13.836
X14.227 Y14.056
X14.354 Y14.264
X14.483 Y14.46
X14.611 Y14.643
X14.737 Y14.81
X14.859 Y14.962
X14.98 Y15.104
X15.099 Y15.235
X15.215 Y15.355
X15.327 Y15.464
X15.437 Y15.565
X15.552 Y15.662
X15.669 Y15.755
X15.791 Y15.844
X15.916 Y15.926
X16.045 Y16.003
X16.177 Y16.073
X16.315 Y16.133
X16.455 Y16.185
X16.488 Y16.195
X16.749 Y16.242
X17.013 Y16.239
X17.273 Y16.185
X17.517 Y16.083
X17.738 Y15.937
X17.925 Y15.786
G2 X18.011 Y15.427 I-0.208 J-0.24
G1 X17.865 Y15.064
X14.48 Y6.653
X14.388 Y6.425
G2 X13.938 Y6.266 I-0.295 J0.119
G1 X13.652 Y6.44
X13.528 Y6.525
X13.419 Y6.629
X13.325 Y6.745
X13.241 Y6.869
X13.166 Y6.999
X13.099 Y7.133
X13.039 Y7.271
X12.985 Y7.411
X12.937 Y7.553
X12.895 Y7.697
X12.855 Y7.849
X12.819 Y8.005
X12.786 Y8.174
X12.756 Y8.36
X12.73 Y8.562
X12.708 Y8.776
X12.693 Y8.997
X12.685 Y9.236
X12.683 Y9.491
X12.69 Y9.759
X12.707 Y10.039
X12.732 Y10.327
X12.768 Y10.622
X12.814 Y10.924
X12.87 Y11.227
X12.936 Y11.531
X13.013 Y11.836
X13.099 Y12.138
X13.193 Y12.434
X13.295 Y12.722
X13.403 Y12.999
X13.516 Y13.266
X13.635 Y13.523
X13.758 Y13.768
X13.884 Y14.001
X14.014 Y14.223
X14.144 Y14.432
X14.275 Y14.626
X14.403 Y14.806
X14.529 Y14.97
X14.653 Y15.122
X14.776 Y15.264
X14.896 Y15.393
X15.012 Y15.511
X15.124 Y15.617
X15.236 Y15.717
X15.351 Y15.814
X15.469 Y15.906
X15.591 Y15.994
X15.716 Y16.076
X15.845 Y16.153
X15.978 Y16.223
X16.115 Y16.283
X16.255 Y16.336
X16.294 Y16.347
X16.556 Y16.395
X16.822 Y16.392
X17.083 Y16.339
X17.329 Y16.236
X17.551 Y16.089
X17.738 Y15.937
G2 X17.823 Y15.576 I-0.208 J-0.239
G1 X17.674 Y15.216
X14.196 Y6.826
X14.1 Y6.596
G2 X13.652 Y6.44 I-0.293 J0.122
G1 X13.376 Y6.608
X13.252 Y6.692
X13.143 Y6.795
X13.048 Y6.911
X12.964 Y7.036
X12.89 Y7.166
X12.823 Y7.3
X12.764 Y7.438
X12.711 Y7.579
X12.664 Y7.721
X12.622 Y7.865
X12.584 Y8.016
X12.55 Y8.17
X12.518 Y8.339
X12.489 Y8.524
X12.464 Y8.726
X12.445 Y8.934
X12.431 Y9.155
X12.424 Y9.393
X12.425 Y9.648
X12.433 Y9.916
X12.451 Y10.195
X12.479 Y10.483
X12.517 Y10.778
X12.564 Y11.075
X12.622 Y11.376
X12.69 Y11.68
X12.769 Y11.984
X12.857 Y12.286
X12.953 Y12.582
X13.057 Y12.869
X13.167 Y13.147
X13.283 Y13.414
X13.404 Y13.67
X13.529 Y13.916
X13.658 Y14.15
X13.789 Y14.371
X13.92 Y14.579
X14.053 Y14.773
X14.185 Y14.955
X14.313 Y15.12
X14.438 Y15.271
X14.562 Y15.411
X14.684 Y15.542
X14.804 Y15.661
X14.919 Y15.77
X15.032 Y15.869
X15.147 Y15.965
X15.266 Y16.057
X15.388 Y16.144
X15.514 Y16.226
X15.643 Y16.303
X15.775 Y16.373
X15.912 Y16.433
X16.053 Y16.486
X16.199 Y16.529
X16.512 Y16.559
X16.824 Y16.517
X17.118 Y16.407
X17.38 Y16.233
X17.551 Y16.089
G2 X17.634 Y15.726 I-0.209 J-0.239
G1 X17.483 Y15.369
X13.922 Y6.992
X13.824 Y6.761
G2 X13.376 Y6.608 I-0.292 J0.124
G1 X13.102 Y6.775
X12.978 Y6.859
X12.869 Y6.962
X12.774 Y7.078
X12.69 Y7.202
X12.616 Y7.333
X12.55 Y7.468
X12.491 Y7.606
X12.439 Y7.746
X12.393 Y7.889
X12.352 Y8.033
X12.315 Y8.183
X12.282 Y8.336
X12.252 Y8.503
X12.224 Y8.687
X12.2 Y8.887
X12.183 Y9.096
X12.171 Y9.315
X12.165 Y9.552
X12.167 Y9.806
X12.178 Y10.073
X12.197 Y10.35
X12.227 Y10.637
X12.266 Y10.929
X12.315 Y11.225
X12.375 Y11.525
X12.445 Y11.828
X12.525 Y12.132
X12.615 Y12.433
X12.714 Y12.729
X12.82 Y13.017
X12.932 Y13.295
X13.05 Y13.562
X13.173 Y13.818
X13.3 Y14.063
X13.43 Y14.297
X13.563 Y14.519
X13.697 Y14.727
X13.831 Y14.921
X13.965 Y15.103
X14.096 Y15.269
X14.224 Y15.421
X14.35 Y15.563
X14.475 Y15.694
X14.598 Y15.816
X14.716 Y15.926
X14.831 Y16.025
X14.947 Y16.12
X15.066 Y16.211
X15.188 Y16.298
X15.314 Y16.38
X15.444 Y16.456
X15.576 Y16.526
X15.713 Y16.588
X15.853 Y16.64
X15.904 Y16.656
X16.174 Y16.708
X16.448 Y16.706
X16.717 Y16.65
X16.969 Y16.543
X17.196 Y16.388
X17.38 Y16.233
G2 X17.458 Y15.87 I-0.213 J-0.236
G1 X17.302 Y15.513
X13.65 Y7.158
X13.548 Y6.925
G2 X13.102 Y6.775 I-0.291 J0.127
G1 X12.8 Y6.959
X12.676 Y7.043
X12.571 Y7.15
X12.48 Y7.269
X12.399 Y7.396
X12.328 Y7.528
X12.264 Y7.664
X12.208 Y7.803
X12.158 Y7.944
X12.114 Y8.087
X12.075 Y8.232
X12.04 Y8.383
X12.007 Y8.546
X11.979 Y8.713
X11.955 Y8.897
X11.934 Y9.097
X11.918 Y9.315
X11.909 Y9.541
X11.907 Y9.776
X11.913 Y10.029
X11.927 Y10.295
X11.951 Y10.572
X11.984 Y10.859
X12.028 Y11.153
X12.082 Y11.453
X12.147 Y11.756
X12.222 Y12.059
X12.306 Y12.361
X12.4 Y12.659
X12.502 Y12.95
X12.611 Y13.234
X12.727 Y13.51
X12.849 Y13.776
X12.976 Y14.031
X13.106 Y14.275
X13.24 Y14.507
X13.377 Y14.726
X13.513 Y14.932
X13.649 Y15.123
X13.781 Y15.297
X13.913 Y15.46
X14.044 Y15.612
X14.174 Y15.753
X14.302 Y15.884
X14.427 Y16.004
X14.545 Y16.111
X14.66 Y16.208
X14.777 Y16.301
X14.898 Y16.39
X15.022 Y16.475
X15.148 Y16.556
X15.279 Y16.63
X15.412 Y16.698
X15.551 Y16.756
X15.691 Y16.808
X15.836 Y16.847
X15.851 Y16.85
X16.116 Y16.878
X16.38 Y16.854
X16.636 Y16.781
X16.872 Y16.66
X17.081 Y16.496
X17.196 Y16.388
G2 X17.272 Y16.021 I-0.213 J-0.236
G1 X17.114 Y15.67
X13.351 Y7.341
X13.244 Y7.105
G2 X12.8 Y6.959 I-0.289 J0.131
G1 X12.672 Y7.036
X12.477 Y7.182
X12.362 Y7.278
X12.26 Y7.388
X12.172 Y7.509
X12.095 Y7.638
X12.027 Y7.772
X11.967 Y7.909
X11.914 Y8.05
X11.868 Y8.192
X11.827 Y8.337
X11.791 Y8.482
X11.759 Y8.635
X11.729 Y8.803
X11.703 Y8.98
X11.683 Y9.164
X11.666 Y9.367
X11.655 Y9.586
X11.651 Y9.821
X11.654 Y10.067
X11.665 Y10.318
X11.685 Y10.584
X11.715 Y10.864
X11.755 Y11.153
X11.806 Y11.45
X11.867 Y11.752
X11.939 Y12.055
X12.02 Y12.357
X12.111 Y12.657
X12.211 Y12.952
X12.319 Y13.24
X12.434 Y13.521
X12.556 Y13.794
X12.683 Y14.056
X12.815 Y14.308
X12.95 Y14.548
X13.088 Y14.775
X13.225 Y14.985
X13.36 Y15.179
X13.496 Y15.362
X13.632 Y15.533
X13.767 Y15.693
X13.901 Y15.842
X14.033 Y15.979
X14.161 Y16.105
X14.286 Y16.219
X14.408 Y16.324
X14.524 Y16.419
X14.644 Y16.509
X14.766 Y16.596
X14.892 Y16.677
X15.021 Y16.754
X15.154 Y16.825
X15.289 Y16.889
X15.429 Y16.944
X15.571 Y16.99
X15.717 Y17.026
X15.743 Y17.03
X16.012 Y17.046
X16.28 Y17.01
X16.535 Y16.923
X16.769 Y16.787
X16.972 Y16.609
X17.052 Y16.524
X17.081 Y16.496
G2 X17.142 Y16.137 I-0.227 J-0.222
G1 X16.971 Y15.778
X13.046 Y7.516
X12.946 Y7.305
G2 X12.477 Y7.182 I-0.287 J0.136
G1 X12.17 Y7.414
X12.057 Y7.512
X11.958 Y7.625
X11.873 Y7.748
X11.799 Y7.879
X11.734 Y8.014
X11.677 Y8.153
X11.627 Y8.294
X11.584 Y8.438
X11.546 Y8.583
X11.513 Y8.729
X11.483 Y8.885
X11.456 Y9.057
X11.434 Y9.232
X11.416 Y9.423
X11.404 Y9.63
X11.397 Y9.853
Y10.09
X11.404 Y10.331
X11.421 Y10.587
X11.446 Y10.858
X11.482 Y11.14
X11.528 Y11.432
X11.585 Y11.73
X11.653 Y12.031
X11.73 Y12.333
X11.818 Y12.634
X11.914 Y12.932
X12.02 Y13.225
X12.133 Y13.511
X12.253 Y13.79
X12.38 Y14.059
X12.512 Y14.318
X12.647 Y14.565
X12.785 Y14.798
X12.924 Y15.018
X13.064 Y15.224
X13.203 Y15.416
X13.341 Y15.594
X13.478 Y15.761
X13.615 Y15.917
X13.751 Y16.062
X13.885 Y16.195
X14.014 Y16.317
X14.137 Y16.426
X14.256 Y16.525
X14.374 Y16.617
X14.495 Y16.705
X14.62 Y16.789
X14.747 Y16.869
X14.877 Y16.943
X15.011 Y17.011
X15.148 Y17.072
X15.288 Y17.126
X15.432 Y17.169
X15.578 Y17.203
X15.605 Y17.207
X15.871 Y17.218
X16.133 Y17.179
X16.384 Y17.09
X16.613 Y16.956
X16.812 Y16.78
X16.972 Y16.609
G2 X17.016 Y16.258 I-0.239 J-0.209
G1 X16.833 Y15.892
X12.744 Y7.746
X12.636 Y7.531
G2 X12.17 Y7.414 I-0.284 J0.142
G1 X12.084 Y7.481
X11.878 Y7.648
X11.767 Y7.749
X11.669 Y7.862
X11.585 Y7.987
X11.513 Y8.119
X11.45 Y8.255
X11.396 Y8.395
X11.348 Y8.537
X11.307 Y8.681
X11.271 Y8.827
X11.241 Y8.974
X11.213 Y9.132
X11.19 Y9.301
X11.171 Y9.478
X11.156 Y9.671
X11.146 Y9.88
X11.143 Y10.105
X11.147 Y10.337
X11.158 Y10.579
X11.179 Y10.839
X11.21 Y11.112
X11.25 Y11.396
X11.302 Y11.689
X11.363 Y11.986
X11.436 Y12.287
X11.518 Y12.588
X11.611 Y12.887
X11.712 Y13.184
X11.822 Y13.475
X11.94 Y13.759
X12.065 Y14.035
X12.195 Y14.3
X12.33 Y14.555
X12.468 Y14.798
X12.609 Y15.027
X12.751 Y15.244
X12.894 Y15.448
X13.037 Y15.638
X13.177 Y15.813
X13.316 Y15.976
X13.454 Y16.128
X13.59 Y16.269
X13.724 Y16.398
X13.855 Y16.517
X13.981 Y16.626
X14.103 Y16.723
X14.223 Y16.813
X14.345 Y16.9
X14.471 Y16.982
X14.599 Y17.059
X14.731 Y17.131
X14.866 Y17.197
X15.003 Y17.257
X15.144 Y17.308
X15.289 Y17.349
X15.435 Y17.381
X15.46 Y17.384
X15.722 Y17.392
X15.981 Y17.351
X16.227 Y17.262
X16.453 Y17.128
X16.649 Y16.955
X16.812 Y16.78
G2 X16.854 Y16.425 I-0.239 J-0.208
G1 X16.667 Y16.065
X12.459 Y7.962
X12.351 Y7.755
G2 X11.878 Y7.648 I-0.282 J0.146
G1 X11.582 Y7.89
X11.47 Y7.99
X11.376 Y8.107
X11.296 Y8.234
X11.227 Y8.367
X11.167 Y8.504
X11.116 Y8.645
X11.071 Y8.788
X11.032 Y8.933
X10.999 Y9.08
X10.972 Y9.227
X10.947 Y9.388
X10.926 Y9.559
X10.91 Y9.736
X10.898 Y9.93
X10.892 Y10.14
X10.893 Y10.368
X10.901 Y10.603
X10.917 Y10.847
X10.943 Y11.108
X10.978 Y11.383
X11.025 Y11.668
X11.081 Y11.96
X11.149 Y12.258
X11.226 Y12.558
X11.315 Y12.858
X11.412 Y13.156
X11.519 Y13.45
X11.634 Y13.739
X11.756 Y14.02
X11.885 Y14.292
X12.019 Y14.554
X12.158 Y14.805
X12.3 Y15.044
X12.444 Y15.27
X12.59 Y15.484
X12.736 Y15.683
X12.879 Y15.867
X13.02 Y16.038
X13.162 Y16.198
X13.302 Y16.347
X13.44 Y16.485
X13.576 Y16.612
X13.708 Y16.728
X13.836 Y16.833
X13.96 Y16.929
X14.081 Y17.017
X14.205 Y17.101
X14.332 Y17.181
X14.462 Y17.256
X14.595 Y17.326
X14.731 Y17.389
X14.87 Y17.446
X15.012 Y17.495
X15.157 Y17.533
X15.304 Y17.562
X15.323 Y17.564
X15.645 Y17.561
X15.959 Y17.483
X16.245 Y17.335
X16.49 Y17.125
X16.649 Y16.955
G2 X16.689 Y16.595 I-0.239 J-0.208
G1 X16.498 Y16.242
X12.166 Y8.201
X12.053 Y7.992
G2 X11.582 Y7.89 I-0.28 J0.151
G1 X11.311 Y8.11
X11.199 Y8.21
X11.106 Y8.327
X11.026 Y8.455
X10.958 Y8.588
X10.9 Y8.726
X10.849 Y8.868
X10.806 Y9.011
X10.769 Y9.157
X10.737 Y9.303
X10.711 Y9.451
X10.688 Y9.611
X10.67 Y9.774
X10.656 Y9.955
X10.646 Y10.151
X10.643 Y10.363
X10.646 Y10.581
X10.656 Y10.811
X10.675 Y11.059
X10.704 Y11.322
X10.742 Y11.597
X10.791 Y11.882
X10.851 Y12.174
X10.922 Y12.47
X11.003 Y12.768
X11.093 Y13.066
X11.194 Y13.362
X11.304 Y13.655
X11.421 Y13.941
X11.547 Y14.22
X11.678 Y14.49
X11.815 Y14.751
X11.956 Y15
X12.101 Y15.237
X12.247 Y15.462
X12.395 Y15.673
X12.543 Y15.872
X12.691 Y16.058
X12.838 Y16.232
X12.982 Y16.39
X13.123 Y16.537
X13.262 Y16.673
X13.399 Y16.799
X13.534 Y16.915
X13.664 Y17.02
X13.791 Y17.116
X13.913 Y17.203
X14.038 Y17.286
X14.166 Y17.364
X14.297 Y17.438
X14.43 Y17.507
X14.566 Y17.57
X14.706 Y17.625
X14.847 Y17.674
X14.993 Y17.711
X15.14 Y17.739
X15.148 Y17.74
X15.416 Y17.745
X15.68 Y17.699
X15.93 Y17.604
X16.157 Y17.462
X16.352 Y17.279
X16.426 Y17.194
X16.49 Y17.125
G2 X16.527 Y16.764 I-0.241 J-0.207
G1 X16.333 Y16.415
X11.897 Y8.42
X11.78 Y8.209
G2 X11.311 Y8.11 I-0.278 J0.154
G1 X11.055 Y8.318
X10.943 Y8.419
X10.848 Y8.535
X10.768 Y8.662
X10.7 Y8.795
X10.642 Y8.933
X10.592 Y9.075
X10.549 Y9.219
X10.512 Y9.364
X10.482 Y9.511
X10.457 Y9.659
X10.436 Y9.814
X10.419 Y9.975
X10.406 Y10.153
X10.398 Y10.347
X10.395 Y10.555
X10.4 Y10.767
X10.412 Y10.998
X10.433 Y11.246
X10.463 Y11.508
X10.503 Y11.781
X10.554 Y12.064
X10.615 Y12.353
X10.686 Y12.644
X10.768 Y12.938
X10.86 Y13.234
X10.963 Y13.529
X11.075 Y13.822
X11.195 Y14.11
X11.323 Y14.39
X11.457 Y14.66
X11.595 Y14.92
X11.738 Y15.167
X11.884 Y15.403
X12.032 Y15.628
X12.183 Y15.841
X12.334 Y16.04
X12.485 Y16.227
X12.635 Y16.402
X12.784 Y16.564
X12.928 Y16.712
X13.069 Y16.848
X13.208 Y16.974
X13.346 Y17.091
X13.48 Y17.198
X13.611 Y17.296
X13.736 Y17.383
X13.862 Y17.465
X13.99 Y17.543
X14.121 Y17.616
X14.254 Y17.685
X14.391 Y17.747
X14.53 Y17.802
X14.672 Y17.85
X14.817 Y17.888
X14.965 Y17.917
X14.999 Y17.921
X15.265 Y17.925
X15.526 Y17.878
X15.774 Y17.782
X15.999 Y17.641
X16.193 Y17.459
X16.352 Y17.279
G2 X16.382 Y16.92 I-0.245 J-0.201
G1 X16.182 Y16.57
X11.644 Y8.627
X11.522 Y8.414
G2 X11.055 Y8.318 I-0.276 J0.158
G1 X10.779 Y8.542
X10.668 Y8.643
X10.576 Y8.761
X10.498 Y8.89
X10.433 Y9.025
X10.376 Y9.164
X10.328 Y9.306
X10.287 Y9.45
X10.253 Y9.596
X10.224 Y9.743
X10.201 Y9.891
X10.182 Y10.049
X10.167 Y10.215
X10.156 Y10.389
X10.151 Y10.582
Y10.792
X10.159 Y11.016
X10.174 Y11.243
X10.197 Y11.488
X10.231 Y11.748
X10.274 Y12.02
X10.329 Y12.301
X10.393 Y12.588
X10.469 Y12.881
X10.556 Y13.176
X10.652 Y13.472
X10.759 Y13.766
X10.874 Y14.056
X10.998 Y14.34
X11.128 Y14.616
X11.264 Y14.883
X11.406 Y15.14
X11.553 Y15.387
X11.702 Y15.622
X11.855 Y15.846
X12.009 Y16.057
X12.164 Y16.257
X12.318 Y16.443
X12.469 Y16.614
X12.617 Y16.771
X12.763 Y16.918
X12.909 Y17.054
X13.052 Y17.18
X13.192 Y17.296
X13.329 Y17.402
X13.461 Y17.498
X13.586 Y17.583
X13.712 Y17.663
X13.841 Y17.739
X13.973 Y17.811
X14.108 Y17.877
X14.245 Y17.937
X14.385 Y17.991
X14.528 Y18.038
X14.673 Y18.074
X14.821 Y18.101
X14.856 Y18.105
X15.12 Y18.106
X15.381 Y18.056
X15.627 Y17.959
X15.849 Y17.816
X16.041 Y17.633
X16.193 Y17.459
G2 X16.222 Y17.096 I-0.245 J-0.201
G1 X16.02 Y16.753
X11.371 Y8.85
X11.245 Y8.635
G2 X10.779 Y8.542 I-0.274 J0.161
G1 X10.525 Y8.749
X10.414 Y8.849
X10.321 Y8.968
X10.244 Y9.096
X10.178 Y9.231
X10.123 Y9.37
X10.075 Y9.512
X10.035 Y9.657
X10.002 Y9.803
X9.974 Y9.951
X9.952 Y10.099
X9.934 Y10.255
X9.92 Y10.416
X9.91 Y10.593
X9.906 Y10.786
X9.908 Y10.994
X9.917 Y11.205
X9.933 Y11.433
X9.959 Y11.678
X9.994 Y11.937
X10.039 Y12.207
X10.095 Y12.487
X10.161 Y12.774
X10.238 Y13.063
X10.326 Y13.354
X10.423 Y13.646
X10.532 Y13.939
X10.649 Y14.229
X10.775 Y14.513
X10.908 Y14.79
X11.047 Y15.058
X11.191 Y15.315
X11.339 Y15.561
X11.491 Y15.796
X11.646 Y16.02
X11.802 Y16.232
X11.958 Y16.43
X12.115 Y16.616
X12.27 Y16.79
X12.425 Y16.952
X12.576 Y17.101
X12.723 Y17.237
X12.867 Y17.362
X13.009 Y17.478
X13.147 Y17.584
X13.282 Y17.68
X13.412 Y17.767
X13.539 Y17.847
X13.669 Y17.922
X13.801 Y17.993
X13.935 Y18.059
X14.073 Y18.119
X14.213 Y18.172
X14.356 Y18.219
X14.501 Y18.255
X14.649 Y18.283
X14.688 Y18.287
X14.957 Y18.29
X15.221 Y18.24
X15.471 Y18.141
X15.697 Y17.995
X15.891 Y17.808
X16.041 Y17.633
G2 X16.066 Y17.27 I-0.247 J-0.2
G1 X15.861 Y16.929
X11.119 Y9.055
X10.989 Y8.838
G2 X10.525 Y8.749 I-0.272 J0.164
G1 X10.437 Y8.821
X10.227 Y9.015
X10.123 Y9.122
X10.035 Y9.244
X9.962 Y9.375
X9.901 Y9.512
X9.849 Y9.653
X9.806 Y9.796
X9.769 Y9.942
X9.739 Y10.089
X9.715 Y10.237
X9.696 Y10.386
X9.681 Y10.543
X9.671 Y10.715
X9.665 Y10.895
Y11.085
X9.672 Y11.293
X9.686 Y11.518
X9.708 Y11.759
X9.739 Y12.004
X9.78 Y12.259
X9.831 Y12.528
X9.893 Y12.806
X9.966 Y13.091
X10.05 Y13.382
X10.145 Y13.676
X10.251 Y13.969
X10.366 Y14.26
X10.49 Y14.547
X10.621 Y14.827
X10.759 Y15.099
X10.904 Y15.362
X11.053 Y15.616
X11.207 Y15.859
X11.363 Y16.09
X11.522 Y16.309
X11.682 Y16.516
X11.841 Y16.709
X11.997 Y16.886
X12.152 Y17.052
X12.307 Y17.207
X12.46 Y17.351
X12.611 Y17.485
X12.759 Y17.608
X12.903 Y17.72
X13.042 Y17.822
X13.177 Y17.914
X13.304 Y17.995
X13.433 Y18.072
X13.564 Y18.144
X13.698 Y18.212
X13.835 Y18.274
X13.974 Y18.33
X14.115 Y18.38
X14.259 Y18.422
X14.406 Y18.453
X14.554 Y18.476
X14.588 Y18.479
X14.849 Y18.471
X15.105 Y18.415
X15.346 Y18.311
X15.563 Y18.165
X15.748 Y17.98
X15.875 Y17.827
X15.891 Y17.808
G2 X15.912 Y17.443 I-0.249 J-0.198
G1 X15.703 Y17.107
X10.83 Y9.289
X10.704 Y9.087
G2 X10.227 Y9.015 I-0.269 J0.168
G1 X9.964 Y9.26
X9.86 Y9.368
X9.774 Y9.491
X9.702 Y9.622
X9.643 Y9.76
X9.593 Y9.901
X9.551 Y10.046
X9.516 Y10.192
X9.488 Y10.339
X9.466 Y10.487
X9.449 Y10.636
X9.436 Y10.798
X9.428 Y10.964
X9.425 Y11.144
X9.428 Y11.341
X9.437 Y11.553
X9.454 Y11.776
X9.479 Y12.004
X9.513 Y12.248
X9.557 Y12.506
X9.613 Y12.776
X9.679 Y13.056
X9.757 Y13.342
X9.845 Y13.633
X9.944 Y13.925
X10.053 Y14.216
X10.172 Y14.505
X10.299 Y14.789
X10.434 Y15.066
X10.576 Y15.336
X10.724 Y15.598
X10.877 Y15.849
X11.034 Y16.09
X11.193 Y16.319
X11.355 Y16.535
X11.516 Y16.739
X11.679 Y16.93
X11.841 Y17.11
X12.001 Y17.276
X12.157 Y17.429
X12.311 Y17.57
X12.463 Y17.701
X12.611 Y17.821
X12.756 Y17.931
X12.897 Y18.031
X13.031 Y18.12
X13.161 Y18.2
X13.29 Y18.275
X13.423 Y18.345
X13.558 Y18.411
X13.695 Y18.472
X13.834 Y18.527
X13.976 Y18.575
X14.121 Y18.615
X14.268 Y18.645
X14.416 Y18.666
X14.453 Y18.668
X14.73 Y18.656
X14.998 Y18.59
X15.248 Y18.471
X15.47 Y18.305
X15.654 Y18.098
G2 X15.661 Y17.754 I-0.263 J-0.178
G1 X15.439 Y17.396
X10.567 Y9.528
X10.444 Y9.33
G2 X9.964 Y9.26 I-0.27 J0.167
G1 X9.897 Y9.323
X9.658 Y9.579
X9.561 Y9.693
X9.482 Y9.821
X9.417 Y9.956
X9.363 Y10.096
X9.319 Y10.239
X9.283 Y10.385
X9.254 Y10.532
X9.231 Y10.68
X9.213 Y10.829
X9.201 Y10.979
X9.192 Y11.14
X9.189 Y11.317
X9.191 Y11.507
X9.199 Y11.7
X9.215 Y11.911
X9.239 Y12.138
X9.272 Y12.381
X9.316 Y12.638
X9.368 Y12.9
X9.431 Y13.167
X9.506 Y13.446
X9.592 Y13.731
X9.69 Y14.021
X9.798 Y14.312
X9.916 Y14.601
X10.043 Y14.887
X10.178 Y15.168
X10.321 Y15.441
X10.471 Y15.707
X10.626 Y15.963
X10.785 Y16.208
X10.947 Y16.442
X11.111 Y16.663
X11.274 Y16.869
X11.437 Y17.062
X11.599 Y17.243
X11.762 Y17.413
X11.923 Y17.572
X12.083 Y17.719
X12.241 Y17.855
X12.393 Y17.979
X12.54 Y18.091
X12.683 Y18.193
X12.823 Y18.286
X12.959 Y18.371
X13.089 Y18.446
X13.221 Y18.517
X13.356 Y18.584
X13.492 Y18.645
X13.632 Y18.701
X13.773 Y18.75
X13.917 Y18.793
X14.063 Y18.826
X14.212 Y18.85
X14.361 Y18.864
X14.388
X14.653 Y18.839
X14.908 Y18.764
X15.144 Y18.643
X15.353 Y18.478
X15.526 Y18.277
X15.581 Y18.199
X15.654 Y18.098
G2 X15.653 Y17.743 I-0.263 J-0.178
G1 X15.425 Y17.405
X10.273 Y9.813
X10.145 Y9.625
G2 X9.658 Y9.579 I-0.263 J0.178
G1 X9.396 Y9.859
X9.299 Y9.974
X9.223 Y10.103
X9.16 Y10.239
X9.109 Y10.38
X9.067 Y10.524
X9.034 Y10.671
X9.007 Y10.818
X8.986 Y10.967
X8.971 Y11.116
X8.962 Y11.266
X8.956 Y11.432
Y11.605
X8.961 Y11.789
X8.973 Y11.992
X8.993 Y12.211
X9.022 Y12.442
X9.058 Y12.676
X9.105 Y12.923
X9.162 Y13.185
X9.232 Y13.458
X9.312 Y13.738
X9.404 Y14.025
X9.507 Y14.313
X9.621 Y14.603
X9.744 Y14.89
X9.876 Y15.173
X10.016 Y15.451
X10.164 Y15.722
X10.317 Y15.984
X10.476 Y16.236
X10.638 Y16.477
X10.803 Y16.705
X10.969 Y16.922
X11.137 Y17.126
X11.306 Y17.319
X11.473 Y17.499
X11.638 Y17.665
X11.799 Y17.817
X11.958 Y17.959
X12.115 Y18.09
X12.27 Y18.211
X12.421 Y18.322
X12.567 Y18.423
X12.707 Y18.512
X12.839 Y18.592
X12.97 Y18.664
X13.104 Y18.733
X13.239 Y18.797
X13.377 Y18.856
X13.517 Y18.909
X13.66 Y18.956
X13.805 Y18.996
X13.951 Y19.028
X14.1 Y19.048
X14.249 Y19.059
X14.273
X14.533 Y19.031
X14.783 Y18.955
X15.014 Y18.833
X15.218 Y18.67
X15.388 Y18.472
X15.526 Y18.277
G2 X15.52 Y17.92 I-0.266 J-0.174
G1 X15.286 Y17.587
X10.014 Y10.091
X9.88 Y9.901
G2 X9.396 Y9.859 I-0.26 J0.183
G1 X9.156 Y10.117
X9.059 Y10.231
X8.981 Y10.36
X8.919 Y10.496
X8.869 Y10.637
X8.828 Y10.782
X8.795 Y10.928
X8.77 Y11.076
X8.75 Y11.225
X8.737 Y11.374
X8.729 Y11.527
X8.725 Y11.689
X8.727 Y11.859
X8.734 Y12.044
X8.748 Y12.245
X8.77 Y12.461
X8.8 Y12.679
X8.839 Y12.913
X8.888 Y13.162
X8.949 Y13.424
X9.021 Y13.697
X9.105 Y13.977
X9.2 Y14.261
X9.306 Y14.548
X9.422 Y14.835
X9.547 Y15.12
X9.682 Y15.401
X9.825 Y15.677
X9.975 Y15.946
X10.131 Y16.205
X10.292 Y16.454
X10.457 Y16.693
X10.625 Y16.921
X10.795 Y17.138
X10.966 Y17.342
X11.137 Y17.533
X11.307 Y17.711
X11.476 Y17.878
X11.643 Y18.033
X11.804 Y18.174
X11.962 Y18.303
X12.117 Y18.421
X12.268 Y18.53
X12.416 Y18.628
X12.558 Y18.718
X12.694 Y18.797
X12.826 Y18.869
X12.96 Y18.936
X13.097 Y18.999
X13.235 Y19.057
X13.376 Y19.109
X13.518 Y19.155
X13.663 Y19.194
X13.81 Y19.225
X13.959 Y19.245
X14.108 Y19.256
X14.136
X14.401 Y19.227
X14.656 Y19.148
X14.891 Y19.022
X15.097 Y18.853
X15.268 Y18.647
X15.352 Y18.523
X15.388 Y18.472
G2 X15.38 Y18.112 I-0.266 J-0.174
G1 X15.144 Y17.786
X9.776 Y10.347
X9.637 Y10.156
G2 X9.156 Y10.117 I-0.257 J0.186
G1 X8.917 Y10.373
X8.82 Y10.487
X8.743 Y10.616
X8.681 Y10.752
X8.631 Y10.894
X8.591 Y11.039
X8.56 Y11.185
X8.536 Y11.333
X8.518 Y11.482
X8.506 Y11.632
X8.499 Y11.783
X8.497 Y11.944
X8.5 Y12.109
X8.509 Y12.292
X8.526 Y12.49
X8.55 Y12.704
X8.581 Y12.92
X8.622 Y13.152
X8.674 Y13.401
X8.737 Y13.661
X8.812 Y13.932
X8.898 Y14.21
X8.995 Y14.493
X9.104 Y14.778
X9.222 Y15.062
X9.35 Y15.345
X9.488 Y15.624
X9.633 Y15.898
X9.785 Y16.164
X9.944 Y16.422
X10.107 Y16.67
X10.275 Y16.908
X10.446 Y17.135
X10.619 Y17.35
X10.793 Y17.554
X10.967 Y17.745
X11.141 Y17.924
X11.313 Y18.091
X11.482 Y18.245
X11.646 Y18.384
X11.806 Y18.512
X11.962 Y18.63
X12.116 Y18.738
X12.266 Y18.836
X12.412 Y18.925
X12.552 Y19.005
X12.685 Y19.076
X12.82 Y19.142
X12.956 Y19.203
X13.095 Y19.26
X13.236 Y19.311
X13.379 Y19.356
X13.524 Y19.394
X13.671 Y19.424
X13.82 Y19.444
X13.97 Y19.454
X14.007
X14.277 Y19.424
X14.536 Y19.341
X14.774 Y19.21
X14.982 Y19.035
X15.152 Y18.822
X15.231 Y18.701
X15.268 Y18.647
G2 X15.254 Y18.289 I-0.269 J-0.169
G1 X15.012 Y17.964
X9.539 Y10.601
X9.396 Y10.408
G2 X8.917 Y10.373 I-0.255 J0.189
G1 X8.683 Y10.622
X8.587 Y10.737
X8.509 Y10.865
X8.448 Y11.002
X8.399 Y11.144
X8.36 Y11.289
X8.329 Y11.436
X8.306 Y11.584
X8.289 Y11.733
X8.279 Y11.883
X8.273 Y12.033
Y12.192
X8.277 Y12.356
X8.288 Y12.536
X8.306 Y12.733
X8.331 Y12.944
X8.364 Y13.158
X8.407 Y13.388
X8.461 Y13.635
X8.526 Y13.893
X8.603 Y14.162
X8.691 Y14.438
X8.79 Y14.718
X8.9 Y15
X9.021 Y15.282
X9.151 Y15.562
X9.29 Y15.84
X9.438 Y16.112
X9.593 Y16.378
X9.755 Y16.635
X9.92 Y16.882
X10.091 Y17.119
X10.264 Y17.345
X10.44 Y17.56
X10.617 Y17.764
X10.795 Y17.955
X10.971 Y18.133
X11.146 Y18.299
X11.318 Y18.453
X11.486 Y18.593
X11.648 Y18.721
X11.807 Y18.838
X11.963 Y18.946
X12.116 Y19.044
X12.264 Y19.133
X12.407 Y19.213
X12.543 Y19.283
X12.678 Y19.348
X12.815 Y19.408
X12.955 Y19.464
X13.096 Y19.514
X13.24 Y19.558
X13.385 Y19.595
X13.532 Y19.625
X13.681 Y19.644
X13.83 Y19.654
X13.873
X14.144 Y19.624
X14.404 Y19.542
X14.643 Y19.411
X14.852 Y19.235
X15.022 Y19.022
X15.152 Y18.822
G2 X15.132 Y18.466 I-0.272 J-0.164
G1 X14.886 Y18.143
X9.309 Y10.849
X9.16 Y10.654
G2 X8.683 Y10.622 I-0.252 J0.193
G1 X8.46 Y10.861
X8.364 Y10.976
X8.285 Y11.103
X8.222 Y11.24
X8.173 Y11.381
X8.134 Y11.526
X8.104 Y11.673
X8.081 Y11.821
X8.065 Y11.971
X8.055 Y12.12
X8.05 Y12.27
X8.051 Y12.426
X8.056 Y12.587
X8.068 Y12.765
X8.086 Y12.96
X8.113 Y13.166
X8.146 Y13.376
X8.19 Y13.605
X8.245 Y13.848
X8.311 Y14.104
X8.389 Y14.37
X8.478 Y14.643
X8.577 Y14.919
X8.687 Y15.196
X8.808 Y15.474
X8.94 Y15.753
X9.081 Y16.03
X9.231 Y16.303
X9.389 Y16.569
X9.553 Y16.827
X9.722 Y17.075
X9.894 Y17.313
X10.07 Y17.539
X10.248 Y17.754
X10.427 Y17.957
X10.607 Y18.148
X10.786 Y18.327
X10.963 Y18.494
X11.138 Y18.648
X11.311 Y18.791
X11.479 Y18.922
X11.64 Y19.039
X11.799 Y19.147
X11.954 Y19.245
X12.105 Y19.335
X12.251 Y19.415
X12.39 Y19.487
X12.526 Y19.551
X12.664 Y19.61
X12.803 Y19.665
X12.945 Y19.715
X13.088 Y19.758
X13.234 Y19.795
X13.381 Y19.825
X13.529 Y19.844
X13.679 Y19.855
X13.829
X13.845 Y19.854
X14.101 Y19.809
X14.344 Y19.716
X14.566 Y19.58
X14.759 Y19.405
X14.915 Y19.196
X15.022 Y19.022
G2 X15.001 Y18.663 I-0.272 J-0.164
G1 X14.753 Y18.346
X9.088 Y11.086
X8.935 Y10.891
G2 X8.46 Y10.861 I-0.25 J0.195
G1 X8.221 Y11.118
X8.125 Y11.232
X8.048 Y11.362
X7.989 Y11.499
X7.941 Y11.641
X7.904 Y11.787
X7.876 Y11.934
X7.855 Y12.082
X7.84 Y12.232
X7.832 Y12.382
X7.829 Y12.532
X7.832 Y12.69
X7.839 Y12.854
X7.852 Y13.029
X7.873 Y13.221
X7.902 Y13.43
X7.94 Y13.648
X7.986 Y13.871
X8.043 Y14.111
X8.111 Y14.364
X8.191 Y14.626
X8.283 Y14.896
X8.386 Y15.171
X8.5 Y15.449
X8.626 Y15.728
X8.761 Y16.006
X8.906 Y16.281
X9.058 Y16.551
X9.219 Y16.814
X9.385 Y17.069
X9.556 Y17.315
X9.732 Y17.551
X9.911 Y17.776
X10.093 Y17.99
X10.275 Y18.192
X10.458 Y18.382
X10.641 Y18.561
X10.822 Y18.727
X11 Y18.88
X11.173 Y19.019
X11.34 Y19.146
X11.505 Y19.263
X11.667 Y19.37
X11.825 Y19.468
X11.979 Y19.557
X12.127 Y19.636
X12.266 Y19.705
X12.402 Y19.767
X12.541 Y19.825
X12.681 Y19.878
X12.823 Y19.926
X12.967 Y19.968
X13.113 Y20.004
X13.26 Y20.032
X13.409 Y20.052
X13.558 Y20.061
X13.708
X13.744 Y20.058
X14.017 Y20.006
X14.275 Y19.9
X14.506 Y19.745
X14.701 Y19.547
X14.853 Y19.314
X14.911 Y19.204
X14.915 Y19.196
G2 X14.886 Y18.841 I-0.276 J-0.156
G1 X14.631 Y18.524
X8.851 Y11.339
X8.693 Y11.143
G2 X8.221 Y11.118 I-0.247 J0.199
G1 X8.177 Y11.165
X7.946 Y11.461
X7.86 Y11.584
X7.791 Y11.717
X7.737 Y11.857
X7.696 Y12.001
X7.665 Y12.148
X7.642 Y12.296
X7.626 Y12.446
X7.617 Y12.595
X7.614 Y12.745
X7.615 Y12.895
X7.622 Y13.054
X7.635 Y13.227
X7.655 Y13.415
X7.681 Y13.606
X7.716 Y13.811
X7.761 Y14.034
X7.817 Y14.271
X7.884 Y14.519
X7.961 Y14.775
X8.048 Y15.033
X8.148 Y15.3
X8.26 Y15.574
X8.383 Y15.851
X8.517 Y16.129
X8.662 Y16.404
X8.815 Y16.676
X8.975 Y16.942
X9.143 Y17.2
X9.317 Y17.45
X9.495 Y17.69
X9.677 Y17.92
X9.862 Y18.139
X10.048 Y18.346
X10.233 Y18.539
X10.415 Y18.718
X10.596 Y18.884
X10.776 Y19.04
X10.954 Y19.184
X11.129 Y19.317
X11.301 Y19.44
X11.469 Y19.552
X11.629 Y19.651
X11.784 Y19.741
X11.935 Y19.822
X12.082 Y19.895
X12.222 Y19.959
X12.36 Y20.018
X12.5 Y20.072
X12.642 Y20.12
X12.786 Y20.163
X12.931 Y20.2
X13.078 Y20.231
X13.226 Y20.254
X13.376 Y20.267
X13.526 Y20.27
X13.675 Y20.263
X13.701 Y20.26
X13.959 Y20.199
X14.201 Y20.09
X14.418 Y19.937
X14.601 Y19.746
X14.745 Y19.523
X14.853 Y19.314
G2 X14.809 Y18.973 I-0.287 J-0.136
G1 X14.536 Y18.651
X8.583 Y11.636
X8.432 Y11.459
G2 X7.946 Y11.461 I-0.242 J0.205
G1 X7.916 Y11.5
X7.816 Y11.635
X7.699 Y11.801
X7.618 Y11.928
X7.553 Y12.063
X7.504 Y12.205
X7.467 Y12.35
X7.439 Y12.498
X7.421 Y12.646
X7.409 Y12.796
X7.403 Y12.946
X7.404 Y13.096
X7.409 Y13.246
X7.42 Y13.408
X7.438 Y13.587
X7.462 Y13.77
X7.494 Y13.966
X7.536 Y14.179
X7.587 Y14.406
X7.65 Y14.645
X7.722 Y14.889
X7.804 Y15.138
X7.899 Y15.399
X8.007 Y15.668
X8.127 Y15.942
X8.258 Y16.218
X8.4 Y16.494
X8.551 Y16.766
X8.711 Y17.034
X8.879 Y17.296
X9.053 Y17.55
X9.232 Y17.796
X9.416 Y18.031
X9.603 Y18.255
X9.79 Y18.467
X9.979 Y18.666
X10.166 Y18.852
X10.351 Y19.025
X10.533 Y19.184
X10.715 Y19.333
X10.893 Y19.471
X11.069 Y19.598
X11.241 Y19.714
X11.409 Y19.82
X11.572 Y19.916
X11.727 Y20.001
X11.878 Y20.077
X12.022 Y20.145
X12.16 Y20.204
X12.3 Y20.259
X12.441 Y20.309
X12.584 Y20.354
X12.729 Y20.394
X12.875 Y20.427
X13.023 Y20.453
X13.172 Y20.472
X13.321 Y20.481
X13.471 Y20.479
X13.621 Y20.468
X13.634 Y20.466
X13.887 Y20.398
X14.123 Y20.284
X14.333 Y20.128
X14.51 Y19.934
X14.648 Y19.711
X14.745 Y19.523
G2 X14.697 Y19.177 I-0.287 J-0.136
G1 X14.422 Y18.865
X8.337 Y11.951
X8.19 Y11.784
G2 X7.699 Y11.801 I-0.238 J0.21
G1 X7.481 Y12.11
X7.401 Y12.236
X7.336 Y12.372
X7.288 Y12.514
X7.252 Y12.659
X7.227 Y12.807
X7.21 Y12.956
X7.2 Y13.106
X7.196 Y13.256
X7.199 Y13.406
X7.207 Y13.556
X7.22 Y13.722
