(Nozzle_OP_A)
(Machine)
(  vendor: Banggood)
(  model: 3018)
(  description: Generic 3-axis)
(T1  D=3.175 CR=0 - ZMIN=-18.548 - flat end mill)
(T3  D=2 CR=1 - ZMIN=-17.75 - ball end mill)
G90 G94
G17
G21

(Adaptive1)
T1 M6
S9000 M3
G54
G0 X25.4 Y25.4
Z5
Z2
Z0.317
G1 Z0 F300
Z-9 F60
X25.367 Y25.419 F300
X25.363 Y25.382
X25.393 Y25.359
X25.429 Y25.37
X25.441 Y25.406
X25.42 Y25.437
X25.385 Y25.451
X25.35 Y25.438
X25.333 Y25.405
X25.341 Y25.368
X25.365 Y25.339
X25.401 Y25.33
X25.437 Y25.339
X25.463 Y25.366
X25.471 Y25.403
X25.46 Y25.439
X25.436 Y25.467
X25.401 Y25.482
X25.364
X25.331 Y25.464
X25.307 Y25.435
X25.299 Y25.398
X25.304 Y25.361
X25.323 Y25.328
X25.352 Y25.305
X25.387 Y25.293
X25.425 Y25.295
X25.46 Y25.308
X25.487 Y25.334
X25.504 Y25.367
X25.51 Y25.405
X25.503 Y25.442
X25.485 Y25.474
X25.459 Y25.501
X25.426 Y25.519
X25.389 Y25.525
X25.352 Y25.521
X25.317 Y25.506
X25.289 Y25.482
X25.268 Y25.45
X25.256 Y25.415
X25.255 Y25.377
X25.264 Y25.341
X25.281 Y25.308
X25.307 Y25.28
X25.338 Y25.26
X25.374 Y25.248
X25.411 Y25.245
X25.448 Y25.252
X25.516 Y25.284
X25.561 Y25.344
X25.573 Y25.418
X25.553 Y25.491
X25.507 Y25.549
X25.441 Y25.585
X25.366 Y25.593
X25.294 Y25.573
X25.235 Y25.527
X25.196 Y25.462
X25.183 Y25.388
X25.196 Y25.315
X25.234 Y25.25
X25.292 Y25.202
X25.362 Y25.175
X25.437 Y25.171
X25.509 Y25.191
X25.572 Y25.232
X25.619 Y25.29
X25.644 Y25.361
X25.649 Y25.436
X25.632 Y25.509
X25.594 Y25.573
X25.539 Y25.625
X25.473 Y25.66
X25.4 Y25.676
X25.325 Y25.67
X25.254 Y25.645
X25.192 Y25.603
X25.144 Y25.545
X25.113 Y25.477
X25.098 Y25.403
X25.103 Y25.329
X25.127 Y25.257
X25.208 Y25.131
X25.341 Y25.062
X25.491 Y25.061
X25.628 Y25.123
X25.727 Y25.236
X25.771 Y25.379
X25.757 Y25.528
X25.684 Y25.66
X25.569 Y25.755
X25.426 Y25.801
X25.276 Y25.79
X25.14 Y25.726
X25.037 Y25.617
X24.978 Y25.48
X24.97 Y25.33
X25.007 Y25.184
X25.093 Y25.061
X25.213 Y24.971
X25.355 Y24.924
X25.505 Y24.925
X25.646 Y24.976
X25.767 Y25.064
X25.857 Y25.185
X25.905 Y25.327
X25.908 Y25.477
X25.871 Y25.622
X25.794 Y25.751
X25.684 Y25.853
X25.549 Y25.918
X25.401 Y25.946
X25.252 Y25.934
X25.112 Y25.88
X24.993 Y25.789
X24.899 Y25.672
X24.839 Y25.534
X24.816 Y25.386
X24.832 Y25.237
X24.884 Y25.096
X24.968 Y24.972
X25.08 Y24.872
X25.214 Y24.805
X25.36 Y24.77
X25.51 Y24.771
X25.655 Y24.808
X25.788 Y24.878
X25.9 Y24.978
X25.988 Y25.099
X26.046 Y25.237
X26.071 Y25.385
X26.061 Y25.535
X26.021 Y25.679
X25.95 Y25.812
X25.851 Y25.925
X25.73 Y26.013
X25.593 Y26.074
X25.447 Y26.107
X25.297
X25.151 Y26.074
X25.014 Y26.011
X24.893 Y25.923
X24.792 Y25.812
X24.715 Y25.683
X24.668 Y25.541
X24.649 Y25.392
X24.659 Y25.242
X24.697 Y25.097
X24.763 Y24.962
X24.854 Y24.844
X24.967 Y24.745
X25.096 Y24.668
X25.237 Y24.617
X25.385 Y24.594
X25.535 Y24.601
X25.681 Y24.635
X25.819 Y24.694
X25.944 Y24.777
X26.051 Y24.882
X26.137 Y25.005
X26.199 Y25.141
X26.237 Y25.287
X26.249 Y25.436
X26.235 Y25.585
X26.193 Y25.73
X26.128 Y25.865
X26.041 Y25.987
X25.933 Y26.092
X25.81 Y26.177
X25.673 Y26.239
X25.529 Y26.278
X25.379 Y26.292
X25.23 Y26.281
X25.084 Y26.244
X24.947 Y26.184
X24.821 Y26.102
X24.71 Y26.002
X24.617 Y25.884
X24.544 Y25.753
X24.494 Y25.611
X24.467 Y25.464
X24.463 Y25.314
X24.482 Y25.165
X24.525 Y25.021
X24.59 Y24.886
X24.676 Y24.763
X24.779 Y24.654
X24.898 Y24.562
X25.029 Y24.49
X25.17 Y24.439
X25.317 Y24.411
X25.467 Y24.405
X25.616 Y24.421
X25.761 Y24.458
X25.899 Y24.518
X26.026 Y24.598
X26.14 Y24.696
X26.238 Y24.809
X26.32 Y24.935
X26.382 Y25.071
X26.423 Y25.216
X26.442 Y25.364
X26.44 Y25.514
X26.418 Y25.663
X26.374 Y25.806
X26.311 Y25.942
X26.228 Y26.067
X26.129 Y26.18
X26.015 Y26.278
X25.889 Y26.359
X25.753 Y26.422
X25.609 Y26.465
X25.461 Y26.487
X25.311 Y26.489
X25.162 Y26.471
X25.017 Y26.432
X24.878 Y26.375
X24.749 Y26.299
X24.631 Y26.206
X24.527 Y26.098
X24.438 Y25.978
X24.365 Y25.847
X24.31 Y25.707
X24.275 Y25.561
X24.259 Y25.412
X24.262 Y25.262
X24.284 Y25.114
X24.326 Y24.97
X24.386 Y24.832
X24.464 Y24.704
X24.557 Y24.586
X24.664 Y24.481
X24.784 Y24.391
X24.914 Y24.316
X25.053 Y24.259
X25.197 Y24.22
X25.346 Y24.2
X25.496 Y24.198
X25.645 Y24.214
X25.791 Y24.249
X25.931 Y24.302
X26.064 Y24.372
X26.187 Y24.458
X26.299 Y24.558
X26.398 Y24.671
X26.482 Y24.795
X26.551 Y24.928
X26.602 Y25.069
X26.637 Y25.215
X26.654 Y25.364
X26.653 Y25.514
X26.635 Y25.663
X26.599 Y25.809
X26.545 Y25.949
X26.475 Y26.081
X26.39 Y26.205
X26.292 Y26.319
X26.182 Y26.42
X26.06 Y26.507
X25.928 Y26.58
X25.789 Y26.636
X25.645 Y26.676
X25.496 Y26.699
X25.347 Y26.706
X25.197 Y26.695
X25.05 Y26.667
X24.907 Y26.622
X24.769 Y26.561
X24.64 Y26.486
X24.52 Y26.396
X24.41 Y26.294
X24.313 Y26.18
X24.229 Y26.055
X24.16 Y25.922
X24.106 Y25.782
X24.067 Y25.637
X24.044 Y25.489
X24.038 Y25.339
X24.049 Y25.189
X24.076 Y25.042
X24.119 Y24.898
X24.177 Y24.76
X24.249 Y24.628
X24.335 Y24.506
X24.434 Y24.393
X24.545 Y24.292
X24.666 Y24.203
X24.796 Y24.128
X24.933 Y24.067
X25.076 Y24.021
X25.222 Y23.99
X25.372 Y23.975
X25.522 Y23.976
X25.671 Y23.993
X25.817 Y24.025
X25.96 Y24.072
X26.096 Y24.134
X26.226 Y24.209
X26.347 Y24.298
X26.457 Y24.399
X26.558 Y24.511
X26.646 Y24.632
X26.721 Y24.762
X26.782 Y24.899
X26.829 Y25.041
X26.862 Y25.188
X26.879 Y25.337
X26.881 Y25.487
X26.869 Y25.636
X26.841 Y25.784
X26.798 Y25.927
X26.741 Y26.066
X26.671 Y26.199
X26.587 Y26.323
X26.492 Y26.439
X26.386 Y26.545
X26.27 Y26.64
X26.145 Y26.723
X26.012 Y26.793
X25.873 Y26.849
X25.729 Y26.892
X25.582 Y26.92
X25.433 Y26.935
X25.283 Y26.934
X25.133 Y26.919
X24.987 Y26.888
X24.843 Y26.844
X24.705 Y26.787
X24.572 Y26.716
X24.447 Y26.634
X24.33 Y26.539
X24.224 Y26.434
X24.128 Y26.319
X24.043 Y26.195
X23.97 Y26.064
X23.91 Y25.926
X23.863 Y25.784
X23.829 Y25.638
X23.81 Y25.489
X23.805 Y25.339
X23.814 Y25.189
X23.837 Y25.041
X23.873 Y24.896
X23.922 Y24.754
X23.985 Y24.618
X24.06 Y24.488
X24.147 Y24.365
X24.245 Y24.252
X24.353 Y24.148
X24.47 Y24.054
X24.594 Y23.97
X24.726 Y23.899
X24.864 Y23.84
X25.007 Y23.794
X25.154 Y23.762
X25.302 Y23.743
X25.452 Y23.737
X25.602 Y23.745
X25.751 Y23.766
X25.897 Y23.8
X26.039 Y23.848
X26.176 Y23.908
X26.308 Y23.98
X26.432 Y24.064
X26.549 Y24.158
X26.657 Y24.262
X26.755 Y24.375
X26.843 Y24.497
X26.919 Y24.626
X26.984 Y24.761
X27.037 Y24.902
X27.078 Y25.046
X27.105 Y25.194
X27.12 Y25.343
X27.122 Y25.493
X27.11 Y25.642
X27.085 Y25.79
X27.048 Y25.936
X26.999 Y26.077
X26.937 Y26.214
X26.864 Y26.345
X26.78 Y26.469
X26.686 Y26.586
X26.581 Y26.694
X26.468 Y26.792
X26.347 Y26.881
X26.219 Y26.959
X26.085 Y27.026
X25.945 Y27.081
X25.802 Y27.124
X25.655 Y27.155
X25.506 Y27.173
X25.356 Y27.179
X25.206 Y27.172
X25.057 Y27.152
X24.911 Y27.121
X24.767 Y27.077
X24.628 Y27.021
X24.494 Y26.953
X24.366 Y26.875
X24.245 Y26.786
X24.132 Y26.688
X24.027 Y26.581
X23.931 Y26.465
X23.846 Y26.342
X23.77 Y26.213
X23.706 Y26.077
X23.653 Y25.937
X23.611 Y25.793
X23.581 Y25.646
X23.564 Y25.497
X23.558 Y25.347
X23.565 Y25.197
X23.584 Y25.048
X23.615 Y24.901
X23.658 Y24.758
X23.712 Y24.618
X23.777 Y24.483
X23.853 Y24.353
X23.939 Y24.23
X24.034 Y24.115
X24.139 Y24.007
X24.252 Y23.908
X24.372 Y23.819
X24.499 Y23.739
X24.632 Y23.669
X24.77 Y23.61
X24.912 Y23.563
X25.058 Y23.527
X25.206 Y23.503
X25.355 Y23.49
X25.505 Y23.489
X25.655 Y23.499
X25.803 Y23.522
X25.949 Y23.556
X26.092 Y23.601
X26.231 Y23.658
X26.365 Y23.725
X26.494 Y23.802
X26.616 Y23.889
X26.732 Y23.985
X26.839 Y24.089
X26.938 Y24.202
X27.028 Y24.322
X27.108 Y24.449
X27.178 Y24.582
X27.238 Y24.719
X27.288 Y24.861
X27.327 Y25.005
X27.354 Y25.153
X27.37 Y25.302
X27.375 Y25.452
X27.368 Y25.602
X27.349 Y25.751
X27.32 Y25.898
X27.28 Y26.042
X27.229 Y26.183
X27.167 Y26.32
X27.096 Y26.452
X27.014 Y26.578
X26.923 Y26.697
X26.824 Y26.809
X26.716 Y26.914
X26.601 Y27.01
X26.479 Y27.098
X26.351 Y27.176
X26.218 Y27.245
X26.08 Y27.303
X25.937 Y27.35
X25.792 Y27.387
X25.644 Y27.414
X25.495 Y27.429
X25.345 Y27.434
X25.195 Y27.427
X25.046 Y27.41
X24.899 Y27.381
X24.755 Y27.341
X24.613 Y27.291
X24.476 Y27.231
X24.343 Y27.161
X24.216 Y27.082
X24.094 Y26.994
X23.98 Y26.897
X23.873 Y26.792
X23.773 Y26.679
X23.683 Y26.56
X23.601 Y26.434
X23.528 Y26.303
X23.465 Y26.167
X23.411 Y26.027
X23.368 Y25.883
X23.336 Y25.737
X23.314 Y25.589
X23.303 Y25.439
X23.302 Y25.289
X23.312 Y25.139
X23.332 Y24.991
X23.363 Y24.844
X23.405 Y24.7
X23.456 Y24.559
X23.517 Y24.422
X23.588 Y24.29
X23.669 Y24.163
X23.758 Y24.042
X23.855 Y23.928
X23.959 Y23.82
X24.071 Y23.721
X24.19 Y23.629
X24.315 Y23.546
X24.445 Y23.472
X24.581 Y23.407
X24.72 Y23.352
X24.863 Y23.307
X25.009 Y23.272
X25.157 Y23.246
X25.306 Y23.231
X25.456 Y23.227
X25.606 Y23.233
X25.755 Y23.249
X25.903 Y23.276
X26.048 Y23.313
X26.191 Y23.36
X26.33 Y23.416
X26.465 Y23.481
X26.595 Y23.556
X26.72 Y23.639
X26.838 Y23.731
X26.95 Y23.831
X27.055 Y23.938
X27.153 Y24.052
X27.242 Y24.172
X27.324 Y24.298
X27.396 Y24.43
X27.46 Y24.565
X27.514 Y24.705
X27.558 Y24.849
X27.593 Y24.995
X27.618 Y25.142
X27.633 Y25.292
X27.638 Y25.442
X27.632 Y25.592
X27.617 Y25.741
X27.592 Y25.889
X27.557 Y26.035
X27.513 Y26.178
X27.458 Y26.318
X27.395 Y26.454
X27.323 Y26.585
X27.242 Y26.712
X27.153 Y26.832
X27.057 Y26.947
X26.953 Y27.055
X26.842 Y27.156
X26.724 Y27.249
X26.601 Y27.335
X26.472 Y27.412
X26.339 Y27.48
X26.201 Y27.54
X26.06 Y27.59
X25.916 Y27.631
X25.769 Y27.663
X25.62 Y27.685
X25.471 Y27.697
X25.321 Y27.699
X25.171 Y27.691
X25.022 Y27.674
X24.875 Y27.648
X24.729 Y27.611
X24.586 Y27.566
X24.446 Y27.511
X24.311 Y27.447
X24.179 Y27.375
X24.053 Y27.294
X23.932 Y27.205
X23.817 Y27.109
X23.708 Y27.006
X23.606 Y26.895
X23.512 Y26.779
X23.425 Y26.657
X23.346 Y26.529
X23.276 Y26.397
X23.214 Y26.26
X23.161 Y26.12
X23.116 Y25.976
X23.081 Y25.831
X23.056 Y25.683
X23.039 Y25.534
X23.033 Y25.384
X23.036 Y25.234
X23.048 Y25.084
X23.07 Y24.936
X23.1 Y24.789
X23.14 Y24.645
X23.189 Y24.503
X23.247 Y24.364
X23.314 Y24.23
X23.389 Y24.1
X23.472 Y23.975
X23.562 Y23.855
X23.66 Y23.742
X23.764 Y23.634
X23.876 Y23.533
X23.993 Y23.44
X24.115 Y23.353
X24.243 Y23.275
X24.376 Y23.205
X24.513 Y23.143
X24.653 Y23.09
X24.796 Y23.045
X24.942 Y23.01
X25.089 Y22.983
X25.238 Y22.965
X25.388 Y22.957
X25.538 Y22.958
X25.688 Y22.969
X25.837 Y22.988
X25.984 Y23.017
X26.129 Y23.054
X26.272 Y23.101
X26.411 Y23.155
X26.547 Y23.219
X26.679 Y23.29
X26.807 Y23.369
X26.929 Y23.456
X27.045 Y23.551
X27.156 Y23.652
X27.26 Y23.76
X27.358 Y23.874
X27.449 Y23.993
X27.532 Y24.118
X27.608 Y24.247
X27.676 Y24.381
X27.735 Y24.519
X27.786 Y24.66
X27.828 Y24.804
X27.862 Y24.95
X27.887 Y25.098
X27.903 Y25.247
X27.91 Y25.397
X27.908 Y25.547
X27.898 Y25.697
X27.878 Y25.845
X27.849 Y25.992
X27.812 Y26.138
X27.766 Y26.28
X27.712 Y26.42
X27.649 Y26.557
X27.579 Y26.689
X27.501 Y26.817
X27.416 Y26.941
X27.323 Y27.059
X27.223 Y27.171
X27.117 Y27.277
X27.005 Y27.376
X26.887 Y27.469
X26.764 Y27.555
X26.637 Y27.634
X26.504 Y27.705
X26.368 Y27.768
X26.229 Y27.823
X26.086 Y27.87
X25.941 Y27.908
X25.794 Y27.937
X25.646 Y27.958
X25.496 Y27.97
X25.346 Y27.974
X25.196 Y27.969
X25.047 Y27.955
X24.898 Y27.933
X24.752 Y27.902
X24.607 Y27.863
X24.465 Y27.815
X24.326 Y27.759
X24.19 Y27.695
X24.058 Y27.623
X23.931 Y27.544
X23.808 Y27.458
X23.69 Y27.365
X23.578 Y27.265
X23.472 Y27.159
X23.372 Y27.047
X23.279 Y26.93
X23.193 Y26.807
X23.114 Y26.679
X23.042 Y26.548
X22.978 Y26.412
X22.921 Y26.273
X22.873 Y26.131
X22.833 Y25.987
X22.801 Y25.84
X22.777 Y25.692
X22.762 Y25.543
X22.756 Y25.393
X22.758 Y25.243
X22.768 Y25.093
X22.787 Y24.944
X22.814 Y24.797
X22.849 Y24.651
X22.893 Y24.508
X22.944 Y24.367
X23.004 Y24.229
X23.071 Y24.095
X23.146 Y23.965
X23.227 Y23.839
X23.316 Y23.718
X23.411 Y23.602
X23.513 Y23.492
X23.62 Y23.387
X23.733 Y23.289
X23.852 Y23.197
X23.976 Y23.112
X24.104 Y23.034
X24.236 Y22.963
X24.372 Y22.9
X24.511 Y22.844
X24.653 Y22.796
X24.798 Y22.756
X24.945 Y22.724
X25.093 Y22.7
X25.242 Y22.685
X25.392 Y22.678
X25.542 Y22.679
X25.691 Y22.689
X25.84 Y22.706
X25.988 Y22.732
X26.134 Y22.765
X26.278 Y22.807
X26.42 Y22.857
X26.559 Y22.914
X26.694 Y22.979
X26.825 Y23.051
X26.953 Y23.13
X27.075 Y23.217
X27.193 Y23.309
X27.306 Y23.408
X27.413 Y23.513
X27.515 Y23.623
X27.61 Y23.739
X27.699 Y23.86
X27.781 Y23.986
X27.856 Y24.116
X27.924 Y24.25
X27.984 Y24.387
X28.037 Y24.527
X28.083 Y24.67
X28.121 Y24.815
X28.151 Y24.962
X28.173 Y25.111
X28.186 Y25.26
X28.192 Y25.41
X28.19 Y25.56
X28.179 Y25.709
X28.161 Y25.858
X28.134 Y26.006
X28.1 Y26.152
X28.058 Y26.296
X28.009 Y26.438
X27.952 Y26.576
X27.888 Y26.712
X27.816 Y26.844
X27.738 Y26.971
X27.652 Y27.095
X27.561 Y27.214
X27.463 Y27.327
X27.359 Y27.436
X27.25 Y27.539
X27.135 Y27.635
X27.016 Y27.726
X26.892 Y27.81
X26.763 Y27.888
X26.631 Y27.958
X26.495 Y28.021
X26.356 Y28.078
X26.214 Y28.126
X26.07 Y28.168
X25.923 Y28.201
X25.776 Y28.227
X25.627 Y28.245
X25.477 Y28.256
X25.327 Y28.258
X25.177 Y28.252
X25.028 Y28.239
X24.879 Y28.218
X24.732 Y28.189
X24.587 Y28.152
X24.443 Y28.108
X24.302 Y28.057
X24.164 Y27.998
X24.03 Y27.932
X23.898 Y27.859
X23.771 Y27.78
X23.648 Y27.694
X23.53 Y27.601
X23.417 Y27.503
X23.309 Y27.399
X23.206 Y27.29
X23.109 Y27.175
X23.019 Y27.056
X22.934 Y26.932
X22.856 Y26.804
X22.785 Y26.672
X22.721 Y26.536
X22.663 Y26.397
X22.613 Y26.256
X22.571 Y26.112
X22.535 Y25.966
X22.508 Y25.819
X22.487 Y25.67
X22.475 Y25.521
X22.47 Y25.371
X22.472 Y25.221
X22.483 Y25.071
X22.501 Y24.923
X22.527 Y24.775
X22.56 Y24.628
X22.6 Y24.484
X22.648 Y24.342
X22.703 Y24.202
X22.765 Y24.066
X22.833 Y23.932
X22.909 Y23.803
X22.991 Y23.677
X23.079 Y23.556
X23.174 Y23.439
X23.274 Y23.327
X23.379 Y23.221
X23.49 Y23.12
X23.606 Y23.024
X23.726 Y22.935
X23.851 Y22.851
X23.98 Y22.775
X24.112 Y22.704
X24.248 Y22.641
X24.387 Y22.584
X24.528 Y22.535
X24.672 Y22.492
X24.818 Y22.457
X24.965 Y22.429
X25.114 Y22.409
X25.264 Y22.396
X25.413 Y22.39
X25.563 Y22.392
X25.713 Y22.401
X25.862 Y22.418
X26.01 Y22.443
X26.157 Y22.474
X26.302 Y22.513
X26.444 Y22.559
X26.585 Y22.612
X26.722 Y22.672
X26.857 Y22.739
X26.988 Y22.812
X27.115 Y22.892
X27.238 Y22.978
X27.356 Y23.07
X27.47 Y23.167
X27.579 Y23.27
X27.683 Y23.378
X27.781 Y23.492
X27.874 Y23.61
X27.961 Y23.732
X28.041 Y23.858
X28.116 Y23.989
X28.183 Y24.123
X28.245 Y24.26
X28.299 Y24.399
X28.346 Y24.542
X28.387 Y24.686
X28.42 Y24.832
X28.447 Y24.98
X28.466 Y25.129
X28.477 Y25.278
X28.482 Y25.428
X28.479 Y25.578
X28.468 Y25.728
X28.451 Y25.877
X28.426 Y26.025
X28.394 Y26.171
X28.355 Y26.316
X28.309 Y26.459
X28.257 Y26.6
X28.197 Y26.737
X28.131 Y26.872
X28.059 Y27.003
X27.98 Y27.131
X27.895 Y27.254
X27.804 Y27.374
X27.708 Y27.489
X27.606 Y27.599
X27.499 Y27.704
X27.387 Y27.804
X27.271 Y27.898
X27.15 Y27.987
X27.025 Y28.07
X26.896 Y28.147
X26.763 Y28.217
X26.627 Y28.281
X26.489 Y28.338
X26.348 Y28.389
X26.204 Y28.433
X26.059 Y28.47
X25.912 Y28.5
X25.764 Y28.523
X25.614 Y28.539
X25.465 Y28.547
X25.315 Y28.549
X25.165 Y28.543
X25.015 Y28.531
X24.867 Y28.511
X24.719 Y28.484
X24.573 Y28.45
X24.429 Y28.41
X24.286 Y28.362
X24.146 Y28.308
X24.009 Y28.248
X23.875 Y28.181
X23.744 Y28.107
X23.617 Y28.028
X23.494 Y27.942
X23.374 Y27.851
X23.26 Y27.754
X23.15 Y27.653
X23.044 Y27.546
X22.944 Y27.434
X22.85 Y27.318
X22.76 Y27.197
X22.677 Y27.072
X22.599 Y26.944
X22.528 Y26.812
X22.463 Y26.677
X22.405 Y26.539
X22.352 Y26.398
X22.307 Y26.255
X22.268 Y26.11
X22.236 Y25.964
X22.211 Y25.816
X22.192 Y25.667
X22.181 Y25.517
X22.176 Y25.368
X22.179 Y25.218
X22.189 Y25.068
X22.205 Y24.919
X22.229 Y24.771
X22.259 Y24.624
X22.296 Y24.478
X22.34 Y24.335
X22.39 Y24.193
X22.447 Y24.055
X22.51 Y23.918
X22.579 Y23.785
X22.655 Y23.656
X22.736 Y23.53
X22.823 Y23.408
X22.916 Y23.29
X23.014 Y23.176
X23.117 Y23.067
X23.224 Y22.963
X23.337 Y22.864
X23.454 Y22.77
X23.575 Y22.681
X23.7 Y22.599
X23.829 Y22.522
X23.961 Y22.451
X24.097 Y22.386
X24.235 Y22.328
X24.375 Y22.275
X24.518 Y22.23
X24.663 Y22.191
X24.809 Y22.158
X24.957 Y22.132
X25.106 Y22.113
X25.255 Y22.101
X25.405 Y22.095
X25.555 Y22.097
X25.705 Y22.105
X25.854 Y22.12
X26.003 Y22.142
X26.15 Y22.17
X26.296 Y22.205
X26.44 Y22.247
X26.582 Y22.295
X26.722 Y22.349
X26.859 Y22.41
X26.993 Y22.477
X27.124 Y22.55
X27.252 Y22.629
X27.376 Y22.713
X27.496 Y22.803
X27.612 Y22.898
X27.723 Y22.999
X27.83 Y23.104
X27.932 Y23.214
X28.03 Y23.328
X28.121 Y23.447
X28.208 Y23.569
X28.289 Y23.696
X28.364 Y23.826
X28.433 Y23.959
X28.496 Y24.095
X28.553 Y24.234
X28.604 Y24.375
X28.648 Y24.518
X28.686 Y24.663
X28.718 Y24.81
X28.743 Y24.958
X28.761 Y25.106
X28.773 Y25.256
X28.778 Y25.406
X28.776 Y25.556
X28.768 Y25.706
X28.753 Y25.855
X28.731 Y26.003
X28.703 Y26.151
X28.669 Y26.297
X28.628 Y26.441
X28.581 Y26.583
X28.527 Y26.723
X28.467 Y26.861
X28.402 Y26.996
X28.33 Y27.128
X28.252 Y27.256
X28.169 Y27.381
X28.081 Y27.502
X27.987 Y27.619
X27.889 Y27.732
X27.785 Y27.841
X27.677 Y27.945
X27.564 Y28.044
X27.447 Y28.138
X27.326 Y28.227
X27.202 Y28.31
X27.073 Y28.388
X26.942 Y28.46
X26.807 Y28.526
X26.67 Y28.586
X26.53 Y28.64
X26.388 Y28.689
X26.244 Y28.73
X26.098 Y28.766
X25.951 Y28.795
X25.803 Y28.818
X25.654 Y28.834
X25.504 Y28.844
X25.354 Y28.847
X25.204 Y28.844
X25.054 Y28.834
X24.905 Y28.817
X24.757 Y28.795
X24.61 Y28.766
X24.464 Y28.73
X24.32 Y28.689
X24.178 Y28.641
X24.038 Y28.587
X23.901 Y28.526
X23.766 Y28.46
X23.634 Y28.389
X23.506 Y28.311
X23.381 Y28.228
X23.259 Y28.14
X23.142 Y28.047
X23.029 Y27.949
X22.919 Y27.846
X22.815 Y27.738
X22.715 Y27.626
X22.62 Y27.51
X22.53 Y27.39
X22.446 Y27.266
X22.367 Y27.138
X22.293 Y27.008
X22.225 Y26.874
X22.163 Y26.737
X22.107 Y26.598
X22.056 Y26.457
X22.012 Y26.314
X21.974 Y26.169
X21.942 Y26.022
X21.916 Y25.874
X21.897 Y25.726
X21.884 Y25.576
X21.878 Y25.426
Y25.276
X21.884 Y25.127
X21.897 Y24.977
X21.916 Y24.828
X21.941 Y24.68
X21.972 Y24.534
X22.01 Y24.388
X22.053 Y24.245
X22.103 Y24.103
X22.159 Y23.964
X22.22 Y23.827
X22.288 Y23.693
X22.361 Y23.562
X22.439 Y23.435
X22.523 Y23.31
X22.612 Y23.189
X22.706 Y23.072
X22.804 Y22.959
X22.908 Y22.851
X23.016 Y22.746
X23.128 Y22.647
X23.244 Y22.552
X23.364 Y22.462
X23.488 Y22.378
X23.615 Y22.298
X23.746 Y22.224
X23.879 Y22.156
X24.016 Y22.093
X24.154 Y22.036
X24.295 Y21.985
X24.438 Y21.939
X24.583 Y21.9
X24.729 Y21.867
X24.877 Y21.84
X25.025 Y21.819
X25.175 Y21.805
X25.325 Y21.796
X25.475 Y21.794
X25.624 Y21.798
X25.774 Y21.809
X25.923 Y21.825
X26.071 Y21.848
X26.219 Y21.877
X26.365 Y21.911
X26.509 Y21.952
X26.651 Y21.999
X26.792 Y22.052
X26.93 Y22.111
X27.065 Y22.175
X27.198 Y22.245
X27.328 Y22.32
X27.454 Y22.401
X27.577 Y22.487
X27.697 Y22.577
X27.813 Y22.673
X27.924 Y22.773
X28.032 Y22.877
X28.135 Y22.987
X28.233 Y23.1
X28.327 Y23.217
X28.415 Y23.338
X28.499 Y23.463
X28.577 Y23.59
X28.651 Y23.721
X28.718 Y23.855
X28.781 Y23.992
X28.837 Y24.13
X28.888 Y24.272
X28.933 Y24.415
X28.973 Y24.559
X29.006 Y24.706
X29.033 Y24.853
X29.054 Y25.002
X29.069 Y25.151
X29.078 Y25.301
X29.081 Y25.451
X29.077 Y25.601
X29.068 Y25.75
X29.053 Y25.9
X29.031 Y26.048
X29.004 Y26.195
X28.97 Y26.342
X28.931 Y26.486
X28.885 Y26.629
X28.834 Y26.77
X28.777 Y26.909
X28.715 Y27.046
X28.647 Y27.179
X28.574 Y27.31
X28.496 Y27.438
X28.412 Y27.563
X28.324 Y27.684
X28.231 Y27.802
X28.133 Y27.915
X28.03 Y28.025
X27.923 Y28.13
X27.812 Y28.231
X27.697 Y28.327
X27.579 Y28.419
X27.456 Y28.506
X27.33 Y28.587
X27.201 Y28.664
X27.07 Y28.735
X26.935 Y28.802
X26.798 Y28.862
X26.658 Y28.917
X26.517 Y28.967
X26.373 Y29.01
X26.228 Y29.048
X26.081 Y29.08
X25.934 Y29.106
X25.785 Y29.126
X25.636 Y29.141
X25.486 Y29.149
X25.336 Y29.151
X25.186 Y29.147
X25.036 Y29.138
X24.887 Y29.122
X24.739 Y29.101
X24.591 Y29.073
X24.445 Y29.04
X24.3 Y29.001
X24.157 Y28.956
X24.016 Y28.905
X23.877 Y28.849
X23.74 Y28.787
X23.606 Y28.72
X23.474 Y28.648
X23.346 Y28.571
X23.221 Y28.488
X23.099 Y28.401
X22.98 Y28.309
X22.866 Y28.212
X22.755 Y28.111
X22.648 Y28.005
X22.546 Y27.896
X22.448 Y27.782
X22.355 Y27.665
X22.266 Y27.544
X22.182 Y27.419
X22.103 Y27.292
X22.029 Y27.161
X21.96 Y27.028
X21.897 Y26.892
X21.839 Y26.754
X21.787 Y26.613
X21.74 Y26.471
X21.699 Y26.326
X21.663 Y26.181
X21.633 Y26.034
X21.609 Y25.886
X21.591 Y25.737
X21.579 Y25.587
X21.572 Y25.437
Y25.287
X21.577 Y25.137
X21.588 Y24.988
X21.605 Y24.839
X21.628 Y24.691
X21.656 Y24.543
X21.691 Y24.397
X21.731 Y24.253
X21.776 Y24.11
X21.827 Y23.969
X21.884 Y23.83
X21.946 Y23.693
X22.013 Y23.559
X22.085 Y23.428
X22.162 Y23.299
X22.245 Y23.174
X22.332 Y23.052
X22.424 Y22.933
X22.52 Y22.818
X22.621 Y22.707
X22.726 Y22.6
X22.835 Y22.497
X22.948 Y22.398
X23.064 Y22.304
X23.185 Y22.214
X23.308 Y22.129
X23.435 Y22.049
X23.565 Y21.974
X23.697 Y21.904
X23.833 Y21.839
X23.97 Y21.779
X24.11 Y21.725
X24.252 Y21.676
X24.396 Y21.633
X24.541 Y21.595
X24.687 Y21.563
X24.835 Y21.536
X24.983 Y21.515
X25.133 Y21.5
X25.282 Y21.491
X25.432 Y21.487
X25.582 Y21.489
X25.732 Y21.497
X25.881 Y21.511
X26.03 Y21.53
X26.178 Y21.555
X26.325 Y21.586
X26.47 Y21.622
X26.615 Y21.664
X26.757 Y21.711
X26.897 Y21.764
X27.036 Y21.821
X27.172 Y21.885
X27.305 Y21.953
X27.436 Y22.027
X27.564 Y22.105
X27.689 Y22.188
X27.81 Y22.276
X27.928 Y22.368
X28.043 Y22.465
X28.154 Y22.566
X28.261 Y22.672
X28.363 Y22.781
X28.462 Y22.894
X28.556 Y23.011
X28.646 Y23.131
X28.731 Y23.254
X28.811 Y23.381
X28.887 Y23.511
X28.957 Y23.643
X29.023 Y23.778
X29.083 Y23.915
X29.138 Y24.055
X29.188 Y24.196
X29.232 Y24.34
X29.271 Y24.485
X29.305 Y24.631
X29.333 Y24.778
X29.355 Y24.926
X29.372 Y25.075
X29.383 Y25.225
X29.389 Y25.375
X29.388 Y25.525
X29.383 Y25.675
X29.371 Y25.824
X29.354 Y25.973
X29.332 Y26.122
X29.303 Y26.269
X29.27 Y26.415
X29.231 Y26.56
X29.186 Y26.703
X29.136 Y26.845
X29.081 Y26.984
X29.021 Y27.122
X28.955 Y27.257
X28.885 Y27.389
X28.81 Y27.519
X28.73 Y27.646
X28.645 Y27.769
X28.555 Y27.89
X28.462 Y28.007
X28.364 Y28.12
X28.261 Y28.23
X28.155 Y28.336
X28.045 Y28.438
X27.931 Y28.536
X27.814 Y28.629
X27.693 Y28.718
X27.569 Y28.802
X27.442 Y28.882
X27.312 Y28.957
X27.179 Y29.027
X27.044 Y29.092
X26.907 Y29.152
X26.767 Y29.207
X26.626 Y29.257
X26.482 Y29.301
X26.337 Y29.34
X26.191 Y29.374
X26.044 Y29.402
X25.896 Y29.425
X25.747 Y29.442
X25.597 Y29.454
X25.447 Y29.46
X25.297 Y29.461
X25.146 Y29.456
X24.996 Y29.445
X24.847 Y29.429
X24.698 Y29.408
X24.551 Y29.381
X24.404 Y29.349
X24.259 Y29.311
X24.115 Y29.268
X23.973 Y29.22
X23.832 Y29.166
X23.693 Y29.107
X23.556 Y29.043
X23.422 Y28.974
X23.29 Y28.9
X23.161 Y28.821
X23.035 Y28.737
X22.912 Y28.649
X22.793 Y28.556
X22.677 Y28.46
X22.565 Y28.359
X22.457 Y28.254
X22.353 Y28.145
X22.252 Y28.032
X22.156 Y27.915
X22.063 Y27.795
X21.976 Y27.671
X21.893 Y27.544
X21.814 Y27.413
X21.74 Y27.28
X21.672 Y27.144
X21.608 Y27.006
X21.549 Y26.865
X21.496 Y26.723
X21.448 Y26.578
X21.405 Y26.433
X21.368 Y26.285
X21.336 Y26.137
X21.31 Y25.987
X21.289 Y25.837
X21.274 Y25.685
X21.264 Y25.533
X21.26 Y25.38
X21.262 Y25.227
X21.269 Y25.074
X21.282 Y24.922
X21.3 Y24.769
X21.324 Y24.618
X21.354 Y24.467
X21.39 Y24.317
X21.43 Y24.169
X21.476 Y24.023
X21.528 Y23.878
X21.584 Y23.736
X21.646 Y23.597
X21.713 Y23.459
X21.785 Y23.324
X21.862 Y23.192
X21.944 Y23.062
X22.031 Y22.935
X22.123 Y22.811
X22.219 Y22.691
X22.32 Y22.574
X22.425 Y22.46
X22.534 Y22.351
X22.647 Y22.246
X22.764 Y22.145
X22.885 Y22.048
X23.009 Y21.956
X23.137 Y21.868
X23.267 Y21.785
X23.401 Y21.707
X23.537 Y21.635
X23.676 Y21.567
X23.817 Y21.504
X23.96 Y21.447
X24.106 Y21.395
X24.253 Y21.348
X24.403 Y21.307
X24.554 Y21.271
X24.706 Y21.241
X24.859 Y21.216
X25.013 Y21.197
X25.168 Y21.184
X25.324 Y21.176
X25.479 Y21.174
X25.635 Y21.178
X25.791 Y21.188
X25.946 Y21.203
X26.101 Y21.224
X26.255 Y21.251
X26.408 Y21.284
X26.56 Y21.322
X26.71 Y21.365
X26.858 Y21.415
X27.005 Y21.469
X27.149 Y21.529
X27.291 Y21.594
X27.43 Y21.665
X27.567 Y21.74
X27.701 Y21.821
X27.832 Y21.906
X27.96 Y21.996
X28.085 Y22.091
X28.206 Y22.191
X28.323 Y22.295
X28.437 Y22.404
X28.546 Y22.516
X28.651 Y22.633
X28.752 Y22.753
X28.849 Y22.877
X28.941 Y23.005
X29.028 Y23.136
X29.111 Y23.271
X29.188 Y23.408
X29.261 Y23.549
X29.328 Y23.692
X29.39 Y23.837
X29.447 Y23.985
X29.498 Y24.134
X29.543 Y24.285
X29.583 Y24.438
X29.618 Y24.593
X29.646 Y24.748
X29.669 Y24.905
X29.686 Y25.063
X29.697 Y25.221
X29.703 Y25.379
Y25.538
X29.696 Y25.697
X29.684 Y25.856
X29.666 Y26.013
X29.642 Y26.171
X29.613 Y26.326
X29.578 Y26.481
X29.537 Y26.635
X29.49 Y26.787
X29.438 Y26.937
X29.38 Y27.085
X29.317 Y27.232
X29.248 Y27.375
X29.174 Y27.517
X29.095 Y27.656
X29.011 Y27.791
X28.922 Y27.924
X28.828 Y28.053
X28.729 Y28.178
X28.626 Y28.3
X28.519 Y28.418
X28.407 Y28.532
X28.29 Y28.641
X28.17 Y28.747
X28.046 Y28.848
X27.918 Y28.945
X27.786 Y29.037
X27.651 Y29.124
X27.513 Y29.206
X27.372 Y29.283
X27.228 Y29.354
X27.082 Y29.421
X26.934 Y29.481
X26.783 Y29.537
X26.63 Y29.586
X26.475 Y29.631
X26.319 Y29.669
X26.161 Y29.702
X26.002 Y29.729
X25.842 Y29.75
X25.681 Y29.765
X25.52 Y29.774
X25.358 Y29.777
X25.196 Y29.774
X25.035 Y29.766
X24.875 Y29.751
X24.715 Y29.73
X24.555 Y29.704
X24.397 Y29.672
X24.239 Y29.633
X24.083 Y29.589
X23.929 Y29.54
X23.777 Y29.484
X23.626 Y29.423
X23.478 Y29.356
X23.332 Y29.284
X23.189 Y29.207
X23.049 Y29.124
X22.912 Y29.036
X22.779 Y28.944
X22.649 Y28.846
X22.523 Y28.744
X22.4 Y28.637
X22.281 Y28.525
X22.167 Y28.41
X22.057 Y28.289
X21.951 Y28.165
X21.85 Y28.037
X21.753 Y27.905
X21.661 Y27.77
X21.575 Y27.631
X21.493 Y27.489
X21.417 Y27.344
X21.346 Y27.197
X21.281 Y27.047
X21.221 Y26.894
X21.167 Y26.74
X21.118 Y26.584
X21.076 Y26.425
X21.039 Y26.266
X21.008 Y26.105
X20.983 Y25.943
X20.964 Y25.78
X20.951 Y25.616
X20.944 Y25.451
X20.943 Y25.287
X20.948 Y25.122
X20.96 Y24.958
X20.977 Y24.794
X21 Y24.63
X21.03 Y24.468
X21.065 Y24.307
X21.106 Y24.147
X21.153 Y23.989
X21.206 Y23.833
X21.265 Y23.679
X21.329 Y23.528
X21.399 Y23.378
X21.474 Y23.231
X21.555 Y23.087
X21.641 Y22.946
X21.733 Y22.808
X21.829 Y22.673
X21.931 Y22.542
X22.037 Y22.414
X22.148 Y22.291
X22.263 Y22.171
X22.383 Y22.056
X22.507 Y21.946
X22.635 Y21.84
X22.767 Y21.738
X22.903 Y21.642
X23.041 Y21.551
X23.184 Y21.465
X23.329 Y21.384
X23.477 Y21.309
X23.628 Y21.239
X23.782 Y21.175
X23.938 Y21.116
X24.096 Y21.064
X24.256 Y21.017
X24.417 Y20.976
X24.58 Y20.94
X24.745 Y20.911
X24.91 Y20.888
X25.077 Y20.871
X25.244 Y20.861
X25.411 Y20.856
X25.579 Y20.857
X25.746 Y20.865
X25.913 Y20.879
X26.08 Y20.899
X26.246 Y20.925
X26.411 Y20.958
X26.574 Y20.996
X26.736 Y21.04
X26.896 Y21.091
X27.055 Y21.147
X27.211 Y21.209
X27.364 Y21.276
X27.516 Y21.35
X27.664 Y21.429
X27.81 Y21.513
X27.952 Y21.603
X28.091 Y21.698
X28.227 Y21.798
X28.358 Y21.903
X28.486 Y22.013
X28.61 Y22.127
X28.73 Y22.246
X28.845 Y22.37
X28.956 Y22.497
X29.061 Y22.629
X29.163 Y22.765
X29.259 Y22.905
X29.349 Y23.048
X29.435 Y23.194
X29.515 Y23.343
X29.59 Y23.496
X29.659 Y23.651
X29.722 Y23.808
X29.78 Y23.968
X29.831 Y24.13
X29.877 Y24.293
X29.916 Y24.459
X29.949 Y24.625
X29.977 Y24.793
X29.998 Y24.962
X30.012 Y25.132
X30.021 Y25.302
X30.023 Y25.473
X30.019 Y25.643
X30.009 Y25.814
X29.992 Y25.983
X29.969 Y26.152
X29.94 Y26.32
X29.905 Y26.487
X29.864 Y26.653
X29.816 Y26.817
X29.763 Y26.98
X29.703 Y27.14
X29.638 Y27.298
X29.567 Y27.454
X29.49 Y27.607
X29.407 Y27.757
X29.319 Y27.904
X29.226 Y28.047
X29.127 Y28.187
X29.023 Y28.324
X28.914 Y28.456
X28.801 Y28.585
X28.682 Y28.709
X28.559 Y28.829
X28.432 Y28.945
X28.3 Y29.055
X28.164 Y29.161
X28.025 Y29.262
X27.882 Y29.358
X27.735 Y29.448
X27.585 Y29.533
X27.432 Y29.612
X27.276 Y29.686
X27.118 Y29.753
X26.957 Y29.815
X26.793 Y29.871
X26.628 Y29.921
X26.461 Y29.965
X26.292 Y30.003
X26.122 Y30.035
X25.95 Y30.06
X25.778 Y30.079
X25.605 Y30.091
X25.432 Y30.097
X25.259
X25.086 Y30.091
X24.913 Y30.078
X24.741 Y30.058
X24.569 Y30.032
X24.398 Y30
X24.229 Y29.962
X24.061 Y29.917
X23.894 Y29.867
X23.73 Y29.81
X23.567 Y29.747
X23.407 Y29.678
X23.25 Y29.603
X23.096 Y29.523
X22.944 Y29.436
X22.796 Y29.345
X22.651 Y29.247
X22.51 Y29.145
X22.373 Y29.037
X22.239 Y28.925
X22.11 Y28.807
X21.985 Y28.684
X21.865 Y28.558
X21.749 Y28.426
X21.639 Y28.29
X21.533 Y28.151
X21.432 Y28.007
X21.337 Y27.86
X21.247 Y27.709
X21.163 Y27.555
X21.085 Y27.398
X21.012 Y27.239
X20.945 Y27.076
X20.885 Y26.912
X20.83 Y26.745
X20.782 Y26.576
X20.74 Y26.405
X20.704 Y26.233
X20.674 Y26.059
X20.651 Y25.885
X20.634 Y25.709
X20.624 Y25.533
X20.62 Y25.357
X20.623 Y25.18
X20.632 Y25.004
X20.648 Y24.828
X20.671 Y24.653
X20.699 Y24.479
X20.734 Y24.305
X20.776 Y24.134
X20.824 Y23.964
X20.878 Y23.795
X20.938 Y23.629
X21.004 Y23.465
X21.077 Y23.304
X21.155 Y23.145
X21.239 Y22.989
X21.329 Y22.836
X21.425 Y22.686
X21.526 Y22.54
X21.632 Y22.398
X21.744 Y22.26
X21.861 Y22.126
X21.982 Y21.996
X22.109 Y21.871
X22.24 Y21.75
X22.375 Y21.635
X22.514 Y21.524
X22.658 Y21.419
X22.805 Y21.319
X22.956 Y21.224
X23.111 Y21.135
X23.268 Y21.052
X23.429 Y20.974
X23.592 Y20.903
X23.758 Y20.838
X23.927 Y20.778
X24.097 Y20.725
X24.27 Y20.678
X24.444 Y20.638
X24.62 Y20.604
X24.797 Y20.577
X24.975 Y20.556
X25.153 Y20.541
X25.333 Y20.533
X25.512 Y20.532
X25.691 Y20.538
X25.871 Y20.55
X26.049 Y20.568
X26.227 Y20.594
X26.404 Y20.625
X26.58 Y20.664
X26.754 Y20.708
X26.926 Y20.76
X27.097 Y20.817
X27.265 Y20.881
X27.431 Y20.951
X27.594 Y21.027
X27.754 Y21.109
X27.912 Y21.197
X28.066 Y21.29
X28.216 Y21.39
X28.363 Y21.494
X28.506 Y21.605
X28.645 Y21.72
X28.779 Y21.841
X28.909 Y21.966
X29.035 Y22.096
X29.155 Y22.231
X29.271 Y22.371
X29.381 Y22.514
X29.487 Y22.662
X29.586 Y22.813
X29.68 Y22.968
X29.769 Y23.127
X29.851 Y23.289
X29.927 Y23.453
X29.998 Y23.621
X30.062 Y23.791
X30.12 Y23.963
X30.171 Y24.138
X30.216 Y24.314
X30.255 Y24.492
X30.287 Y24.671
X30.312 Y24.852
X30.331 Y25.033
X30.343 Y25.215
X30.348 Y25.397
X30.347 Y25.58
X30.339 Y25.762
X30.324 Y25.944
X30.302 Y26.125
X30.274 Y26.305
X30.239 Y26.485
X30.197 Y26.663
X30.149 Y26.839
X30.095 Y27.014
X30.034 Y27.186
X29.967 Y27.357
X29.893 Y27.524
X29.813 Y27.689
X29.728 Y27.851
X29.636 Y28.01
X29.538 Y28.165
X29.435 Y28.316
X29.326 Y28.464
X29.212 Y28.608
X29.093 Y28.747
X28.968 Y28.882
X28.839 Y29.013
X28.704 Y29.138
X28.565 Y29.259
X28.422 Y29.375
X28.274 Y29.485
X28.123 Y29.589
X27.968 Y29.688
X27.809 Y29.782
X27.646 Y29.869
X27.481 Y29.95
X27.312 Y30.026
X27.141 Y30.095
X26.967 Y30.157
X26.791 Y30.214
X26.613 Y30.263
X26.434 Y30.306
X26.252 Y30.343
X26.07 Y30.373
X25.886 Y30.396
X25.701 Y30.412
X25.517 Y30.422
X25.331 Y30.424
X25.146 Y30.42
X24.961 Y30.409
X24.776 Y30.392
X24.592 Y30.367
X24.409 Y30.336
X24.227 Y30.297
X24.047 Y30.253
X23.868 Y30.201
X23.691 Y30.143
X23.517 Y30.079
X23.345 Y30.008
X23.175 Y29.93
X23.009 Y29.847
X22.846 Y29.757
X22.686 Y29.662
X22.529 Y29.56
X22.377 Y29.453
X22.228 Y29.34
X22.083 Y29.222
X21.943 Y29.098
X21.808 Y28.97
X21.677 Y28.836
X21.551 Y28.698
X21.431 Y28.554
X21.315 Y28.407
X21.206 Y28.255
X21.101 Y28.1
X21.003 Y27.94
X20.911 Y27.777
X20.824 Y27.611
X20.744 Y27.442
X20.67 Y27.269
X20.602 Y27.094
X20.541 Y26.917
X20.486 Y26.737
X20.438 Y26.555
X20.397 Y26.372
X20.363 Y26.187
X20.335 Y26.001
X20.314 Y25.814
X20.3 Y25.626
X20.293 Y25.437
Y25.249
X20.3 Y25.061
X20.314 Y24.872
X20.335 Y24.685
X20.363 Y24.498
X20.397 Y24.313
X20.439 Y24.129
X20.487 Y23.946
X20.542 Y23.765
X20.603 Y23.587
X20.672 Y23.41
X20.746 Y23.237
X20.827 Y23.065
X20.915 Y22.897
X21.008 Y22.733
X21.108 Y22.571
X21.213 Y22.414
X21.324 Y22.26
X21.441 Y22.111
X21.564 Y21.966
X21.691 Y21.825
X21.824 Y21.689
X21.962 Y21.558
X22.104 Y21.433
X22.251 Y21.312
X22.403 Y21.197
X22.558 Y21.088
X22.718 Y20.985
X22.881 Y20.887
X23.048 Y20.795
X23.219 Y20.71
X23.392 Y20.631
X23.568 Y20.558
X23.747 Y20.492
X23.928 Y20.433
X24.112 Y20.38
X24.297 Y20.334
X24.484 Y20.295
X24.672 Y20.262
X24.862 Y20.237
X25.052 Y20.218
X25.243 Y20.207
X25.435 Y20.203
X25.626 Y20.206
X25.818 Y20.215
X26.009 Y20.232
X26.199 Y20.256
X26.388 Y20.287
X26.576 Y20.325
X26.763 Y20.37
X26.948 Y20.422
X27.131 Y20.48
X27.311 Y20.545
X27.489 Y20.617
X27.665 Y20.695
X27.837 Y20.78
X28.007 Y20.871
X28.173 Y20.969
X28.335 Y21.072
X28.494 Y21.182
X28.648 Y21.297
X28.798 Y21.418
X28.944 Y21.544
X29.084 Y21.676
X29.221 Y21.813
X29.351 Y21.955
X29.477 Y22.101
X29.597 Y22.253
X29.712 Y22.408
X29.821 Y22.568
X29.924 Y22.732
X30.021 Y22.9
X30.111 Y23.071
X30.196 Y23.245
X30.273 Y23.423
X30.345 Y23.603
X30.409 Y23.786
X30.467 Y23.971
X30.518 Y24.158
X30.562 Y24.347
X30.599 Y24.538
X30.63 Y24.73
X30.652 Y24.923
X30.668 Y25.117
X30.677 Y25.311
X30.679 Y25.506
X30.673 Y25.7
X30.66 Y25.894
X30.64 Y26.088
X30.613 Y26.281
X30.579 Y26.473
X30.538 Y26.663
X30.489 Y26.852
X30.434 Y27.039
X30.372 Y27.224
X30.303 Y27.407
X30.227 Y27.587
X30.145 Y27.764
X30.057 Y27.938
X29.961 Y28.109
X29.86 Y28.276
X29.753 Y28.44
X29.639 Y28.599
X29.52 Y28.754
X29.395 Y28.905
X29.264 Y29.051
X29.128 Y29.192
X28.987 Y29.328
X28.841 Y29.459
X28.69 Y29.585
X28.535 Y29.704
X28.375 Y29.819
X28.211 Y29.927
X28.043 Y30.029
X27.872 Y30.125
X27.697 Y30.214
X27.518 Y30.297
X27.337 Y30.374
X27.153 Y30.443
X26.966 Y30.506
X26.777 Y30.562
X26.587 Y30.611
X26.394 Y30.653
X26.2 Y30.688
X26.004 Y30.716
X25.808 Y30.736
X25.611 Y30.75
X25.414 Y30.756
X25.216 Y30.754
X25.019 Y30.746
X24.822 Y30.73
X24.625 Y30.707
X24.43 Y30.676
X24.235 Y30.639
X24.042 Y30.594
X23.851 Y30.542
X23.662 Y30.483
X23.475 Y30.418
X23.29 Y30.345
X23.109 Y30.266
X22.93 Y30.179
X22.754 Y30.087
X22.582 Y29.988
X22.414 Y29.882
X22.249 Y29.77
X22.089 Y29.653
X21.933 Y29.529
X21.782 Y29.4
X21.635 Y29.265
X21.494 Y29.125
X21.358 Y28.98
X21.227 Y28.829
X21.101 Y28.674
X20.982 Y28.514
X20.868 Y28.35
X20.761 Y28.182
X20.66 Y28.01
X20.565 Y27.835
X20.476 Y27.655
X20.395 Y27.473
X20.32 Y27.288
X20.252 Y27.1
X20.19 Y26.909
X20.136 Y26.716
X20.089 Y26.522
X20.049 Y26.325
X20.017 Y26.128
X19.992 Y25.929
X19.974 Y25.729
X19.963 Y25.529
X19.96 Y25.328
X19.964 Y25.127
X19.976 Y24.927
X19.995 Y24.727
X20.021 Y24.528
X20.055 Y24.33
X20.096 Y24.133
X20.144 Y23.938
X20.2 Y23.744
X20.262 Y23.553
X20.332 Y23.364
X20.408 Y23.178
X20.492 Y22.994
X20.582 Y22.814
X20.679 Y22.637
X20.782 Y22.464
X20.891 Y22.294
X21.007 Y22.129
X21.129 Y21.968
X21.257 Y21.811
X21.39 Y21.66
X21.529 Y21.513
X21.674 Y21.371
X21.823 Y21.235
X21.978 Y21.104
X22.137 Y20.98
X22.301 Y20.861
X22.469 Y20.748
X22.641 Y20.641
X22.817 Y20.541
X22.997 Y20.447
X23.18 Y20.36
X23.367 Y20.28
X23.556 Y20.206
X23.748 Y20.14
X23.942 Y20.081
X24.139 Y20.029
X24.337 Y19.984
X24.537 Y19.946
X24.738 Y19.916
X24.94 Y19.893
X25.143 Y19.878
X25.347 Y19.87
X25.551
X25.754 Y19.877
X25.958 Y19.892
X26.161 Y19.914
X26.362 Y19.944
X26.563 Y19.981
X26.762 Y20.026
X26.96 Y20.078
X27.155 Y20.137
X27.349 Y20.203
X27.54 Y20.276
X27.728 Y20.357
X27.912 Y20.444
X28.094 Y20.538
X28.272 Y20.639
X28.447 Y20.746
X28.617 Y20.86
X28.783 Y20.98
X28.945 Y21.106
X29.102 Y21.238
X29.254 Y21.376
X29.401 Y21.519
X29.543 Y21.668
X29.679 Y21.822
X29.809 Y21.981
X29.934 Y22.144
X30.052 Y22.312
X30.164 Y22.485
X30.27 Y22.662
X30.369 Y22.842
X30.462 Y23.026
X30.548 Y23.213
X30.626 Y23.404
X30.698 Y23.597
X30.763 Y23.793
X30.82 Y23.991
X30.87 Y24.192
X30.913 Y24.394
X30.948 Y24.597
X30.976 Y24.802
X30.996 Y25.008
X31.008 Y25.214
X31.013 Y25.421
X31.011 Y25.628
X31 Y25.835
X30.982 Y26.041
X30.957 Y26.246
X30.924 Y26.451
X30.883 Y26.654
X30.835 Y26.856
X30.779 Y27.056
X30.716 Y27.253
X30.646 Y27.449
X30.569 Y27.641
X30.484 Y27.831
X30.393 Y28.017
X30.295 Y28.2
X30.19 Y28.38
X30.078 Y28.555
X29.96 Y28.727
X29.836 Y28.894
X29.706 Y29.056
X29.569 Y29.213
X29.427 Y29.366
X29.28 Y29.513
X29.127 Y29.654
X28.969 Y29.79
X28.805 Y29.92
X28.638 Y30.044
X28.465 Y30.162
X28.289 Y30.273
X28.108 Y30.378
X27.923 Y30.476
X27.735 Y30.567
X27.544 Y30.651
X27.349 Y30.728
X27.152 Y30.798
X26.952 Y30.861
X26.75 Y30.916
X26.547 Y30.964
X26.341 Y31.004
X26.134 Y31.037
X25.926 Y31.062
X25.717 Y31.08
X25.507 Y31.089
X25.297 Y31.091
X25.087 Y31.085
X24.878 Y31.072
X24.668 Y31.05
X24.46 Y31.022
X24.253 Y30.985
X24.048 Y30.941
X23.844 Y30.889
X23.642 Y30.829
X23.442 Y30.763
X23.245 Y30.689
X23.05 Y30.607
X22.859 Y30.519
X22.671 Y30.423
X22.487 Y30.321
X22.306 Y30.212
X22.129 Y30.096
X21.957 Y29.974
X21.79 Y29.845
X21.627 Y29.71
X21.469 Y29.569
X21.316 Y29.423
X21.169 Y29.271
X21.028 Y29.114
X20.892 Y28.951
X20.763 Y28.783
X20.639 Y28.611
X20.522 Y28.434
X20.412 Y28.254
X20.308 Y28.069
X20.212 Y27.88
X20.122 Y27.688
X20.039 Y27.492
X19.963 Y27.294
X19.895 Y27.092
X19.835 Y26.889
X19.781 Y26.683
X19.736 Y26.475
X19.698 Y26.266
X19.668 Y26.055
X19.645 Y25.843
X19.631 Y25.631
X19.624 Y25.418
X19.625 Y25.205
X19.634 Y24.992
X19.651 Y24.779
X19.676 Y24.568
X19.708 Y24.357
X19.749 Y24.147
X19.796 Y23.939
X19.852 Y23.733
X19.915 Y23.529
X19.986 Y23.327
X20.064 Y23.128
X20.149 Y22.932
X20.242 Y22.739
X20.342 Y22.55
X20.448 Y22.364
X20.562 Y22.182
X20.682 Y22.005
X20.809 Y21.832
X20.942 Y21.664
X21.081 Y21.501
X21.226 Y21.343
X21.377 Y21.19
X21.533 Y21.043
X21.695 Y20.902
X21.862 Y20.767
X22.034 Y20.638
X22.21 Y20.515
X22.391 Y20.399
X22.576 Y20.29
X22.765 Y20.187
X22.958 Y20.092
X23.155 Y20.003
X23.354 Y19.922
X23.557 Y19.849
X23.762 Y19.783
X23.969 Y19.724
X24.179 Y19.673
X24.39 Y19.63
X24.603 Y19.595
X24.817 Y19.567
X25.033 Y19.547
X25.248 Y19.536
X25.465 Y19.532
X25.681 Y19.536
X25.897 Y19.549
X26.112 Y19.569
X26.327 Y19.597
X26.54 Y19.633
X26.752 Y19.677
X26.963 Y19.729
X27.171 Y19.788
X27.377 Y19.855
X27.581 Y19.93
X27.781 Y20.012
X27.979 Y20.102
X28.173 Y20.198
X28.364 Y20.302
X28.551 Y20.413
X28.733 Y20.531
X28.911 Y20.655
X29.085 Y20.786
X29.254 Y20.924
X29.417 Y21.067
X29.575 Y21.217
X29.728 Y21.372
X29.875 Y21.533
X30.016 Y21.699
X30.151 Y21.871
X30.279 Y22.047
X30.401 Y22.228
X30.516 Y22.413
X30.624 Y22.603
X30.725 Y22.796
X30.819 Y22.994
X30.906 Y23.194
X30.985 Y23.398
X31.057 Y23.605
X31.121 Y23.814
X31.178 Y24.025
X31.226 Y24.239
X31.267 Y24.454
X31.3 Y24.67
X31.325 Y24.888
X31.341 Y25.107
X31.35 Y25.326
X31.351 Y25.545
X31.343 Y25.765
X31.327 Y25.983
X31.304 Y26.202
X31.272 Y26.419
X31.232 Y26.635
X31.185 Y26.85
X31.129 Y27.062
X31.066 Y27.273
X30.995 Y27.481
X30.916 Y27.686
X30.83 Y27.889
X30.736 Y28.088
X30.635 Y28.284
X30.527 Y28.476
X30.411 Y28.663
X30.289 Y28.847
X30.16 Y29.026
X30.025 Y29.2
X29.883 Y29.369
X29.735 Y29.533
X29.581 Y29.691
X29.422 Y29.844
X29.256 Y29.99
X29.086 Y30.131
X28.91 Y30.265
X28.729 Y30.392
X28.544 Y30.513
X28.354 Y30.627
X28.16 Y30.734
X27.963 Y30.834
X27.761 Y30.926
X27.557 Y31.011
X27.349 Y31.089
X27.138 Y31.159
X26.925 Y31.221
X26.71 Y31.275
X26.493 Y31.321
X26.274 Y31.359
X26.054 Y31.389
X25.833 Y31.411
X25.611 Y31.424
X25.389 Y31.43
X25.166 Y31.427
X24.944 Y31.417
X24.722 Y31.398
X24.501 Y31.37
X24.281 Y31.335
X24.063 Y31.292
X23.846 Y31.24
X23.631 Y31.181
X23.418 Y31.113
X23.208 Y31.038
X23.001 Y30.955
X22.797 Y30.865
X22.596 Y30.767
X22.399 Y30.661
X22.206 Y30.549
X22.017 Y30.429
X21.833 Y30.302
X21.653 Y30.169
X21.478 Y30.029
X21.309 Y29.883
X21.145 Y29.73
X20.987 Y29.572
X20.834 Y29.407
X20.688 Y29.237
X20.548 Y29.062
X20.415 Y28.882
X20.288 Y28.697
X20.168 Y28.507
X20.055 Y28.313
X19.949 Y28.115
X19.851 Y27.913
X19.76 Y27.707
X19.677 Y27.498
X19.602 Y27.286
X19.534 Y27.072
X19.474 Y26.855
X19.422 Y26.636
X19.379 Y26.415
X19.343 Y26.192
X19.316 Y25.968
X19.297 Y25.744
X19.287 Y25.518
X19.284 Y25.293
X19.29 Y25.067
X19.304 Y24.842
X19.327 Y24.617
X19.358 Y24.394
X19.397 Y24.171
X19.444 Y23.95
X19.5 Y23.731
X19.563 Y23.514
X19.634 Y23.299
X19.714 Y23.087
X19.801 Y22.878
X19.896 Y22.673
X19.998 Y22.471
X20.108 Y22.272
X20.225 Y22.078
X20.349 Y21.888
X20.48 Y21.703
X20.618 Y21.523
X20.762 Y21.348
X20.913 Y21.179
X21.07 Y21.014
X21.233 Y20.856
X21.402 Y20.704
X21.577 Y20.558
X21.756 Y20.419
X21.941 Y20.286
X22.131 Y20.161
X22.325 Y20.042
X22.523 Y19.93
X22.726 Y19.826
X22.932 Y19.729
X23.142 Y19.64
X23.355 Y19.559
X23.571 Y19.486
X23.789 Y19.42
X24.01 Y19.363
X24.233 Y19.314
X24.458 Y19.273
X24.684 Y19.24
X24.911 Y19.216
X25.139 Y19.2
X25.368 Y19.192
X25.596 Y19.193
X25.825 Y19.202
X26.053 Y19.22
X26.281 Y19.246
X26.507 Y19.281
X26.732 Y19.324
X26.955 Y19.375
X27.177 Y19.434
X27.396 Y19.502
X27.612 Y19.578
X27.826 Y19.661
X28.037 Y19.752
X28.244 Y19.852
X28.447 Y19.958
X28.646 Y20.072
X28.842 Y20.194
X29.032 Y20.323
X29.218 Y20.458
X29.398 Y20.601
X29.574 Y20.75
X29.744 Y20.905
X29.908 Y21.067
X30.066 Y21.235
X30.217 Y21.408
X30.363 Y21.587
X30.501 Y21.771
X30.633 Y21.961
X30.758 Y22.155
X30.876 Y22.353
X30.986 Y22.556
X31.089 Y22.763
X31.184 Y22.974
X31.271 Y23.188
X31.35 Y23.405
X31.422 Y23.625
X31.485 Y23.848
X31.54 Y24.073
X31.586 Y24.3
X31.625 Y24.528
X31.654 Y24.758
X31.676 Y24.989
X31.689 Y25.22
X31.693 Y25.452
X31.688 Y25.684
X31.676 Y25.916
X31.654 Y26.147
X31.624 Y26.377
X31.586 Y26.606
X31.539 Y26.833
X31.484 Y27.059
X31.421 Y27.283
X31.349 Y27.504
X31.269 Y27.722
X31.181 Y27.938
X31.086 Y28.15
X30.982 Y28.358
X30.871 Y28.563
X30.752 Y28.763
X30.626 Y28.959
X30.493 Y29.151
X30.353 Y29.337
X30.206 Y29.518
X30.052 Y29.694
X29.892 Y29.863
X29.726 Y30.027
X29.553 Y30.185
X29.375 Y30.336
X29.192 Y30.481
X29.003 Y30.619
X28.809 Y30.749
X28.611 Y30.873
X28.408 Y30.989
X28.2 Y31.098
X27.989 Y31.199
X27.774 Y31.292
X27.556 Y31.378
X27.335 Y31.455
X27.111 Y31.524
X26.884 Y31.585
X26.656 Y31.637
X26.425 Y31.681
X26.193 Y31.716
X25.96 Y31.743
X25.726 Y31.761
X25.491 Y31.771
X25.256 Y31.772
X25.021 Y31.764
X24.786 Y31.748
X24.552 Y31.723
X24.319 Y31.689
X24.088 Y31.647
X23.858 Y31.596
X23.63 Y31.537
X23.404 Y31.469
X23.181 Y31.393
X22.961 Y31.309
X22.744 Y31.217
X22.53 Y31.117
X22.32 Y31.009
X22.114 Y30.893
X21.913 Y30.77
X21.716 Y30.639
X21.524 Y30.501
X21.337 Y30.356
X21.156 Y30.204
X20.98 Y30.046
X20.81 Y29.881
X20.647 Y29.71
X20.489 Y29.533
X20.338 Y29.351
X20.195 Y29.163
X20.058 Y28.969
X19.928 Y28.771
X19.805 Y28.568
X19.69 Y28.36
X19.583 Y28.148
X19.484 Y27.933
X19.393 Y27.714
X19.309 Y27.491
X19.234 Y27.266
X19.168 Y27.037
X19.109 Y26.807
X19.06 Y26.574
X19.019 Y26.34
X18.986 Y26.104
X18.962 Y25.867
X18.947 Y25.63
X18.941 Y25.392
X18.944 Y25.153
X18.955 Y24.915
X18.975 Y24.678
X19.004 Y24.441
X19.041 Y24.205
X19.088 Y23.971
X19.142 Y23.739
X19.206 Y23.509
X19.278 Y23.281
X19.358 Y23.056
X19.446 Y22.834
X19.543 Y22.615
X19.648 Y22.4
X19.76 Y22.189
X19.88 Y21.982
X20.008 Y21.78
X20.144 Y21.582
X20.286 Y21.39
X20.436 Y21.203
X20.592 Y21.021
X20.755 Y20.845
X20.925 Y20.676
X21.1 Y20.512
X21.282 Y20.355
X21.469 Y20.205
X21.662 Y20.062
X21.86 Y19.926
X22.063 Y19.798
X22.271 Y19.677
X22.482 Y19.563
X22.699 Y19.458
X22.918 Y19.36
X23.142 Y19.271
X23.369 Y19.19
X23.598 Y19.117
X23.83 Y19.053
X24.065 Y18.997
X24.301 Y18.95
X24.539 Y18.912
X24.778 Y18.883
X25.019 Y18.862
X25.26 Y18.85
X25.501 Y18.848
X25.743 Y18.854
X25.984 Y18.869
X26.224 Y18.892
X26.464 Y18.925
X26.702 Y18.967
X26.938 Y19.017
X27.173 Y19.076
X27.405 Y19.143
X27.635 Y19.22
X27.862 Y19.304
X28.085 Y19.397
X28.306 Y19.498
X28.522 Y19.607
X28.734 Y19.725
X28.942 Y19.85
X29.145 Y19.982
X29.343 Y20.122
X29.536 Y20.269
X29.724 Y20.424
X29.905 Y20.585
X30.081 Y20.753
X30.251 Y20.927
X30.414 Y21.107
X30.57 Y21.294
X30.719 Y21.486
X30.861 Y21.683
X30.996 Y21.886
X31.124 Y22.093
X31.243 Y22.306
X31.355 Y22.522
X31.459 Y22.743
X31.554 Y22.967
X31.642 Y23.195
X31.721 Y23.426
X31.791 Y23.66
X31.853 Y23.896
X31.906 Y24.134
X31.95 Y24.375
X31.985 Y24.616
X32.011 Y24.859
X32.029 Y25.103
X32.037 Y25.348
X32.036 Y25.592
X32.027 Y25.837
X32.008 Y26.081
X31.98 Y26.324
X31.944 Y26.566
X31.898 Y26.807
X31.844 Y27.046
X31.78 Y27.283
X31.709 Y27.517
X31.628 Y27.749
X31.539 Y27.978
X31.442 Y28.203
X31.336 Y28.424
X31.222 Y28.642
X31.1 Y28.855
X30.971 Y29.064
X30.833 Y29.268
X30.689 Y29.467
X30.537 Y29.66
X30.378 Y29.848
X30.212 Y30.029
X30.039 Y30.205
X29.86 Y30.374
X29.675 Y30.536
X29.484 Y30.692
X29.287 Y30.84
X29.085 Y30.982
X28.878 Y31.115
X28.666 Y31.241
X28.449 Y31.359
X28.228 Y31.469
X28.003 Y31.571
X27.774 Y31.665
X27.542 Y31.75
X27.307 Y31.826
X27.07 Y31.894
X26.83 Y31.953
X26.587 Y32.003
X26.343 Y32.044
X26.098 Y32.076
X25.851 Y32.1
X25.604 Y32.114
X25.356 Y32.118
X25.109 Y32.114
X24.861 Y32.101
X24.614 Y32.078
X24.368 Y32.047
X24.123 Y32.006
X23.88 Y31.956
X23.639 Y31.898
X23.4 Y31.83
X23.163 Y31.754
X22.93 Y31.669
X22.699 Y31.575
X22.473 Y31.473
X22.25 Y31.363
X22.031 Y31.244
X21.816 Y31.118
X21.607 Y30.983
X21.402 Y30.841
X21.203 Y30.692
X21.009 Y30.535
X20.822 Y30.371
X20.64 Y30.2
X20.465 Y30.023
X20.296 Y29.839
X20.134 Y29.649
X19.979 Y29.453
X19.832 Y29.252
X19.692 Y29.045
X19.559 Y28.833
X19.435 Y28.616
X19.318 Y28.395
X19.21 Y28.169
X19.11 Y27.94
X19.019 Y27.707
X18.936 Y27.47
X18.862 Y27.231
X18.797 Y26.989
X18.741 Y26.745
X18.693 Y26.499
X18.655 Y26.251
X18.626 Y26.002
X18.606 Y25.752
X18.596 Y25.501
X18.595 Y25.25
X18.603 Y24.999
X18.62 Y24.749
X18.646 Y24.499
X18.682 Y24.25
X18.727 Y24.003
X18.781 Y23.757
X18.843 Y23.514
X18.915 Y23.272
X18.996 Y23.034
X19.086 Y22.799
X19.184 Y22.567
X19.29 Y22.339
X19.405 Y22.114
X19.529 Y21.894
X19.66 Y21.679
X19.799 Y21.469
X19.946 Y21.264
X20.101 Y21.064
X20.262 Y20.87
X20.431 Y20.683
X20.607 Y20.501
X20.789 Y20.326
X20.978 Y20.158
X21.172 Y19.997
X21.373 Y19.843
X21.579 Y19.697
X21.791 Y19.558
X22.007 Y19.427
X22.229 Y19.304
X22.455 Y19.189
X22.684 Y19.083
X22.918 Y18.985
X23.156 Y18.896
X23.396 Y18.816
X23.639 Y18.744
X23.885 Y18.682
X24.133 Y18.628
X24.383 Y18.584
X24.635 Y18.549
X24.888 Y18.523
X25.141 Y18.507
X25.395 Y18.5
X25.65 Y18.502
X25.904 Y18.514
X26.157 Y18.535
X26.41 Y18.566
X26.661 Y18.605
X26.911 Y18.654
X27.159 Y18.713
X27.405 Y18.78
X27.648 Y18.856
X27.888 Y18.942
X28.125 Y19.036
X28.358 Y19.138
X28.588 Y19.25
X28.813 Y19.37
X29.034 Y19.498
X29.25 Y19.634
X29.461 Y19.778
X29.667 Y19.93
X29.867 Y20.089
X30.06 Y20.256
X30.248 Y20.429
X30.429 Y20.61
X30.604 Y20.797
X30.772 Y20.991
X30.932 Y21.19
X31.085 Y21.396
X31.23 Y21.607
X31.368 Y21.823
X31.497 Y22.045
X31.618 Y22.271
X31.731 Y22.501
X31.836 Y22.736
X31.931 Y22.974
X32.018 Y23.215
X32.096 Y23.46
X32.165 Y23.708
X32.224 Y23.958
X32.275 Y24.21
X32.316 Y24.464
X32.348 Y24.719
X32.37 Y24.976
X32.383 Y25.233
X32.386 Y25.49
X32.38 Y25.748
X32.365 Y26.005
X32.339 Y26.261
X32.305 Y26.517
X32.261 Y26.771
X32.208 Y27.023
X32.145 Y27.273
X32.073 Y27.521
X31.992 Y27.766
X31.903 Y28.008
X31.804 Y28.247
X31.696 Y28.482
X31.58 Y28.712
X31.456 Y28.939
X31.323 Y29.161
X31.182 Y29.377
X31.033 Y29.589
X30.876 Y29.795
X30.712 Y29.995
X30.54 Y30.189
X30.362 Y30.376
X30.176 Y30.557
X29.984 Y30.731
X29.786 Y30.898
X29.581 Y31.057
X29.371 Y31.209
X29.155 Y31.353
X28.934 Y31.489
X28.708 Y31.617
X28.477 Y31.736
X28.242 Y31.847
X28.004 Y31.949
X27.761 Y32.043
X27.515 Y32.127
X27.266 Y32.202
X27.014 Y32.268
X26.761 Y32.325
X26.505 Y32.373
X26.247 Y32.41
X25.988 Y32.439
X25.728 Y32.458
X25.468 Y32.467
X25.207
X24.946 Y32.457
X24.686 Y32.437
X24.427 Y32.408
X24.169 Y32.369
X23.912 Y32.321
X23.658 Y32.263
X23.405 Y32.196
X23.155 Y32.12
X22.908 Y32.034
X22.665 Y31.94
X22.424 Y31.836
X22.188 Y31.724
X21.956 Y31.603
X21.729 Y31.473
X21.506 Y31.336
X21.288 Y31.19
X21.076 Y31.036
X20.87 Y30.874
X20.67 Y30.705
X20.476 Y30.528
X20.289 Y30.344
X20.108 Y30.154
X19.935 Y29.957
X19.769 Y29.753
X19.611 Y29.544
X19.46 Y29.329
X19.317 Y29.108
X19.183 Y28.882
X19.057 Y28.652
X18.939 Y28.416
X18.83 Y28.177
X18.73 Y27.933
X18.639 Y27.686
X18.558 Y27.436
X18.485 Y27.183
X18.422 Y26.927
X18.368 Y26.669
X18.324 Y26.409
X18.289 Y26.148
X18.264 Y25.885
X18.249 Y25.622
X18.244 Y25.358
X18.248 Y25.094
X18.262 Y24.83
X18.285 Y24.567
X18.319 Y24.305
X18.362 Y24.045
X18.414 Y23.785
X18.476 Y23.528
X18.548 Y23.274
X18.629 Y23.022
X18.719 Y22.773
X18.818 Y22.528
X18.927 Y22.286
X19.044 Y22.048
X19.17 Y21.815
X19.304 Y21.587
X19.447 Y21.364
X19.598 Y21.146
X19.757 Y20.933
X19.924 Y20.727
X20.098 Y20.527
X20.28 Y20.333
X20.468 Y20.146
X20.664 Y19.966
X20.866 Y19.794
X21.074 Y19.629
X21.288 Y19.471
X21.508 Y19.322
X21.734 Y19.181
X21.964 Y19.048
X22.2 Y18.924
X22.44 Y18.808
X22.684 Y18.702
X22.931 Y18.604
X23.183 Y18.516
X23.437 Y18.436
X23.695 Y18.367
X23.955 Y18.307
X24.216 Y18.256
X24.48 Y18.215
X24.745 Y18.184
X25.011 Y18.162
X25.278 Y18.151
X25.545 Y18.149
X25.812 Y18.157
X26.079 Y18.175
X26.345 Y18.203
X26.61 Y18.241
X26.873 Y18.288
X27.135 Y18.345
X27.394 Y18.412
X27.651 Y18.488
X27.904 Y18.573
X28.155 Y18.668
X28.402 Y18.772
X28.645 Y18.886
X28.883 Y19.008
X29.118 Y19.139
X29.347 Y19.278
X29.571 Y19.426
X29.789 Y19.582
X30.002 Y19.746
X30.208 Y19.918
X30.408 Y20.097
X30.602 Y20.284
X30.788 Y20.477
X30.967 Y20.678
X31.139 Y20.885
X31.303 Y21.098
X31.459 Y21.318
X31.607 Y21.543
X31.747 Y21.773
X31.878 Y22.008
X32 Y22.248
X32.114 Y22.493
X32.218 Y22.742
X32.314 Y22.994
X32.399 Y23.25
X32.476 Y23.509
X32.543 Y23.77
X32.6 Y24.034
X32.647 Y24.3
X32.685 Y24.568
X32.712 Y24.837
X32.73 Y25.106
X32.738 Y25.377
X32.736 Y25.647
X32.724 Y25.917
X32.701 Y26.187
X32.669 Y26.456
X32.628 Y26.723
X32.576 Y26.989
X32.514 Y27.253
X32.443 Y27.514
X32.362 Y27.773
X32.272 Y28.029
X32.172 Y28.281
X32.063 Y28.529
X31.945 Y28.774
X31.818 Y29.013
X31.682 Y29.248
X31.537 Y29.478
X31.384 Y29.703
X31.223 Y29.922
X31.054 Y30.134
X30.877 Y30.341
X30.693 Y30.541
X30.501 Y30.734
X30.302 Y30.919
X30.097 Y31.098
X29.885 Y31.269
X29.667 Y31.432
X29.442 Y31.586
X29.213 Y31.733
X28.978 Y31.871
X28.737 Y32
X28.493 Y32.12
X28.244 Y32.231
X27.991 Y32.333
X27.734 Y32.426
X27.474 Y32.509
X27.211 Y32.583
X26.945 Y32.646
X26.677 Y32.7
X26.407 Y32.744
X26.136 Y32.778
X25.864 Y32.802
X25.59 Y32.816
X25.317 Y32.82
X25.043 Y32.814
X24.77 Y32.798
X24.497 Y32.772
X24.226 Y32.735
X23.956 Y32.689
X23.687 Y32.633
X23.421 Y32.566
X23.158 Y32.491
X22.897 Y32.405
X22.64 Y32.31
X22.386 Y32.205
X22.136 Y32.091
X21.891 Y31.968
X21.65 Y31.836
X21.414 Y31.695
X21.183 Y31.545
X20.958 Y31.387
X20.739 Y31.221
X20.526 Y31.047
X20.32 Y30.864
X20.12 Y30.675
X19.928 Y30.478
X19.743 Y30.274
X19.565 Y30.063
X19.395 Y29.846
X19.234 Y29.623
X19.08 Y29.394
X18.936 Y29.159
X18.799 Y28.919
X18.672 Y28.674
X18.554 Y28.425
X18.445 Y28.171
X18.346 Y27.913
X18.256 Y27.652
X18.175 Y27.388
X18.105 Y27.12
X18.044 Y26.851
X17.993 Y26.579
X17.953 Y26.305
X17.922 Y26.03
X17.902 Y25.754
X17.892 Y25.477
Y25.2
X17.902 Y24.923
X17.923 Y24.647
X17.953 Y24.372
X17.994 Y24.097
X18.045 Y23.825
X18.106 Y23.554
X18.177 Y23.286
X18.257 Y23.02
X18.348 Y22.758
X18.448 Y22.499
X18.557 Y22.243
X18.676 Y21.992
X18.805 Y21.746
X18.942 Y21.504
X19.088 Y21.267
X19.243 Y21.036
X19.406 Y20.811
X19.577 Y20.591
X19.757 Y20.379
X19.944 Y20.173
X20.139 Y19.973
X20.341 Y19.782
X20.55 Y19.597
X20.766 Y19.421
X20.988 Y19.252
X21.216 Y19.092
X21.45 Y18.94
X21.69 Y18.797
X21.935 Y18.663
X22.184 Y18.538
X22.438 Y18.422
X22.697 Y18.315
X22.959 Y18.218
X23.224 Y18.131
X23.493 Y18.054
X23.764 Y17.986
X24.038 Y17.929
X24.314 Y17.882
X24.592 Y17.845
X24.87 Y17.818
X25.15 Y17.801
X25.43 Y17.795
X25.71 Y17.799
X25.99 Y17.814
X26.269 Y17.838
X26.548 Y17.873
X26.824 Y17.919
X27.1 Y17.974
X27.372 Y18.04
X27.643 Y18.115
X27.91 Y18.201
X28.175 Y18.296
X28.435 Y18.401
X28.692 Y18.516
X28.944 Y18.64
X29.192 Y18.773
X29.434 Y18.916
X29.671 Y19.067
X29.903 Y19.227
X30.129 Y19.395
X30.348 Y19.572
X30.561 Y19.757
X30.766 Y19.949
X30.965 Y20.149
X31.156 Y20.356
X31.34 Y20.571
X31.515 Y20.792
X31.683 Y21.019
X31.841 Y21.252
X31.992 Y21.491
X32.133 Y21.736
X32.265 Y21.986
X32.388 Y22.24
X32.502 Y22.499
X32.606 Y22.762
X32.7 Y23.028
X32.784 Y23.299
X32.858 Y23.572
X32.923 Y23.847
X32.977 Y24.125
X33.021 Y24.405
X33.054 Y24.686
X33.077 Y24.969
X33.09 Y25.252
X33.092 Y25.535
X33.084 Y25.819
X33.065 Y26.102
X33.036 Y26.384
X32.996 Y26.665
X32.946 Y26.944
X32.886 Y27.222
X32.816 Y27.497
X32.736 Y27.77
X32.645 Y28.039
X32.545 Y28.305
X32.435 Y28.567
X32.315 Y28.825
X32.186 Y29.078
X32.047 Y29.327
X31.9 Y29.57
X31.743 Y29.808
X31.578 Y30.04
X31.404 Y30.266
X31.222 Y30.485
X31.032 Y30.697
X30.835 Y30.903
X30.629 Y31.101
X30.417 Y31.291
X30.198 Y31.473
X29.972 Y31.648
X29.739 Y31.813
X29.501 Y31.971
X29.257 Y32.119
X29.008 Y32.258
X28.753 Y32.388
X28.494 Y32.509
X28.231 Y32.62
X27.963 Y32.721
X27.692 Y32.813
X27.418 Y32.894
X27.141 Y32.965
X26.861 Y33.026
X26.579 Y33.077
X26.295 Y33.117
X26.01 Y33.147
X25.724 Y33.166
X25.438 Y33.174
X25.151 Y33.173
X24.865 Y33.16
X24.579 Y33.137
X24.293 Y33.103
X24.01 Y33.059
X23.728 Y33.005
X23.448 Y32.94
X23.171 Y32.865
X22.896 Y32.779
X22.625 Y32.684
X22.358 Y32.578
X22.094 Y32.463
X21.835 Y32.338
X21.581 Y32.204
X21.331 Y32.06
X21.087 Y31.907
X20.849 Y31.745
X20.617 Y31.575
X20.391 Y31.396
X20.172 Y31.209
X19.96 Y31.013
X19.755 Y30.81
X19.557 Y30.6
X19.368 Y30.382
X19.187 Y30.158
X19.014 Y29.926
X18.849 Y29.689
X18.694 Y29.446
X18.547 Y29.196
X18.41 Y28.942
X18.282 Y28.683
X18.164 Y28.419
X18.055 Y28.151
X17.957 Y27.879
X17.868 Y27.603
X17.79 Y27.324
X17.722 Y27.043
X17.665 Y26.759
X17.618 Y26.473
X17.581 Y26.186
X17.555 Y25.897
X17.54 Y25.607
X17.536 Y25.318
X17.542 Y25.027
X17.559 Y24.738
X17.586 Y24.449
X17.624 Y24.161
X17.673 Y23.875
X17.732 Y23.59
X17.802 Y23.308
X17.882 Y23.029
X17.972 Y22.753
X18.073 Y22.48
X18.184 Y22.211
X18.304 Y21.946
X18.434 Y21.686
X18.574 Y21.43
X18.723 Y21.18
X18.881 Y20.936
X19.048 Y20.697
X19.224 Y20.465
X19.408 Y20.239
X19.601 Y20.02
X19.801 Y19.808
X20.01 Y19.604
X20.226 Y19.408
X20.448 Y19.22
X20.678 Y19.039
X20.914 Y18.868
X21.157 Y18.705
X21.405 Y18.551
X21.659 Y18.407
X21.919 Y18.272
X22.183 Y18.146
X22.451 Y18.031
X22.724 Y17.925
X23.001 Y17.829
X23.28 Y17.744
X23.563 Y17.669
X23.849 Y17.604
X24.137 Y17.55
X24.427 Y17.507
X24.718 Y17.474
X25.01 Y17.452
X25.303 Y17.441
X25.597
X25.89 Y17.451
X26.183 Y17.472
X26.474 Y17.504
X26.765 Y17.547
X27.054 Y17.601
X27.34 Y17.665
X27.624 Y17.74
X27.906 Y17.825
X28.184 Y17.92
X28.458 Y18.026
X28.729 Y18.141
X28.995 Y18.267
X29.256 Y18.402
X29.512 Y18.547
X29.763 Y18.702
X30.008 Y18.865
X30.247 Y19.038
X30.479 Y19.219
X30.705 Y19.409
X30.923 Y19.607
X31.134 Y19.813
X31.338 Y20.027
X31.533 Y20.248
X31.721 Y20.476
X31.899 Y20.711
X32.069 Y20.952
X32.23 Y21.2
X32.382 Y21.454
X32.525 Y21.713
X32.658 Y21.977
X32.781 Y22.246
X32.894 Y22.519
X32.997 Y22.796
X33.089 Y23.078
X33.172 Y23.362
X33.243 Y23.649
X33.305 Y23.939
X33.355 Y24.231
X33.395 Y24.525
X33.423 Y24.82
X33.441 Y25.116
X33.448 Y25.412
X33.444 Y25.709
X33.429 Y26.005
X33.404 Y26.301
X33.367 Y26.596
X33.319 Y26.889
X33.261 Y27.18
X33.192 Y27.469
X33.112 Y27.755
X33.022 Y28.039
X32.922 Y28.318
X32.811 Y28.594
X32.69 Y28.866
X32.559 Y29.133
X32.418 Y29.396
X32.268 Y29.652
X32.108 Y29.904
X31.939 Y30.149
X31.761 Y30.388
X31.574 Y30.62
X31.379 Y30.846
X31.176 Y31.064
X30.965 Y31.274
X30.746 Y31.477
X30.519 Y31.671
X30.286 Y31.857
X30.046 Y32.034
X29.799 Y32.203
X29.546 Y32.362
X29.288 Y32.512
X29.024 Y32.652
X28.755 Y32.782
X28.481 Y32.903
X28.203 Y33.013
X27.921 Y33.113
X27.636 Y33.203
X27.347 Y33.282
X27.055 Y33.35
X26.762 Y33.407
X26.466 Y33.454
X26.168 Y33.49
X25.87 Y33.515
X25.57 Y33.528
X25.27 Y33.531
X24.97 Y33.523
X24.671 Y33.503
X24.372 Y33.473
X24.075 Y33.432
X23.779 Y33.379
X23.486 Y33.316
X23.195 Y33.242
X22.906 Y33.157
X22.621 Y33.062
X22.34 Y32.956
X22.062 Y32.84
X21.789 Y32.714
X21.521 Y32.577
X21.258 Y32.431
X21 Y32.275
X20.749 Y32.11
X20.503 Y31.936
X20.264 Y31.752
X20.032 Y31.56
X19.807 Y31.359
X19.589 Y31.151
X19.38 Y30.934
X19.178 Y30.709
X18.985 Y30.478
X18.8 Y30.239
X18.624 Y29.993
X18.458 Y29.742
X18.301 Y29.484
X18.153 Y29.22
X18.015 Y28.951
X17.887 Y28.677
X17.769 Y28.399
X17.662 Y28.116
X17.565 Y27.829
X17.478 Y27.539
X17.403 Y27.246
X17.338 Y26.951
X17.284 Y26.653
X17.241 Y26.353
X17.209 Y26.051
X17.189 Y25.749
X17.179 Y25.446
X17.181 Y25.143
X17.194 Y24.84
X17.218 Y24.537
X17.253 Y24.236
X17.299 Y23.936
X17.356 Y23.638
X17.424 Y23.342
X17.504 Y23.049
X17.593 Y22.758
X17.694 Y22.472
X17.805 Y22.189
X17.927 Y21.91
X18.058 Y21.636
X18.2 Y21.366
X18.352 Y21.103
X18.513 Y20.844
X18.684 Y20.592
X18.864 Y20.347
X19.052 Y20.108
X19.25 Y19.876
X19.456 Y19.651
X19.67 Y19.435
X19.893 Y19.226
X20.122 Y19.025
X20.36 Y18.833
X20.604 Y18.65
X20.854 Y18.476
X21.111 Y18.312
X21.374 Y18.156
X21.643 Y18.011
X21.917 Y17.875
X22.195 Y17.75
X22.479 Y17.635
X22.766 Y17.531
X23.057 Y17.437
X23.352 Y17.354
X23.649 Y17.282
X23.949 Y17.22
X24.251 Y17.17
X24.555 Y17.131
X24.86 Y17.104
X25.166 Y17.087
X25.472 Y17.082
X25.778 Y17.088
X26.085 Y17.105
X26.39 Y17.134
X26.694 Y17.174
X26.997 Y17.225
X27.297 Y17.287
X27.595 Y17.361
X27.89 Y17.445
X28.183 Y17.54
X28.471 Y17.646
X28.755 Y17.762
X29.035 Y17.889
X29.31 Y18.026
X29.58 Y18.174
X29.845 Y18.331
X30.104 Y18.497
X30.356 Y18.674
X30.602 Y18.859
X30.84 Y19.054
X31.072 Y19.257
X31.296 Y19.468
X31.512 Y19.688
X31.72 Y19.916
X31.919 Y20.151
X32.109 Y20.394
X32.291 Y20.643
X32.463 Y20.899
X32.626 Y21.162
X32.779 Y21.43
X32.922 Y21.703
X33.055 Y21.982
X33.178 Y22.266
X33.29 Y22.554
X33.391 Y22.846
X33.482 Y23.142
X33.562 Y23.44
X33.63 Y23.742
X33.688 Y24.046
X33.734 Y24.352
X33.769 Y24.66
X33.793 Y24.969
X33.805 Y25.278
Y25.588
X33.795 Y25.898
X33.773 Y26.207
X33.739 Y26.515
X33.694 Y26.822
X33.638 Y27.127
X33.571 Y27.43
X33.493 Y27.73
X33.403 Y28.028
X33.303 Y28.321
X33.191 Y28.611
X33.07 Y28.897
X32.937 Y29.178
X32.795 Y29.454
X32.642 Y29.725
X32.479 Y29.99
X32.307 Y30.249
X32.125 Y30.501
X31.934 Y30.747
X31.734 Y30.986
X31.525 Y31.217
X31.308 Y31.44
X31.083 Y31.655
X30.85 Y31.861
X30.609 Y32.059
X30.361 Y32.249
X30.106 Y32.428
X29.845 Y32.599
X29.578 Y32.759
X29.304 Y32.91
X29.026 Y33.051
X28.742 Y33.181
X28.454 Y33.301
X28.161 Y33.41
X27.864 Y33.508
X27.564 Y33.595
X27.261 Y33.671
X26.955 Y33.736
X26.647 Y33.79
X26.337 Y33.832
X26.026 Y33.863
X25.713 Y33.882
X25.401 Y33.89
X25.087 Y33.886
X24.775 Y33.871
X24.462 Y33.844
X24.151 Y33.806
X23.842 Y33.756
X23.534 Y33.695
X23.229 Y33.622
X22.927 Y33.539
X22.628 Y33.444
X22.332 Y33.338
X22.041 Y33.221
X21.754 Y33.094
X21.472 Y32.956
X21.195 Y32.808
X20.923 Y32.65
X20.658 Y32.481
X20.399 Y32.303
X20.146 Y32.116
X19.901 Y31.919
X19.663 Y31.713
X19.432 Y31.499
X19.21 Y31.276
X18.996 Y31.045
X18.79 Y30.807
X18.594 Y30.56
X18.406 Y30.307
X18.228 Y30.047
X18.06 Y29.781
X17.901 Y29.508
X17.753 Y29.23
X17.615 Y28.946
X17.487 Y28.657
X17.371 Y28.364
X17.265 Y28.066
X17.17 Y27.765
X17.086 Y27.461
X17.013 Y27.153
X16.952 Y26.843
X16.903 Y26.531
X16.864 Y26.217
X16.838 Y25.902
X16.823 Y25.586
X16.82 Y25.269
X16.828 Y24.953
X16.848 Y24.637
X16.88 Y24.322
X16.923 Y24.008
X16.978 Y23.696
X17.044 Y23.386
X17.122 Y23.079
X17.211 Y22.775
X17.311 Y22.474
X17.422 Y22.177
X17.544 Y21.884
X17.677 Y21.596
X17.821 Y21.313
X17.975 Y21.035
X18.139 Y20.763
X18.313 Y20.497
X18.496 Y20.238
X18.689 Y19.985
X18.892 Y19.74
X19.103 Y19.503
X19.323 Y19.273
X19.551 Y19.052
X19.788 Y18.839
X20.032 Y18.634
X20.284 Y18.439
X20.542 Y18.254
X20.808 Y18.078
X21.079 Y17.911
X21.357 Y17.755
X21.641 Y17.609
X21.929 Y17.474
X22.223 Y17.35
X22.521 Y17.236
X22.823 Y17.133
X23.129 Y17.042
X23.438 Y16.961
X23.75 Y16.893
X24.064 Y16.835
X24.38 Y16.79
X24.698 Y16.756
X25.016 Y16.734
X25.336 Y16.723
X25.656 Y16.724
X25.975 Y16.738
X26.294 Y16.762
X26.612 Y16.799
X26.928 Y16.847
X27.243 Y16.907
X27.555 Y16.979
X27.864 Y17.062
X28.171 Y17.156
X28.473 Y17.262
X28.772 Y17.379
X29.066 Y17.506
X29.355 Y17.645
X29.639 Y17.794
X29.917 Y17.954
X30.19 Y18.123
X30.456 Y18.303
X30.715 Y18.492
X30.967 Y18.691
X31.212 Y18.899
X31.449 Y19.116
X31.678 Y19.342
X31.898 Y19.576
X32.11 Y19.818
X32.313 Y20.068
X32.506 Y20.325
X32.69 Y20.589
X32.864 Y20.86
X33.028 Y21.137
X33.182 Y21.42
X33.325 Y21.708
X33.458 Y22.002
X33.579 Y22.301
X33.69 Y22.604
X33.789 Y22.91
X33.877 Y23.221
X33.954 Y23.534
X34.019 Y23.85
X34.072 Y24.169
X34.113 Y24.489
X34.143 Y24.81
X34.161 Y25.133
X34.167 Y25.456
X34.161 Y25.779
X34.143 Y26.102
X34.113 Y26.424
X34.071 Y26.744
X34.018 Y27.063
X33.953 Y27.38
X33.876 Y27.694
X33.787 Y28.006
X33.687 Y28.314
X33.576 Y28.618
X33.454 Y28.918
X33.321 Y29.213
X33.176 Y29.503
X33.022 Y29.788
X32.856 Y30.067
X32.681 Y30.34
X32.496 Y30.606
X32.3 Y30.865
X32.096 Y31.117
X31.882 Y31.361
X31.659 Y31.597
X31.428 Y31.825
X31.188 Y32.045
X30.941 Y32.255
X30.686 Y32.456
X30.423 Y32.648
X30.154 Y32.83
X29.877 Y33.001
X29.595 Y33.163
X29.307 Y33.314
X29.013 Y33.455
X28.715 Y33.584
X28.411 Y33.703
X28.104 Y33.81
X27.793 Y33.906
X27.478 Y33.99
X27.16 Y34.063
X26.84 Y34.124
X26.518 Y34.173
X26.194 Y34.21
X25.868 Y34.235
X25.542 Y34.249
X25.216 Y34.25
X24.89 Y34.239
X24.564 Y34.216
X24.239 Y34.181
X23.916 Y34.135
X23.594 Y34.076
X23.275 Y34.005
X22.959 Y33.923
X22.645 Y33.829
X22.336 Y33.724
X22.03 Y33.607
X21.729 Y33.479
X21.432 Y33.34
X21.141 Y33.19
X20.856 Y33.03
X20.576 Y32.859
X20.303 Y32.677
X20.037 Y32.486
X19.778 Y32.285
X19.527 Y32.075
X19.283 Y31.855
X19.048 Y31.627
X18.821 Y31.39
X18.603 Y31.144
X18.394 Y30.891
X18.194 Y30.63
X18.004 Y30.362
X17.825 Y30.087
X17.655 Y29.806
X17.496 Y29.518
X17.347 Y29.225
X17.21 Y28.926
X17.083 Y28.622
X16.968 Y28.314
X16.864 Y28.002
X16.772 Y27.686
X16.691 Y27.367
X16.622 Y27.045
X16.566 Y26.72
X16.521 Y26.394
X16.488 Y26.066
X16.467 Y25.737
X16.458 Y25.407
X16.462 Y25.078
X16.478 Y24.748
X16.505 Y24.419
X16.545 Y24.092
X16.597 Y23.766
X16.661 Y23.442
X16.737 Y23.12
X16.825 Y22.802
X16.924 Y22.487
X17.035 Y22.176
X17.158 Y21.868
X17.292 Y21.566
X17.436 Y21.269
X17.592 Y20.977
X17.758 Y20.691
X17.935 Y20.411
X18.122 Y20.138
X18.319 Y19.872
X18.526 Y19.613
X18.742 Y19.362
X18.968 Y19.119
X19.202 Y18.885
X19.445 Y18.659
X19.696 Y18.443
X19.955 Y18.235
X20.221 Y18.038
X20.494 Y17.85
X20.775 Y17.672
X21.062 Y17.505
X21.354 Y17.349
X21.653 Y17.203
X21.957 Y17.068
X22.265 Y16.945
X22.578 Y16.833
X22.895 Y16.733
X23.215 Y16.644
X23.539 Y16.567
X23.865 Y16.503
X24.194 Y16.45
X24.524 Y16.409
X24.856 Y16.381
X25.189 Y16.365
X25.522 Y16.361
X25.855 Y16.369
X26.187 Y16.39
X26.519 Y16.423
X26.849 Y16.468
X27.178 Y16.525
X27.504 Y16.595
X27.827 Y16.676
X28.148 Y16.769
X28.464 Y16.874
X28.777 Y16.991
X29.086 Y17.119
X29.389 Y17.259
X29.687 Y17.409
X29.98 Y17.571
X30.266 Y17.743
X30.546 Y17.926
X30.819 Y18.119
X31.085 Y18.321
X31.344 Y18.534
X31.594 Y18.756
X31.836 Y18.987
X32.069 Y19.228
X32.294 Y19.476
X32.509 Y19.733
X32.715 Y19.997
X32.91 Y20.269
X33.096 Y20.548
X33.271 Y20.834
X33.436 Y21.126
X33.59 Y21.425
X33.733 Y21.728
X33.864 Y22.037
X33.984 Y22.35
X34.093 Y22.668
X34.19 Y22.99
X34.274 Y23.315
X34.347 Y23.643
X34.408 Y23.974
X34.456 Y24.306
X34.492 Y24.64
X34.516 Y24.976
X34.528 Y25.312
X34.527 Y25.649
X34.513 Y25.985
X34.488 Y26.321
X34.45 Y26.655
X34.399 Y26.988
X34.336 Y27.319
X34.262 Y27.648
X34.175 Y27.973
X34.076 Y28.295
X33.965 Y28.614
X33.843 Y28.928
X33.709 Y29.238
X33.563 Y29.542
X33.407 Y29.841
X33.24 Y30.134
X33.061 Y30.421
X32.873 Y30.701
X32.674 Y30.974
X32.465 Y31.24
X32.247 Y31.497
X32.019 Y31.747
X31.782 Y31.988
X31.536 Y32.22
X31.281 Y32.443
X31.019 Y32.657
X30.749 Y32.86
X30.471 Y33.054
X30.187 Y33.238
X29.896 Y33.41
X29.598 Y33.572
X29.295 Y33.723
X28.986 Y33.863
X28.673 Y33.991
X28.354 Y34.108
X28.032 Y34.213
X27.706 Y34.306
X27.376 Y34.387
X27.044 Y34.456
X26.709 Y34.512
X26.373 Y34.556
X26.034 Y34.588
X25.695 Y34.607
X25.356 Y34.613
X25.016 Y34.608
X24.676 Y34.589
X24.338 Y34.558
X24.001 Y34.515
X23.665 Y34.459
X23.332 Y34.391
X23.001 Y34.311
X22.674 Y34.218
X22.35 Y34.113
X22.03 Y33.997
X21.714 Y33.869
X21.403 Y33.729
X21.098 Y33.578
X20.798 Y33.415
X20.505 Y33.242
X20.218 Y33.058
X19.937 Y32.863
X19.665 Y32.658
X19.4 Y32.443
X19.142 Y32.219
X18.894 Y31.985
X18.654 Y31.742
X18.423 Y31.49
X18.201 Y31.23
X17.989 Y30.962
X17.787 Y30.686
X17.596 Y30.403
X17.415 Y30.113
X17.244 Y29.817
X17.085 Y29.514
X16.937 Y29.205
X16.8 Y28.891
X16.675 Y28.573
X16.562 Y28.249
X16.461 Y27.922
X16.372 Y27.591
X16.295 Y27.257
X16.231 Y26.921
X16.178 Y26.582
X16.139 Y26.241
X16.112 Y25.899
X16.097 Y25.557
X16.096 Y25.214
X16.107 Y24.87
X16.13 Y24.528
X16.166 Y24.187
X16.215 Y23.847
X16.276 Y23.508
X16.35 Y23.173
X16.436 Y22.84
X16.534 Y22.511
X16.645 Y22.185
X16.767 Y21.864
X16.901 Y21.547
X17.047 Y21.235
X17.204 Y20.929
X17.372 Y20.629
X17.552 Y20.335
X17.742 Y20.048
X17.943 Y19.768
X18.153 Y19.495
X18.374 Y19.231
X18.605 Y18.974
X18.844 Y18.727
X19.093 Y18.488
X19.351 Y18.258
X19.617 Y18.038
X19.89 Y17.828
X20.172 Y17.629
X20.461 Y17.439
X20.756 Y17.261
X21.058 Y17.093
X21.366 Y16.937
X21.68 Y16.792
X21.999 Y16.658
X22.322 Y16.537
X22.65 Y16.427
X22.982 Y16.33
X23.318 Y16.245
X23.656 Y16.172
X23.997 Y16.112
X24.34 Y16.064
X24.684 Y16.029
X25.03 Y16.007
X25.376 Y15.997
X25.723 Y16.001
X26.069 Y16.017
X26.414 Y16.045
X26.758 Y16.087
X27.101 Y16.141
X27.441 Y16.208
X27.779 Y16.287
X28.114 Y16.379
X28.445 Y16.483
X28.772 Y16.599
X29.095 Y16.727
X29.413 Y16.867
X29.725 Y17.019
X30.032 Y17.182
X30.333 Y17.357
X30.627 Y17.542
X30.914 Y17.738
X31.194 Y17.945
X31.466 Y18.162
X31.73 Y18.389
X31.986 Y18.625
X32.232 Y18.871
X32.47 Y19.126
X32.698 Y19.389
X32.916 Y19.661
X33.124 Y19.94
X33.322 Y20.228
X33.509 Y20.522
X33.685 Y20.823
X33.85 Y21.13
X34.003 Y21.444
X34.145 Y21.763
X34.275 Y22.087
X34.393 Y22.415
X34.499 Y22.748
X34.592 Y23.085
X34.673 Y23.425
X34.742 Y23.767
X34.798 Y24.112
X34.841 Y24.459
X34.871 Y24.808
X34.888 Y25.157
X34.893 Y25.507
X34.885 Y25.857
X34.863 Y26.206
X34.829 Y26.555
X34.782 Y26.902
X34.722 Y27.247
X34.65 Y27.589
X34.565 Y27.929
X34.468 Y28.266
X34.358 Y28.599
X34.236 Y28.928
X34.101 Y29.252
X33.955 Y29.57
X33.798 Y29.884
X33.628 Y30.191
X33.448 Y30.492
X33.256 Y30.787
X33.054 Y31.074
X32.841 Y31.353
X32.618 Y31.625
X32.386 Y31.888
X32.143 Y32.142
X31.891 Y32.388
X31.631 Y32.624
X31.361 Y32.85
X31.084 Y33.066
X30.799 Y33.272
X30.506 Y33.467
X30.206 Y33.652
X29.9 Y33.825
X29.587 Y33.987
X29.268 Y34.137
X28.944 Y34.276
X28.615 Y34.402
X28.282 Y34.517
X27.944 Y34.619
X27.603 Y34.708
X27.259 Y34.785
X26.912 Y34.849
X26.563 Y34.9
X26.212 Y34.939
X25.86 Y34.964
X25.507 Y34.977
X25.154 Y34.976
X24.801 Y34.963
X24.448 Y34.936
X24.097 Y34.897
X23.747 Y34.844
X23.4 Y34.779
X23.055 Y34.701
X22.713 Y34.61
X22.374 Y34.506
X22.04 Y34.391
X21.71 Y34.263
X21.385 Y34.122
X21.065 Y33.97
X20.751 Y33.806
X20.443 Y33.631
X20.142 Y33.444
X19.847 Y33.247
X19.56 Y33.038
X19.281 Y32.819
X19.01 Y32.59
X18.748 Y32.351
X18.495 Y32.103
X18.251 Y31.845
X18.016 Y31.578
X17.792 Y31.303
X17.577 Y31.02
X17.374 Y30.729
X17.181 Y30.43
X16.999 Y30.125
X16.828 Y29.813
X16.669 Y29.495
X16.522 Y29.171
X16.387 Y28.842
X16.264 Y28.508
X16.154 Y28.169
X16.056 Y27.827
X15.97 Y27.481
X15.898 Y27.133
X15.838 Y26.781
X15.791 Y26.428
X15.758 Y26.073
X15.737 Y25.717
X15.73 Y25.361
X15.735 Y25.004
X15.754 Y24.648
X15.786 Y24.293
X15.831 Y23.939
X15.889 Y23.587
X15.96 Y23.237
X16.044 Y22.889
X16.141 Y22.546
X16.25 Y22.205
X16.372 Y21.87
X16.506 Y21.538
X16.653 Y21.212
X16.811 Y20.891
X16.981 Y20.577
X17.162 Y20.268
X17.355 Y19.967
X17.559 Y19.673
X17.774 Y19.386
X17.999 Y19.108
X18.234 Y18.838
X18.479 Y18.576
X18.733 Y18.324
X18.997 Y18.082
X19.27 Y17.849
X19.551 Y17.626
X19.84 Y17.414
X20.137 Y17.213
X20.441 Y17.022
X20.752 Y16.843
X21.069 Y16.676
X21.393 Y16.52
X21.722 Y16.376
X22.056 Y16.245
X22.395 Y16.125
X22.738 Y16.019
X23.085 Y15.925
X23.435 Y15.844
X23.788 Y15.776
X24.144 Y15.72
X24.501 Y15.678
X24.859 Y15.65
X25.219 Y15.634
X25.579 Y15.632
X25.939 Y15.643
X26.298 Y15.667
X26.656 Y15.705
X27.013 Y15.755
X27.368 Y15.819
X27.72 Y15.896
X28.069 Y15.986
X28.415 Y16.088
X28.756 Y16.204
X29.094 Y16.331
X29.426 Y16.472
X29.753 Y16.624
X30.075 Y16.789
X30.39 Y16.965
X30.698 Y17.152
X31 Y17.351
X31.294 Y17.562
X31.58 Y17.782
X31.858 Y18.014
X32.127 Y18.255
X32.387 Y18.506
X32.638 Y18.767
X32.879 Y19.037
X33.11 Y19.315
X33.331 Y19.602
X33.541 Y19.897
X33.74 Y20.2
X33.927 Y20.51
X34.104 Y20.826
X34.268 Y21.149
X34.421 Y21.478
X34.561 Y21.812
X34.689 Y22.152
X34.804 Y22.495
X34.907 Y22.843
X34.997 Y23.195
X35.073 Y23.55
X35.137 Y23.907
X35.187 Y24.267
X35.225 Y24.628
X35.248 Y24.99
X35.259 Y25.354
X35.256 Y25.717
X35.24 Y26.08
X35.21 Y26.443
X35.167 Y26.804
X35.11 Y27.163
X35.041 Y27.52
X34.958 Y27.874
X34.862 Y28.225
X34.754 Y28.573
X34.632 Y28.916
X34.498 Y29.255
X34.352 Y29.588
X34.193 Y29.916
X34.023 Y30.238
X33.84 Y30.554
X33.646 Y30.862
X33.441 Y31.164
X33.225 Y31.457
X32.998 Y31.743
X32.76 Y32.02
X32.513 Y32.288
X32.255 Y32.547
X31.988 Y32.796
X31.713 Y33.036
X31.428 Y33.265
X31.135 Y33.483
X30.835 Y33.691
X30.526 Y33.887
X30.211 Y34.072
X29.889 Y34.245
X29.561 Y34.407
X29.227 Y34.556
X28.887 Y34.692
X28.543 Y34.817
X28.194 Y34.928
X27.841 Y35.026
X27.485 Y35.112
X27.126 Y35.184
X26.765 Y35.243
X26.401 Y35.289
X26.036 Y35.321
X25.67 Y35.34
X25.303 Y35.345
X24.936 Y35.337
X24.57 Y35.315
X24.205 Y35.28
X23.841 Y35.231
X23.479 Y35.169
X23.12 Y35.093
X22.763 Y35.005
X22.41 Y34.903
X22.061 Y34.788
X21.717 Y34.66
X21.377 Y34.52
X21.042 Y34.368
X20.714 Y34.203
X20.391 Y34.026
X20.075 Y33.837
X19.767 Y33.637
X19.465 Y33.425
X19.172 Y33.202
X18.887 Y32.969
X18.611 Y32.725
X18.344 Y32.472
X18.087 Y32.208
X17.839 Y31.935
X17.601 Y31.653
X17.374 Y31.363
X17.158 Y31.064
X16.953 Y30.757
X16.759 Y30.443
X16.577 Y30.122
X16.407 Y29.795
X16.249 Y29.461
X16.103 Y29.122
X15.97 Y28.777
X15.85 Y28.428
X15.743 Y28.074
X15.648 Y27.717
X15.567 Y27.356
X15.5 Y26.992
X15.445 Y26.627
X15.405 Y26.259
X15.378 Y25.89
X15.364 Y25.52
Y25.15
X15.378 Y24.78
X15.405 Y24.411
X15.446 Y24.042
X15.501 Y23.676
X15.569 Y23.312
X15.65 Y22.95
X15.745 Y22.592
X15.853 Y22.237
X15.974 Y21.886
X16.107 Y21.54
X16.254 Y21.199
X16.413 Y20.864
X16.584 Y20.535
X16.767 Y20.212
X16.962 Y19.896
X17.169 Y19.587
X17.387 Y19.287
X17.616 Y18.994
X17.856 Y18.71
X18.106 Y18.435
X18.366 Y18.169
X18.635 Y17.913
X18.914 Y17.667
X19.202 Y17.431
X19.499 Y17.206
X19.803 Y16.993
X20.116 Y16.79
X20.435 Y16.599
X20.762 Y16.42
X21.095 Y16.253
X21.434 Y16.099
X21.779 Y15.957
X22.128 Y15.827
X22.483 Y15.711
X22.841 Y15.608
X23.203 Y15.518
X23.568 Y15.442
X23.936 Y15.379
X24.306 Y15.329
X24.678 Y15.294
X25.05 Y15.272
X25.424 Y15.263
X25.797 Y15.269
X26.17 Y15.288
X26.543 Y15.321
X26.914 Y15.368
X27.283 Y15.428
X27.649 Y15.502
X28.013 Y15.59
X28.373 Y15.69
X28.729 Y15.804
X29.082 Y15.932
X29.429 Y16.072
X29.771 Y16.224
X30.107 Y16.39
X30.436 Y16.567
X30.76 Y16.757
X31.076 Y16.958
X31.384 Y17.172
X31.684 Y17.396
X31.976 Y17.631
X32.26 Y17.877
X32.534 Y18.134
X32.798 Y18.4
X33.052 Y18.676
X33.297 Y18.961
X33.53 Y19.255
X33.753 Y19.558
X33.964 Y19.868
X34.164 Y20.186
X34.352 Y20.512
X34.528 Y20.844
X34.691 Y21.183
X34.842 Y21.527
X34.981 Y21.877
X35.106 Y22.232
X35.218 Y22.591
X35.317 Y22.954
X35.402 Y23.321
X35.474 Y23.691
X35.532 Y24.063
X35.577 Y24.437
X35.608 Y24.812
X35.624 Y25.189
X35.627 Y25.566
X35.616 Y25.943
X35.591 Y26.319
X35.553 Y26.694
X35.5 Y27.068
X35.434 Y27.439
X35.354 Y27.808
X35.26 Y28.174
X35.153 Y28.536
X35.033 Y28.894
X34.899 Y29.247
X34.753 Y29.596
X34.594 Y29.938
X34.422 Y30.275
X34.238 Y30.605
X34.042 Y30.928
X33.834 Y31.244
X33.614 Y31.552
X33.384 Y31.852
X33.142 Y32.143
X32.89 Y32.425
X32.627 Y32.698
X32.355 Y32.961
X32.072 Y33.214
X31.781 Y33.456
X31.481 Y33.687
X31.173 Y33.908
X30.856 Y34.116
X30.532 Y34.313
X30.201 Y34.498
X29.863 Y34.671
X29.519 Y34.831
X29.17 Y34.978
X28.815 Y35.112
X28.455 Y35.234
X28.091 Y35.341
X27.723 Y35.436
X27.352 Y35.517
X26.978 Y35.584
X26.602 Y35.637
X26.223 Y35.676
X25.844 Y35.702
X25.464 Y35.713
X25.084 Y35.711
X24.704 Y35.694
X24.324 Y35.663
X23.946 Y35.619
X23.57 Y35.56
X23.196 Y35.488
X22.825 Y35.402
X22.458 Y35.302
X22.094 Y35.189
X21.734 Y35.062
X21.38 Y34.922
X21.03 Y34.77
X20.687 Y34.604
X20.35 Y34.426
X20.019 Y34.235
X19.696 Y34.033
X19.38 Y33.818
X19.072 Y33.592
X18.773 Y33.355
X18.483 Y33.107
X18.202 Y32.848
X17.931 Y32.579
X17.669 Y32.3
X17.418 Y32.012
X17.178 Y31.714
X16.949 Y31.408
X16.732 Y31.094
X16.526 Y30.771
X16.332 Y30.441
X16.15 Y30.105
X15.981 Y29.761
X15.824 Y29.412
X15.681 Y29.057
X15.55 Y28.697
X15.433 Y28.332
X15.33 Y27.963
X15.24 Y27.59
X15.164 Y27.215
X15.101 Y26.836
X15.053 Y26.456
X15.019 Y26.074
X14.999 Y25.691
X14.993 Y25.307
X15.001 Y24.923
X15.023 Y24.54
X15.06 Y24.158
X15.11 Y23.777
X15.175 Y23.398
X15.253 Y23.022
X15.346 Y22.649
X15.452 Y22.28
X15.571 Y21.914
X15.704 Y21.553
X15.85 Y21.198
X16.01 Y20.847
X16.182 Y20.503
X16.367 Y20.166
X16.564 Y19.835
X16.773 Y19.512
X16.994 Y19.196
X17.226 Y18.889
X17.47 Y18.591
X17.725 Y18.302
X17.99 Y18.022
X18.265 Y17.752
X18.55 Y17.493
X18.845 Y17.244
X19.148 Y17.006
X19.461 Y16.779
X19.781 Y16.564
X20.109 Y16.361
X20.445 Y16.17
X20.787 Y15.992
X21.136 Y15.826
X21.491 Y15.673
X21.851 Y15.534
X22.216 Y15.408
X22.586 Y15.295
X22.96 Y15.196
X23.337 Y15.111
X23.717 Y15.039
X24.1 Y14.982
X24.484 Y14.939
X24.87 Y14.91
X25.257 Y14.895
X25.644
X26.031 Y14.909
X26.417 Y14.937
X26.803 Y14.979
X27.186 Y15.036
X27.567 Y15.106
X27.945 Y15.191
X28.32 Y15.29
X28.691 Y15.402
X29.058 Y15.528
X29.42 Y15.667
X29.777 Y15.82
X30.128 Y15.986
X30.473 Y16.164
X30.811 Y16.356
X31.141 Y16.559
X31.464 Y16.775
X31.779 Y17.003
X32.086 Y17.242
X32.383 Y17.492
X32.671 Y17.753
X32.95 Y18.025
X33.218 Y18.306
X33.475 Y18.598
X33.722 Y18.899
X33.958 Y19.209
X34.182 Y19.527
X34.394 Y19.853
X34.594 Y20.188
X34.782 Y20.529
X34.957 Y20.877
X35.119 Y21.231
X35.268 Y21.592
X35.404 Y21.957
X35.526 Y22.328
X35.634 Y22.702
X35.729 Y23.081
X35.809 Y23.463
X35.875 Y23.847
X35.928 Y24.234
X35.965 Y24.623
X35.989 Y25.012
X35.998 Y25.403
X35.993 Y25.793
X35.973 Y26.184
X35.939 Y26.573
X35.891 Y26.961
X35.828 Y27.347
X35.751 Y27.73
X35.66 Y28.111
X35.556 Y28.488
X35.437 Y28.86
X35.304 Y29.229
X35.158 Y29.592
X34.999 Y29.949
X34.827 Y30.301
X34.641 Y30.646
X34.444 Y30.984
X34.233 Y31.315
X34.011 Y31.638
X33.777 Y31.952
X33.531 Y32.258
X33.274 Y32.554
X33.007 Y32.841
X32.729 Y33.117
X32.441 Y33.384
X32.143 Y33.639
X31.836 Y33.884
X31.52 Y34.117
X31.196 Y34.338
X30.863 Y34.548
X30.523 Y34.745
X30.176 Y34.929
X29.823 Y35.1
X29.463 Y35.259
X29.097 Y35.404
X28.727 Y35.535
X28.351 Y35.653
X27.972 Y35.757
X27.589 Y35.846
X27.202 Y35.922
X26.814 Y35.983
X26.423 Y36.03
X26.03 Y36.063
X25.637 Y36.081
X25.243 Y36.084
X24.849 Y36.073
X24.455 Y36.048
X24.063 Y36.008
X23.673 Y35.953
X23.284 Y35.885
X22.899 Y35.801
X22.516 Y35.704
X22.138 Y35.593
X21.763 Y35.468
X21.394 Y35.329
X21.029 Y35.176
X20.671 Y35.01
X20.319 Y34.831
X19.973 Y34.639
X19.635 Y34.435
X19.305 Y34.218
X18.982 Y33.989
X18.669 Y33.748
X18.364 Y33.496
X18.069 Y33.232
X17.783 Y32.958
X17.508 Y32.674
X17.244 Y32.379
X16.99 Y32.075
X16.748 Y31.762
X16.517 Y31.44
X16.299 Y31.109
X16.093 Y30.771
X15.899 Y30.425
X15.718 Y30.072
X15.55 Y29.713
X15.396 Y29.347
X15.255 Y28.977
X15.128 Y28.601
X15.015 Y28.22
X14.915 Y27.836
X14.83 Y27.448
X14.76 Y27.058
X14.704 Y26.664
X14.662 Y26.269
X14.635 Y25.873
X14.622 Y25.476
X14.625 Y25.078
X14.641 Y24.681
X14.673 Y24.285
X14.719 Y23.89
X14.78 Y23.496
X14.855 Y23.106
X14.944 Y22.718
X15.048 Y22.334
X15.166 Y21.953
X15.298 Y21.578
X15.443 Y21.207
X15.602 Y20.842
X15.775 Y20.483
X15.961 Y20.13
X16.159 Y19.784
X16.371 Y19.446
X16.594 Y19.116
X16.83 Y18.795
X17.077 Y18.482
X17.336 Y18.178
X17.606 Y17.884
X17.887 Y17.6
X18.178 Y17.327
X18.479 Y17.064
X18.789 Y16.813
X19.109 Y16.573
X19.437 Y16.346
X19.773 Y16.13
X20.118 Y15.927
X20.469 Y15.737
X20.828 Y15.559
X21.193 Y15.395
X21.563 Y15.245
X21.939 Y15.108
X22.32 Y14.986
X22.705 Y14.877
X23.094 Y14.783
X23.487 Y14.703
X23.882 Y14.637
X24.279 Y14.586
X24.678 Y14.55
X25.078 Y14.528
X25.479 Y14.522
X25.88 Y14.53
X26.28 Y14.552
X26.68 Y14.59
X27.077 Y14.642
X27.473 Y14.709
X27.866 Y14.791
X28.256 Y14.886
X28.642 Y14.997
X29.024 Y15.121
X29.401 Y15.26
X29.772 Y15.412
X30.138 Y15.578
X30.498 Y15.757
X30.851 Y15.949
X31.197 Y16.155
X31.535 Y16.373
X31.864 Y16.603
X32.185 Y16.846
X32.497 Y17.1
X32.8 Y17.365
X33.092 Y17.642
X33.374 Y17.929
X33.646 Y18.227
X33.906 Y18.534
X34.155 Y18.851
X34.392 Y19.177
X34.617 Y19.511
X34.83 Y19.854
X35.03 Y20.204
X35.216 Y20.561
X35.39 Y20.925
X35.55 Y21.296
X35.696 Y21.672
X35.829 Y22.053
X35.947 Y22.439
X36.051 Y22.829
X36.141 Y23.223
X36.215 Y23.62
X36.276 Y24.02
X36.321 Y24.421
X36.352 Y24.824
X36.368 Y25.228
X36.369 Y25.632
X36.355 Y26.037
X36.326 Y26.44
X36.282 Y26.842
X36.224 Y27.243
X36.151 Y27.641
X36.063 Y28.036
X35.96 Y28.428
X35.843 Y28.815
X35.712 Y29.199
X35.567 Y29.577
X35.408 Y29.95
X35.236 Y30.316
X35.05 Y30.676
X34.85 Y31.029
X34.638 Y31.375
X34.413 Y31.713
X34.176 Y32.042
X33.927 Y32.362
X33.666 Y32.673
X33.394 Y32.974
X33.111 Y33.265
X32.817 Y33.545
X32.513 Y33.815
X32.199 Y34.073
X31.876 Y34.319
X31.544 Y34.553
X31.204 Y34.775
X30.855 Y34.985
X30.499 Y35.181
X30.136 Y35.364
X29.766 Y35.534
X29.391 Y35.69
X29.009 Y35.832
X28.623 Y35.96
X28.232 Y36.073
X27.837 Y36.172
X27.439 Y36.257
X27.037 Y36.327
X26.633 Y36.382
X26.228 Y36.422
X25.821 Y36.447
X25.413 Y36.457
X25.006 Y36.452
X24.598 Y36.432
X24.192 Y36.397
X23.787 Y36.347
X23.384 Y36.282
X22.984 Y36.203
X22.587 Y36.108
X22.193 Y35.999
X21.804 Y35.876
X21.419 Y35.738
X21.04 Y35.586
X20.666 Y35.42
X20.299 Y35.241
X19.939 Y35.048
X19.585 Y34.842
X19.24 Y34.623
X18.903 Y34.391
X18.574 Y34.147
X18.255 Y33.891
X17.945 Y33.623
X17.646 Y33.345
X17.356 Y33.055
X17.078 Y32.754
X16.811 Y32.444
X16.555 Y32.124
X16.311 Y31.794
X16.08 Y31.456
X15.861 Y31.109
X15.655 Y30.755
X15.462 Y30.393
X15.283 Y30.024
X15.117 Y29.649
X14.965 Y29.267
X14.827 Y28.881
X14.704 Y28.489
X14.595 Y28.093
X14.501 Y27.693
X14.421 Y27.29
X14.357 Y26.885
X14.307 Y26.477
X14.273 Y26.067
X14.254 Y25.656
X14.249 Y25.245
X14.26 Y24.834
X14.286 Y24.424
X14.328 Y24.014
X14.384 Y23.607
X14.455 Y23.201
X14.541 Y22.799
X14.642 Y22.4
X14.758 Y22.004
X14.888 Y21.614
X15.033 Y21.228
X15.191 Y20.847
X15.364 Y20.473
X15.55 Y20.105
X15.75 Y19.745
X15.963 Y19.392
X16.189 Y19.047
X16.428 Y18.71
X16.678 Y18.382
X16.941 Y18.064
X17.216 Y17.756
X17.501 Y17.458
X17.798 Y17.17
X18.105 Y16.894
X18.422 Y16.629
X18.748 Y16.376
X19.084 Y16.135
X19.428 Y15.906
X19.781 Y15.691
X20.141 Y15.488
X20.509 Y15.299
X20.884 Y15.124
X21.265 Y14.962
X21.651 Y14.815
X22.043 Y14.681
X22.44 Y14.563
X22.841 Y14.459
X23.245 Y14.37
X23.653 Y14.295
X24.063 Y14.236
X24.475 Y14.192
X24.888 Y14.163
X25.302 Y14.15
X25.717 Y14.152
X26.131 Y14.169
X26.545 Y14.201
X26.957 Y14.249
X27.367 Y14.311
X27.775 Y14.389
X28.18 Y14.482
X28.581 Y14.59
X28.977 Y14.712
X29.369 Y14.849
X29.756 Y15
X30.137 Y15.166
X30.512 Y15.345
X30.88 Y15.539
X31.241 Y15.745
X31.594 Y15.965
X31.939 Y16.198
X32.275 Y16.444
X32.601 Y16.701
X32.918 Y16.971
X33.225 Y17.252
X33.522 Y17.544
X33.807 Y17.848
X34.081 Y18.161
X34.344 Y18.485
X34.594 Y18.818
X34.832 Y19.16
X35.058 Y19.51
X35.27 Y19.869
X35.469 Y20.236
X35.654 Y20.609
X35.826 Y20.99
X35.983 Y21.376
X36.126 Y21.768
X36.255 Y22.165
X36.369 Y22.567
X36.468 Y22.973
X36.552 Y23.382
X36.621 Y23.794
X36.674 Y24.208
X36.713 Y24.624
X36.736 Y25.042
X36.743 Y25.46
X36.735 Y25.878
X36.712 Y26.295
X36.674 Y26.712
X36.62 Y27.127
X36.55 Y27.539
X36.466 Y27.949
X36.366 Y28.356
X36.252 Y28.759
X36.123 Y29.157
X35.979 Y29.55
X35.821 Y29.938
X35.648 Y30.32
X35.462 Y30.695
X35.262 Y31.063
X35.048 Y31.424
X34.821 Y31.777
X34.581 Y32.121
X34.329 Y32.456
X34.064 Y32.781
X33.788 Y33.097
X33.5 Y33.403
X33.201 Y33.697
X32.891 Y33.981
X32.571 Y34.252
X32.241 Y34.512
X31.902 Y34.76
X31.553 Y34.995
X31.197 Y35.217
X30.832 Y35.426
X30.459 Y35.621
X30.08 Y35.802
X29.694 Y35.97
X29.302 Y36.123
X28.905 Y36.261
X28.503 Y36.385
X28.096 Y36.494
X27.686 Y36.588
X27.272 Y36.667
X26.856 Y36.73
X26.437 Y36.778
X26.017 Y36.811
X25.596 Y36.828
X25.175 Y36.829
X24.753 Y36.815
X24.333 Y36.786
X23.913 Y36.741
X23.496 Y36.68
X23.081 Y36.604
X22.669 Y36.513
X22.26 Y36.407
X21.856 Y36.286
X21.456 Y36.15
X21.062 Y35.999
X20.673 Y35.834
X20.291 Y35.654
X19.915 Y35.461
X19.547 Y35.253
X19.186 Y35.033
X18.834 Y34.799
X18.49 Y34.552
X18.156 Y34.293
X17.832 Y34.021
X17.517 Y33.738
X17.214 Y33.443
X16.921 Y33.137
X16.64 Y32.821
X16.371 Y32.494
X16.113 Y32.158
X15.869 Y31.812
X15.637 Y31.457
X15.418 Y31.094
X15.213 Y30.723
X15.021 Y30.345
X14.844 Y29.96
X14.681 Y29.568
X14.532 Y29.171
X14.399 Y28.768
X14.28 Y28.361
X14.176 Y27.949
X14.087 Y27.534
X14.014 Y27.116
X13.956 Y26.695
X13.914 Y26.273
X13.887 Y25.849
X13.876 Y25.424
X13.881 Y24.999
X13.901 Y24.574
X13.937 Y24.151
X13.988 Y23.729
X14.055 Y23.309
X14.138 Y22.891
X14.236 Y22.477
X14.349 Y22.067
X14.477 Y21.661
X14.62 Y21.26
X14.778 Y20.865
X14.95 Y20.475
X15.136 Y20.092
X15.337 Y19.716
X15.551 Y19.348
X15.779 Y18.988
X16.02 Y18.636
X16.274 Y18.294
X16.54 Y17.961
X16.818 Y17.637
X17.109 Y17.325
X17.41 Y17.023
X17.723 Y16.732
X18.046 Y16.454
X18.379 Y16.187
X18.722 Y15.932
X19.074 Y15.691
X19.435 Y15.462
X19.804 Y15.247
X20.181 Y15.046
X20.565 Y14.858
X20.956 Y14.685
X21.353 Y14.526
X21.756 Y14.383
X22.164 Y14.253
X22.576 Y14.14
X22.992 Y14.041
X23.412 Y13.958
X23.835 Y13.89
X24.26 Y13.838
X24.686 Y13.801
X25.114 Y13.78
X25.542 Y13.775
X25.971 Y13.786
X26.398 Y13.813
X26.825 Y13.855
X27.25 Y13.913
X27.672 Y13.987
X28.091 Y14.076
X28.507 Y14.181
X28.919 Y14.301
X29.327 Y14.436
X29.729 Y14.586
X30.125 Y14.751
X30.515 Y14.93
X30.898 Y15.124
X31.274 Y15.332
X31.642 Y15.553
X32.002 Y15.788
X32.353 Y16.036
X32.695 Y16.297
X33.027 Y16.57
X33.348 Y16.855
X33.659 Y17.153
X33.959 Y17.461
X34.248 Y17.78
X34.524 Y18.11
X34.788 Y18.45
X35.04 Y18.8
X35.278 Y19.158
X35.503 Y19.525
X35.715 Y19.901
X35.912 Y20.283
X36.095 Y20.673
X36.264 Y21.07
X36.419 Y21.473
X36.558 Y21.881
X36.682 Y22.294
X36.791 Y22.711
X36.884 Y23.132
X36.962 Y23.557
X37.024 Y23.984
X37.071 Y24.413
X37.101 Y24.843
X37.116 Y25.275
X37.114 Y25.707
X37.097 Y26.138
X37.064 Y26.569
X37.015 Y26.999
X36.95 Y27.426
X36.87 Y27.851
X36.774 Y28.272
X36.662 Y28.69
X36.535 Y29.103
X36.393 Y29.512
X36.236 Y29.915
X36.064 Y30.312
X35.878 Y30.703
X35.677 Y31.086
X35.462 Y31.462
X35.234 Y31.83
X34.992 Y32.189
X34.736 Y32.539
X34.469 Y32.88
X34.188 Y33.21
X33.896 Y33.53
X33.592 Y33.84
X33.277 Y34.137
X32.951 Y34.423
X32.614 Y34.697
X32.268 Y34.958
X31.912 Y35.207
X31.547 Y35.442
X31.174 Y35.663
X30.792 Y35.871
X30.404 Y36.064
X30.008 Y36.243
X29.606 Y36.408
X29.198 Y36.557
X28.784 Y36.692
X28.366 Y36.811
X27.944 Y36.914
X27.518 Y37.002
X27.089 Y37.075
X26.658 Y37.131
X26.225 Y37.171
X25.79 Y37.196
X25.355 Y37.204
X24.92 Y37.197
X24.485 Y37.173
X24.052 Y37.134
X23.62 Y37.078
X23.19 Y37.006
X22.763 Y36.919
X22.339 Y36.816
X21.92 Y36.697
X21.505 Y36.563
X21.095 Y36.414
X20.691 Y36.25
X20.293 Y36.071
X19.902 Y35.877
X19.519 Y35.669
X19.143 Y35.447
X18.776 Y35.212
X18.417 Y34.962
X18.068 Y34.7
X17.728 Y34.425
X17.399 Y34.138
X17.081 Y33.838
X16.774 Y33.527
X16.478 Y33.205
X16.195 Y32.872
X15.924 Y32.529
X15.666 Y32.176
X15.421 Y31.814
X15.189 Y31.443
X14.971 Y31.063
X14.767 Y30.676
X14.578 Y30.281
X14.403 Y29.879
X14.243 Y29.472
X14.099 Y29.058
X13.969 Y28.64
X13.855 Y28.217
X13.757 Y27.789
X13.674 Y27.359
X13.608 Y26.926
X13.557 Y26.49
X13.523 Y26.053
X13.505 Y25.614
X13.502 Y25.176
X13.516 Y24.737
X13.547 Y24.299
X13.593 Y23.863
X13.655 Y23.428
X13.734 Y22.996
X13.828 Y22.567
X13.938 Y22.142
X14.064 Y21.721
X14.205 Y21.304
X14.361 Y20.894
X14.532 Y20.489
X14.719 Y20.09
X14.92 Y19.699
X15.135 Y19.316
X15.364 Y18.94
X15.607 Y18.573
X15.863 Y18.215
X16.133 Y17.867
X16.415 Y17.529
X16.709 Y17.202
X17.016 Y16.885
X17.334 Y16.58
X17.663 Y16.287
X18.002 Y16.007
X18.352 Y15.738
X18.712 Y15.483
X19.08 Y15.242
X19.458 Y15.013
X19.843 Y14.799
X20.237 Y14.6
X20.637 Y14.415
X21.044 Y14.244
X21.458 Y14.089
X21.877 Y13.95
X22.3 Y13.825
X22.728 Y13.717
X23.16 Y13.624
X23.595 Y13.547
X24.033 Y13.486
X24.473 Y13.442
X24.914 Y13.413
X25.356 Y13.401
X25.798 Y13.405
X26.24 Y13.426
X26.681 Y13.463
X27.12 Y13.516
X27.557 Y13.585
X27.991 Y13.67
X28.422 Y13.771
X28.849 Y13.889
X29.272 Y14.021
X29.689 Y14.17
X30.101 Y14.333
X30.506 Y14.512
X30.905 Y14.705
X31.296 Y14.914
X31.68 Y15.136
X32.055 Y15.373
X32.421 Y15.623
X32.778 Y15.886
X33.125 Y16.163
X33.461 Y16.452
X33.787 Y16.754
X34.102 Y17.067
X34.404 Y17.392
X34.695 Y17.728
X34.973 Y18.074
X35.238 Y18.431
X35.49 Y18.797
X35.728 Y19.172
X35.953 Y19.556
X36.163 Y19.948
X36.358 Y20.347
X36.539 Y20.754
X36.705 Y21.167
X36.855 Y21.585
X36.99 Y22.009
X37.109 Y22.438
X37.212 Y22.871
X37.299 Y23.308
X37.37 Y23.748
X37.425 Y24.19
X37.464 Y24.634
X37.486 Y25.079
X37.492 Y25.524
X37.481 Y25.97
X37.454 Y26.415
X37.41 Y26.859
X37.35 Y27.301
X37.274 Y27.74
X37.182 Y28.176
X37.074 Y28.609
X36.949 Y29.038
X36.809 Y29.462
X36.654 Y29.88
X36.483 Y30.293
X36.297 Y30.699
X36.096 Y31.098
X35.881 Y31.489
X35.651 Y31.872
X35.407 Y32.247
X35.15 Y32.612
X34.879 Y32.968
X34.595 Y33.314
X34.298 Y33.648
X33.99 Y33.972
X33.669 Y34.285
X33.338 Y34.585
X32.995 Y34.873
X32.642 Y35.148
X32.279 Y35.41
X31.906 Y35.658
X31.525 Y35.893
X31.135 Y36.113
X30.737 Y36.319
X30.332 Y36.511
X29.919 Y36.687
X29.501 Y36.848
X29.077 Y36.993
X28.648 Y37.123
X28.214 Y37.236
X27.776 Y37.334
X27.335 Y37.416
X26.891 Y37.481
X26.444 Y37.53
X25.997 Y37.562
X25.548 Y37.578
X25.099 Y37.577
X24.65 Y37.56
X24.202 Y37.526
X23.755 Y37.475
X23.311 Y37.409
X22.869 Y37.326
X22.431 Y37.226
X21.996 Y37.111
X21.704 Y37.022
X21.632 Y36.999
X21.54 Y36.971
X21.498 Y36.958
X20.942 Y36.755
X20.531 Y36.589
X20.326 Y36.496
G3 X20.59 Y35.919 I0.148 J-0.281
G1 X21.698 Y36.356
G3 X21.498 Y36.958 I-0.117 J0.295
G1 X21.129 Y36.844
X20.962 Y36.776
X20.627 Y36.635
X20.459 Y36.56
X20.124 Y36.398
X20.065 Y36.37
X19.957 Y36.318
X19.309 Y35.965
X18.966 Y35.768
X18.795 Y35.661
X18.781 Y35.651
G3 X19.125 Y35.119 I0.188 J-0.256
G1 X20.241 Y35.751
G3 X19.957 Y36.318 I-0.157 J0.276
G1 X19.37 Y36.035
X19.287 Y35.994
X18.784 Y35.653
X18.45 Y35.425
X18.282 Y35.311
X18.115 Y35.19
X17.671 Y34.863
X17.612 Y34.809
X16.948 Y34.193
X16.942 Y34.188
X16.427 Y33.659
X16.193 Y33.415
X16.142 Y33.356
X16.129 Y33.34
G3 X16.612 Y32.929 I0.254 J-0.19
G1 X17.379 Y33.727
G3 X16.942 Y34.188 I-0.229 J0.22
G1 X16.44 Y33.721
X16.411 Y33.69
X15.872 Y33.02
X15.605 Y32.685
X15.435 Y32.472
X15.347 Y32.35
X15.146 Y32.016
X15.048 Y31.848
X14.469 Y30.843
X14.234 Y30.341
X13.928 Y29.563
X13.76 Y29.136
X13.723 Y29.001
X13.679 Y28.833
X13.637 Y28.666
X13.37 Y27.494
X13.34 Y27.326
X13.274 Y26.824
X13.199 Y25.819
X13.189 Y25.651
Y25.149
X13.199 Y24.981
X13.274 Y23.976
X13.34 Y23.474
X13.37 Y23.306
X13.637 Y22.134
X13.679 Y21.967
X13.723 Y21.799
X13.76 Y21.664
X14.167 Y20.627
X14.234 Y20.459
X14.469 Y19.957
X15.1 Y18.862
X15.146 Y18.784
X15.347 Y18.45
X15.435 Y18.328
X16.006 Y17.612
X16.411 Y17.11
X16.44 Y17.079
X17.612 Y15.991
X17.671 Y15.937
X18.126 Y15.602
X18.282 Y15.489
X19.119 Y14.919
X19.287 Y14.806
X19.37 Y14.765
X20.459 Y14.24
X20.627 Y14.165
X20.962 Y14.024
X21.129 Y13.956
X22.134 Y13.646
X22.314 Y13.593
X22.804 Y13.456
X22.991 Y13.425
X23.976 Y13.277
X24.479 Y13.219
X24.646 Y13.211
X26.154
X26.321 Y13.219
X26.824 Y13.277
X27.828 Y13.428
X27.996 Y13.456
X28.498 Y13.596
X28.666 Y13.646
X29.671 Y13.956
X29.838 Y14.024
X30.173 Y14.165
X30.341 Y14.24
X31.43 Y14.765
X31.513 Y14.806
X32.016 Y15.147
X32.518 Y15.489
X32.685 Y15.61
X33.129 Y15.937
X33.188 Y15.991
X34.36 Y17.079
X34.389 Y17.11
X34.928 Y17.78
X35.365 Y18.328
X35.453 Y18.45
X35.654 Y18.784
X35.752 Y18.952
X36.331 Y19.957
X36.566 Y20.459
X36.872 Y21.237
X37.04 Y21.664
X37.077 Y21.799
X37.121 Y21.967
X37.163 Y22.134
X37.43 Y23.306
X37.46 Y23.474
X37.526 Y23.976
X37.601 Y24.981
X37.611 Y25.149
Y25.651
X37.601 Y25.819
X37.526 Y26.824
X37.46 Y27.326
X37.43 Y27.494
X37.163 Y28.666
X37.121 Y28.833
X37.077 Y29.001
X37.04 Y29.136
X36.633 Y30.173
X36.566 Y30.341
X36.331 Y30.843
X35.7 Y31.938
X35.654 Y32.016
X35.453 Y32.35
X35.365 Y32.472
X34.794 Y33.188
X34.389 Y33.69
X34.36 Y33.721
X33.188 Y34.809
X33.129 Y34.863
X32.674 Y35.198
X32.518 Y35.311
X31.681 Y35.881
X31.513 Y35.994
X31.43 Y36.035
X30.341 Y36.56
X30.173 Y36.635
X29.838 Y36.776
X29.671 Y36.844
X28.666 Y37.154
X28.486 Y37.207
X27.996 Y37.344
X27.809 Y37.375
X26.824 Y37.523
X26.321 Y37.581
X26.154 Y37.589
X24.646
X24.479 Y37.581
X23.976 Y37.523
X22.972 Y37.372
X22.804 Y37.344
X22.302 Y37.204
X22.134 Y37.154
X21.704 Y37.022
G3 X21.5 Y36.647 I0.104 J-0.3
G1 X21.525 Y36.599 Z-8.995
X21.55 Y36.552 Z-8.981
X21.573 Y36.509 Z-8.958
X21.614 Y36.481 Z-8.922
X21.649 Y36.458 Z-8.878
X21.676 Y36.44 Z-8.827
X21.694 Y36.428 Z-8.771
X21.703 Y36.422 Z-8.711
X21.704 Z-8.682
G0 Z-8.165
X25.073 Y35.539
G1 Z-8.483 F300
X25.075 Y35.547 Z-8.553
X25.08 Y35.57 Z-8.62
X25.09 Y35.606 Z-8.68
X25.102 Y35.655 Z-8.731
X25.117 Y35.713 Z-8.769
X25.134 Y35.778 Z-8.792
X25.151 Y35.847 Z-8.8
G3 X25.4 Y37.575 I-7.852 J2.011
G1 Y37.605
X25.275 Y37.688
X25.135 Y37.742
X24.99 Y37.782
X24.933 Y37.793
X24.852 Y37.806
X24.77 Y37.813
X24.689 Y37.816
X24.646
X24.479 Y37.808
X23.976 Y37.752
X22.972 Y37.601
X22.804 Y37.573
X22.302 Y37.44
X22.134 Y37.391
X21.129 Y37.081
X21.021 Y37.04
X20.599 Y36.872
X20.459 Y36.811
X19.454 Y36.327
X19.287 Y36.234
X18.952 Y36.035
X18.784 Y35.927
X17.715 Y35.198
X17.612 Y35.114
X17.277 Y34.808
X16.607 Y34.186
X16.44 Y34.022
X16.272 Y33.851
X16.117 Y33.69
X15.267 Y32.625
X15.19 Y32.518
X14.884 Y32.016
X14.765 Y31.811
X14.206 Y30.843
X13.992 Y30.341
X13.924 Y30.173
X13.53 Y29.168
X13.483 Y29.001
X13.328 Y28.331
X13.099 Y27.326
X13.09 Y27.279
X13.047 Y26.824
X12.972 Y25.819
X12.962 Y25.651
Y25.149
X12.972 Y24.981
X13.047 Y23.976
X13.09 Y23.521
X13.099 Y23.474
X13.405 Y22.134
X13.483 Y21.799
X13.53 Y21.632
X13.928 Y20.618
X13.992 Y20.459
X14.206 Y19.957
X14.786 Y18.952
X14.884 Y18.784
X15.19 Y18.282
X15.267 Y18.175
X16.117 Y17.11
X16.279 Y16.942
X16.443 Y16.775
X16.615 Y16.607
X17.337 Y15.937
X17.612 Y15.686
X17.715 Y15.602
X18.784 Y14.873
X18.952 Y14.765
X19.287 Y14.566
X19.454 Y14.473
X20.459 Y13.989
X20.599 Y13.928
X21.021 Y13.76
X21.129 Y13.719
X22.134 Y13.409
X22.302 Y13.36
X22.804 Y13.227
X22.972 Y13.199
X23.976 Y13.048
X24.479 Y12.992
X24.646 Y12.984
X26.154
X26.321 Y12.992
X26.824 Y13.048
X27.828 Y13.199
X27.996 Y13.227
X28.498 Y13.36
X28.666 Y13.409
X29.671 Y13.719
X29.779 Y13.76
X30.201 Y13.928
X30.341 Y13.989
X31.346 Y14.473
X31.513 Y14.566
X31.848 Y14.765
X32.016 Y14.873
X33.085 Y15.602
X33.188 Y15.686
X33.523 Y15.992
X34.193 Y16.614
X34.36 Y16.778
X34.528 Y16.949
X34.683 Y17.11
X35.533 Y18.175
X35.61 Y18.282
X35.916 Y18.784
X36.035 Y18.989
X36.594 Y19.957
X36.808 Y20.459
X36.876 Y20.627
X37.27 Y21.632
X37.317 Y21.799
X37.472 Y22.469
X37.701 Y23.474
X37.71 Y23.521
X37.753 Y23.976
X37.828 Y24.981
X37.838 Y25.149
Y25.651
X37.828 Y25.819
X37.753 Y26.824
X37.71 Y27.279
X37.701 Y27.326
X37.395 Y28.666
X37.317 Y29.001
X37.27 Y29.168
X36.872 Y30.182
X36.808 Y30.341
X36.594 Y30.843
X36.014 Y31.848
X35.916 Y32.016
X35.61 Y32.518
X35.533 Y32.625
X34.683 Y33.69
X34.521 Y33.858
X34.357 Y34.025
X34.185 Y34.193
X33.463 Y34.863
X33.188 Y35.114
X33.085 Y35.198
X32.016 Y35.927
X31.848 Y36.035
X31.513 Y36.234
X31.346 Y36.327
X30.341 Y36.811
X30.201 Y36.872
X29.779 Y37.04
X29.671 Y37.081
X28.666 Y37.391
X28.498 Y37.44
X27.996 Y37.573
X27.828 Y37.601
X26.824 Y37.752
X26.321 Y37.808
X26.154 Y37.816
X24.689
G3 X24.383 Y37.518 I0.011 J-0.317
G1 X24.382 Y37.499 Z-8.799
X24.396 Y37.445 Z-8.791
X24.409 Y37.394 Z-8.773
X24.421 Y37.347 Z-8.746
X24.452 Y37.311 Z-8.706
X24.477 Y37.282 Z-8.658
X24.496 Y37.26 Z-8.603
X24.508 Y37.247 Z-8.544
X24.512 Y37.243 Z-8.483
G0 Z-7.965
X16.59 Y19.936
G1 Z-8.283 F300
X16.582 Y19.934 Z-8.353
X16.56 Y19.927 Z-8.42
X16.523 Y19.917 Z-8.48
X16.475 Y19.904 Z-8.531
X16.417 Y19.887 Z-8.569
X16.352 Y19.869 Z-8.592
X16.284 Y19.85 Z-8.6
G3 X14.663 Y19.201 I2.184 J-7.806
G1 X14.637 Y19.186
X14.625 Y19.036
X14.649 Y18.888
X14.687 Y18.743
X14.701 Y18.701
X14.732 Y18.616
X14.769 Y18.534
X14.811 Y18.455
X14.911 Y18.282
X14.932 Y18.247
X15.296 Y17.78
X15.435 Y17.603
X15.937 Y16.973
X15.963 Y16.942
X16.29 Y16.607
X16.44 Y16.46
X17.11 Y15.839
X17.612 Y15.402
X17.804 Y15.267
X18.786 Y14.597
X18.952 Y14.5
X19.373 Y14.262
X19.454 Y14.222
X20.459 Y13.738
X20.627 Y13.66
X21.129 Y13.482
X22.302 Y13.12
X22.407 Y13.09
X22.804 Y12.998
X22.972 Y12.97
X23.976 Y12.819
X24.479 Y12.764
X24.646 Y12.757
X26.154
X26.321 Y12.764
X26.824 Y12.819
X27.828 Y12.97
X27.996 Y12.998
X28.393 Y13.09
X28.498 Y13.12
X29.671 Y13.482
X30.173 Y13.66
X30.341 Y13.738
X31.346 Y14.222
X31.427 Y14.262
X31.848 Y14.5
X32.016 Y14.599
X33.02 Y15.284
X33.188 Y15.402
X33.69 Y15.839
X34.36 Y16.46
X34.528 Y16.625
X34.837 Y16.942
X34.863 Y16.973
X35.373 Y17.612
X35.635 Y17.947
X35.868 Y18.247
X35.889 Y18.282
X36.705 Y19.696
X36.854 Y19.957
X36.872 Y19.999
X37.316 Y21.129
X37.505 Y21.632
X37.542 Y21.761
X37.895 Y23.306
X37.924 Y23.474
X37.98 Y23.976
X38.055 Y24.981
X38.065 Y25.149
Y25.651
X38.055 Y25.819
X37.98 Y26.824
X37.924 Y27.326
X37.895 Y27.494
X37.542 Y29.039
X37.505 Y29.168
X37.316 Y29.671
X36.872 Y30.801
X36.854 Y30.843
X36.469 Y31.513
X35.889 Y32.518
X35.868 Y32.553
X35.504 Y33.02
X35.365 Y33.197
X34.863 Y33.827
X34.837 Y33.858
X34.51 Y34.193
X34.36 Y34.34
X33.69 Y34.961
X33.188 Y35.398
X32.996 Y35.533
X32.014 Y36.203
X31.848 Y36.3
X31.427 Y36.538
X31.346 Y36.578
X30.341 Y37.062
X30.173 Y37.14
X29.671 Y37.318
X28.498 Y37.68
X28.393 Y37.71
X27.996 Y37.802
X27.828 Y37.83
X26.824 Y37.981
X26.321 Y38.036
X26.154 Y38.043
X24.646
X24.479 Y38.036
X23.976 Y37.981
X22.972 Y37.83
X22.804 Y37.802
X22.407 Y37.71
X22.302 Y37.68
X21.129 Y37.318
X20.627 Y37.14
X20.459 Y37.062
X19.454 Y36.578
X19.373 Y36.538
X18.952 Y36.3
X18.784 Y36.201
X17.78 Y35.516
X17.612 Y35.398
X17.11 Y34.961
X16.44 Y34.34
X16.272 Y34.175
X15.963 Y33.858
X15.937 Y33.827
X15.427 Y33.188
X15.165 Y32.853
X14.932 Y32.553
X14.911 Y32.518
X14.095 Y31.104
X13.946 Y30.843
X13.928 Y30.801
X13.484 Y29.671
X13.295 Y29.168
X13.258 Y29.039
X12.905 Y27.494
X12.876 Y27.326
X12.82 Y26.824
X12.745 Y25.819
X12.735 Y25.651
Y25.149
X12.745 Y24.981
X12.82 Y23.976
X12.876 Y23.474
X12.905 Y23.306
X13.258 Y21.761
X13.295 Y21.632
X13.484 Y21.129
X13.928 Y19.999
X13.946 Y19.957
X14.331 Y19.287
X14.811 Y18.455
G3 X15.221 Y18.339 I0.269 J0.168
G1 X15.263 Y18.375 Z-8.595
X15.303 Y18.409 Z-8.581
X15.34 Y18.441 Z-8.558
X15.358 Y18.487 Z-8.522
X15.372 Y18.526 Z-8.478
X15.384 Y18.556 Z-8.427
X15.392 Y18.577 Z-8.371
X15.396 Y18.587 Z-8.311
Y18.589 Z-8.283
G0 Z-7.765
X16.39 Y19.82
G1 Z-8.083 F300
X16.383 Y19.818 Z-8.153
X16.36 Y19.812 Z-8.22
X16.324 Y19.802 Z-8.28
X16.275 Y19.788 Z-8.331
X16.217 Y19.772 Z-8.369
X16.153 Y19.754 Z-8.392
X16.084 Y19.735 Z-8.4
G3 X14.463 Y19.086 I2.184 J-7.806
G1 X14.437 Y19.071
X14.428 Y18.921
X14.451 Y18.773
X14.487 Y18.627
X14.496 Y18.599
X14.527 Y18.517
X14.563 Y18.437
X14.604 Y18.359
X14.649 Y18.282
X14.765 Y18.097
X14.871 Y17.947
X15.539 Y17.11
X15.952 Y16.607
X16.129 Y16.44
X17.212 Y15.435
X17.277 Y15.378
X17.651 Y15.1
X17.78 Y15.01
X18.876 Y14.262
X18.952 Y14.22
X19.287 Y14.053
X19.454 Y13.97
X20.459 Y13.486
X20.606 Y13.425
X21.129 Y13.244
X22.172 Y12.923
X22.302 Y12.887
X22.804 Y12.769
X22.882 Y12.755
X23.976 Y12.591
X24.479 Y12.537
X24.646 Y12.53
X26.154
X26.321 Y12.537
X26.824 Y12.591
X27.918 Y12.755
X27.996 Y12.769
X28.498 Y12.887
X28.628 Y12.923
X29.671 Y13.244
X30.194 Y13.425
X30.341 Y13.486
X31.346 Y13.97
X31.681 Y14.137
X31.848 Y14.22
X31.924 Y14.262
X33.02 Y15.01
X33.149 Y15.1
X33.523 Y15.378
X33.588 Y15.435
X34.695 Y16.462
X34.848 Y16.607
X35.261 Y17.11
X35.929 Y17.947
X36.035 Y18.097
X36.151 Y18.282
X36.732 Y19.287
X36.826 Y19.454
X37.098 Y19.957
X37.165 Y20.124
X37.691 Y21.464
X37.71 Y21.526
X37.741 Y21.632
X37.784 Y21.799
X38.128 Y23.306
X38.156 Y23.474
X38.207 Y23.976
X38.282 Y24.981
X38.292 Y25.149
Y25.651
X38.282 Y25.819
X38.207 Y26.824
X38.156 Y27.326
X38.128 Y27.494
X37.784 Y29.001
X37.741 Y29.168
X37.71 Y29.274
X37.691 Y29.336
X37.165 Y30.676
X37.098 Y30.843
X36.826 Y31.346
X36.705 Y31.559
X36.151 Y32.518
X36.035 Y32.703
X35.929 Y32.853
X35.261 Y33.69
X34.848 Y34.193
X34.671 Y34.36
X33.588 Y35.365
X33.523 Y35.422
X33.149 Y35.7
X33.02 Y35.79
X31.924 Y36.538
X31.848 Y36.58
X31.513 Y36.747
X31.346 Y36.83
X30.341 Y37.314
X30.194 Y37.375
X29.671 Y37.556
X28.628 Y37.877
X28.498 Y37.913
X27.996 Y38.031
X27.918 Y38.045
X26.824 Y38.209
X26.321 Y38.263
X26.154 Y38.27
X24.646
X24.479 Y38.263
X23.976 Y38.209
X22.882 Y38.045
X22.804 Y38.031
X22.302 Y37.913
X22.172 Y37.877
X21.129 Y37.556
X20.606 Y37.375
X20.459 Y37.314
X19.454 Y36.83
X19.119 Y36.663
X18.952 Y36.58
X18.876 Y36.538
X17.78 Y35.79
X17.651 Y35.7
X17.277 Y35.422
X17.212 Y35.365
X16.105 Y34.338
X15.952 Y34.193
X15.539 Y33.69
X14.871 Y32.853
X14.765 Y32.703
X14.649 Y32.518
X14.068 Y31.513
X13.974 Y31.346
X13.702 Y30.843
X13.635 Y30.676
X13.109 Y29.336
X13.09 Y29.274
X13.059 Y29.168
X13.016 Y29.001
X12.672 Y27.494
X12.644 Y27.326
X12.593 Y26.824
X12.518 Y25.819
X12.508 Y25.651
Y25.149
X12.518 Y24.981
X12.593 Y23.976
X12.644 Y23.474
X12.672 Y23.306
X13.016 Y21.799
X13.059 Y21.632
X13.09 Y21.526
X13.109 Y21.464
X13.635 Y20.124
X13.702 Y19.957
X13.974 Y19.454
X14.095 Y19.241
X14.604 Y18.359
G3 X15.015 Y18.243 I0.269 J0.168
G1 X15.056 Y18.278 Z-8.395
X15.096 Y18.313 Z-8.381
X15.134 Y18.345 Z-8.358
X15.151 Y18.391 Z-8.322
X15.166 Y18.43 Z-8.278
X15.177 Y18.46 Z-8.227
X15.185 Y18.481 Z-8.171
X15.189 Y18.491 Z-8.111
Y18.493 Z-8.083
G0 Z-7.565
X16.197 Y19.709
G1 Z-7.883 F300
X16.19 Y19.707 Z-7.953
X16.167 Y19.7 Z-8.02
X16.131 Y19.69 Z-8.08
X16.082 Y19.677 Z-8.131
X16.024 Y19.66 Z-8.169
X15.96 Y19.642 Z-8.192
X15.892 Y19.623 Z-8.2
G3 X14.27 Y18.974 I2.184 J-7.806
G1 X14.244 Y18.959
X14.232 Y18.809
X14.254 Y18.661
X14.291 Y18.516
X14.296 Y18.501
X14.34 Y18.387
X14.394 Y18.278
X14.458 Y18.174
X14.765 Y17.723
X14.848 Y17.612
X15.65 Y16.607
X15.77 Y16.475
X15.976 Y16.272
X17.059 Y15.267
X17.11 Y15.221
X17.612 Y14.852
X17.78 Y14.736
X18.784 Y14.051
X18.952 Y13.962
X20.459 Y13.235
X20.627 Y13.167
X20.794 Y13.111
X20.962 Y13.059
X22.134 Y12.697
X22.302 Y12.65
X22.804 Y12.539
X22.972 Y12.513
X23.976 Y12.362
X24.479 Y12.31
X24.646 Y12.303
X26.154
X26.321 Y12.31
X26.824 Y12.362
X27.828 Y12.513
X27.996 Y12.539
X28.498 Y12.65
X28.666 Y12.697
X29.939 Y13.09
X30.006 Y13.111
X30.173 Y13.167
X30.341 Y13.235
X31.848 Y13.962
X32.016 Y14.051
X33.063 Y14.765
X33.188 Y14.852
X33.69 Y15.221
X33.921 Y15.435
X34.824 Y16.272
X35.03 Y16.475
X35.15 Y16.607
X35.952 Y17.612
X36.035 Y17.723
X36.37 Y18.215
X36.413 Y18.282
X37.09 Y19.454
X37.176 Y19.622
X37.341 Y19.957
X37.375 Y20.041
X37.736 Y20.962
X37.801 Y21.129
X37.972 Y21.632
X38.016 Y21.799
X38.36 Y23.306
X38.38 Y23.395
X38.388 Y23.474
X38.434 Y23.976
X38.509 Y24.981
X38.519 Y25.149
Y25.651
X38.509 Y25.819
X38.434 Y26.824
X38.388 Y27.326
X38.38 Y27.405
X38.207 Y28.163
X38.016 Y29.001
X37.972 Y29.168
X37.801 Y29.671
X37.71 Y29.906
X37.375 Y30.759
X37.341 Y30.843
X37.176 Y31.178
X37.09 Y31.346
X36.413 Y32.518
X36.37 Y32.585
X36.035 Y33.077
X35.952 Y33.188
X35.15 Y34.193
X35.03 Y34.325
X34.824 Y34.528
X33.741 Y35.533
X33.69 Y35.579
X33.188 Y35.948
X33.02 Y36.064
X32.016 Y36.749
X31.848 Y36.838
X30.341 Y37.565
X30.173 Y37.633
X30.006 Y37.689
X29.838 Y37.741
X28.666 Y38.103
X28.498 Y38.15
X27.996 Y38.261
X27.828 Y38.287
X26.824 Y38.438
X26.321 Y38.49
X26.154 Y38.497
X24.646
X24.479 Y38.49
X23.976 Y38.438
X22.972 Y38.287
X22.804 Y38.261
X22.302 Y38.15
X22.134 Y38.103
X20.861 Y37.71
X20.794 Y37.689
X20.627 Y37.633
X20.459 Y37.565
X18.952 Y36.838
X18.784 Y36.749
X17.737 Y36.035
X17.612 Y35.948
X17.11 Y35.579
X16.879 Y35.365
X15.976 Y34.528
X15.77 Y34.325
X15.65 Y34.193
X14.848 Y33.188
X14.765 Y33.077
X14.43 Y32.585
X14.387 Y32.518
X13.71 Y31.346
X13.624 Y31.178
X13.459 Y30.843
X13.425 Y30.759
X13.064 Y29.838
X12.999 Y29.671
X12.828 Y29.168
X12.784 Y29.001
X12.44 Y27.494
X12.42 Y27.405
X12.412 Y27.326
X12.366 Y26.824
X12.291 Y25.819
X12.281 Y25.651
Y25.149
X12.291 Y24.981
X12.366 Y23.976
X12.412 Y23.474
X12.42 Y23.395
X12.593 Y22.637
X12.784 Y21.799
X12.828 Y21.632
X12.999 Y21.129
X13.09 Y20.894
X13.425 Y20.041
X13.459 Y19.957
X13.624 Y19.622
X13.71 Y19.454
X14.387 Y18.282
X14.43 Y18.215
X14.458 Y18.174
G3 X14.876 Y18.089 I0.256 J0.188
G1 X14.914 Y18.127 Z-8.195
X14.952 Y18.164 Z-8.181
X14.987 Y18.199 Z-8.158
X15.001 Y18.246 Z-8.122
X15.012 Y18.286 Z-8.078
X15.022 Y18.317 Z-8.027
X15.028 Y18.339 Z-7.971
X15.031 Y18.349 Z-7.911
Y18.351 Z-7.883
G0 Z-7.365
X25.727 Y14.354
G1 Z-7.682 F300
X25.725 Y14.346 Z-7.753
X25.72 Y14.323 Z-7.82
X25.71 Y14.287 Z-7.88
X25.698 Y14.238 Z-7.931
X25.683 Y14.18 Z-7.969
X25.666 Y14.115 Z-7.992
X25.649 Y14.046 Z-8
G3 X25.4 Y12.318 I7.852 J-2.011
G1 Y12.288
X25.525 Y12.205
X25.665 Y12.15
X25.809 Y12.11
X25.861 Y12.1
X25.944 Y12.087
X26.027 Y12.079
X26.11 Y12.076
X26.154
X26.321 Y12.083
X26.824 Y12.133
X27.828 Y12.284
X27.996 Y12.311
X28.531 Y12.42
X28.666 Y12.46
X30.173 Y12.925
X30.341 Y12.99
X30.559 Y13.09
X30.676 Y13.145
X31.952 Y13.76
X32.016 Y13.798
X32.518 Y14.121
X32.853 Y14.348
X33.523 Y14.805
X33.69 Y14.92
X34.255 Y15.435
X35.03 Y16.154
X35.153 Y16.272
X35.365 Y16.517
X35.44 Y16.607
X36.241 Y17.612
X36.361 Y17.78
X36.538 Y18.046
X36.579 Y18.115
X37.256 Y19.287
X37.346 Y19.454
X37.584 Y19.957
X37.651 Y20.124
X37.979 Y20.962
X38.045 Y21.132
X38.212 Y21.655
X38.249 Y21.799
X38.593 Y23.306
X38.62 Y23.474
X38.661 Y23.976
X38.736 Y24.981
X38.746 Y25.149
Y25.651
X38.736 Y25.819
X38.661 Y26.824
X38.62 Y27.326
X38.593 Y27.494
X38.249 Y29.001
X38.212 Y29.145
X38.044 Y29.671
X37.979 Y29.838
X37.651 Y30.676
X37.584 Y30.843
X37.346 Y31.346
X37.256 Y31.513
X36.579 Y32.685
X36.538 Y32.754
X36.361 Y33.02
X36.241 Y33.188
X35.44 Y34.193
X35.365 Y34.283
X35.153 Y34.528
X35.03 Y34.646
X34.193 Y35.422
X33.69 Y35.88
X33.465 Y36.035
X32.685 Y36.566
X32.518 Y36.679
X32.016 Y37.002
X31.952 Y37.04
X30.676 Y37.655
X30.508 Y37.733
X30.341 Y37.81
X30.173 Y37.875
X28.666 Y38.34
X28.531 Y38.38
X27.996 Y38.489
