(NozzleStepdownADOC_OP1)
(ADOC is 0.5 mm with adaptive paths.)
(Machine)
(  vendor: Banggood)
(  model: 3018)
(  description: Generic 3-axis)
(T1  D=3.175 CR=0 - ZMIN=-18.4 - flat end mill)
(T3  D=2 CR=1 - ZMIN=-17.75 - ball end mill)
G90 G94
G17
G21

(Adaptive1 2)
T1 M6
S9000 M3
G54
G0 X26.78 Y24.792
Z5
Z3.003
Z2.5
G3 X24.02 Y26.009 Z2.335 I-1.38 J0.608 F150
X26.78 Y24.792 Z2.169 I1.38 J-0.608
X24.02 Y26.009 Z2.004 I-1.38 J0.608
X26.78 Y24.792 Z1.838 I1.38 J-0.608
X24.02 Y26.009 Z1.673 I-1.38 J0.608
X26.78 Y24.792 Z1.507 I1.38 J-0.608
X24.02 Y26.009 Z1.342 I-1.38 J0.608
X26.78 Y24.792 Z1.176 I1.38 J-0.608
X24.02 Y26.009 Z1.011 I-1.38 J0.608
X26.78 Y24.792 Z0.845 I1.38 J-0.608
X24.02 Y26.009 Z0.68 I-1.38 J0.608
X26.78 Y24.792 Z0.515 I1.38 J-0.608
X24.02 Y26.009 Z0.349 I-1.38 J0.608
X26.78 Y24.792 Z0.184 I1.38 J-0.608
X24.02 Y26.009 Z0.018 I-1.38 J0.608
X26.78 Y24.792 Z-0.147 I1.38 J-0.608
X24.02 Y26.009 Z-0.313 I-1.38 J0.608
X26.78 Y24.792 Z-0.478 I1.38 J-0.608
X26.908 Y25.4 Z-0.5 I-1.38 J0.608
X23.892 Y25.4 I-1.508 J0
X26.908 Y25.4 I1.508 J0
G1 X26.922 Y25.921 F500
X26.919 Y26.071
X26.887 Y26.218
X26.833 Y26.358
X26.761 Y26.489
X26.675 Y26.612
X26.575 Y26.724
X26.465 Y26.826
X26.346 Y26.916
X26.218 Y26.995
X26.084 Y27.062
X25.944 Y27.117
X25.8 Y27.159
X25.653 Y27.188
X25.504 Y27.205
X25.354 Y27.209
X25.204 Y27.2
X25.056 Y27.178
X24.91 Y27.145
X24.767 Y27.099
X24.628 Y27.041
X24.495 Y26.972
X24.368 Y26.892
X24.248 Y26.802
X24.136 Y26.702
X24.033 Y26.593
X23.939 Y26.476
X23.855 Y26.352
X23.782 Y26.221
X23.72 Y26.085
X23.669 Y25.944
X23.63 Y25.799
X23.603 Y25.651
X23.588 Y25.502
X23.586 Y25.352
X23.596 Y25.202
X23.619 Y25.054
X23.653 Y24.908
X23.7 Y24.765
X23.758 Y24.627
X23.828 Y24.494
X23.908 Y24.367
X23.998 Y24.248
X24.098 Y24.136
X24.207 Y24.033
X24.324 Y23.939
X24.449 Y23.855
X24.579 Y23.782
X24.716 Y23.72
X24.857 Y23.669
X25.002 Y23.63
X25.15 Y23.603
X25.299 Y23.589
X25.449 Y23.586
X25.599 Y23.597
X25.747 Y23.619
X25.893 Y23.654
X26.035 Y23.701
X26.173 Y23.759
X26.306 Y23.828
X26.433 Y23.909
X26.553 Y23.999
X26.665 Y24.099
X26.768 Y24.208
X26.862 Y24.325
X26.945 Y24.449
X27.019 Y24.58
X27.081 Y24.717
X27.132 Y24.858
X27.174 Y25.002
X27.211 Y25.148
X27.241 Y25.295
X27.264 Y25.443
X27.277 Y25.593
X27.281 Y25.743
X27.273 Y25.892
X27.252 Y26.041
X27.218 Y26.187
X27.172 Y26.33
X27.114 Y26.468
X27.044 Y26.601
X26.963 Y26.727
X26.871 Y26.845
X26.77 Y26.956
X26.66 Y27.058
X26.542 Y27.151
X26.418 Y27.235
X26.287 Y27.308
X26.151 Y27.371
X26.01 Y27.424
X25.866 Y27.465
X25.719 Y27.496
X25.571 Y27.517
X25.421 Y27.526
X25.271 Y27.524
X25.122 Y27.512
X24.973 Y27.488
X24.827 Y27.454
X24.684 Y27.409
X24.544 Y27.355
X24.409 Y27.291
X24.278 Y27.217
X24.153 Y27.134
X24.034 Y27.043
X23.922 Y26.943
X23.817 Y26.836
X23.72 Y26.722
X23.631 Y26.601
X23.551 Y26.474
X23.48 Y26.342
X23.419 Y26.205
X23.368 Y26.064
X23.326 Y25.92
X23.294 Y25.773
X23.273 Y25.625
X23.263 Y25.475
Y25.325
X23.273 Y25.175
X23.294 Y25.027
X23.326 Y24.88
X23.367 Y24.736
X23.419 Y24.595
X23.48 Y24.458
X23.551 Y24.326
X23.631 Y24.199
X23.719 Y24.078
X23.816 Y23.963
X23.921 Y23.856
X24.032 Y23.756
X24.151 Y23.664
X24.276 Y23.581
X24.406 Y23.507
X24.541 Y23.442
X24.681 Y23.386
X24.824 Y23.341
X24.97 Y23.305
X25.117 Y23.281
X25.267 Y23.266
X25.417 Y23.262
X25.567 Y23.268
X25.716 Y23.285
X25.863 Y23.312
X26.008 Y23.35
X26.15 Y23.398
X26.289 Y23.456
X26.423 Y23.523
X26.552 Y23.599
X26.676 Y23.684
X26.793 Y23.778
X26.903 Y23.879
X27.006 Y23.989
X27.101 Y24.105
X27.188 Y24.227
X27.267 Y24.355
X27.338 Y24.487
X27.401 Y24.623
X27.458 Y24.762
X27.506 Y24.903
X27.547 Y25.048
X27.58 Y25.194
X27.604 Y25.342
X27.619 Y25.492
X27.625 Y25.641
X27.62 Y25.791
X27.606 Y25.941
X27.582 Y26.089
X27.548 Y26.235
X27.504 Y26.378
X27.45 Y26.518
X27.386 Y26.654
X27.312 Y26.785
X27.23 Y26.91
X27.14 Y27.03
X27.041 Y27.143
X26.935 Y27.249
X26.822 Y27.348
X26.703 Y27.438
X26.577 Y27.521
X26.447 Y27.595
X26.312 Y27.66
X26.173 Y27.716
X26.031 Y27.764
X25.885 Y27.802
X25.738 Y27.831
X25.589 Y27.85
X25.44 Y27.859
X25.29
X25.14 Y27.85
X24.991 Y27.832
X24.844 Y27.804
X24.698 Y27.767
X24.555 Y27.722
X24.416 Y27.667
X24.28 Y27.604
X24.148 Y27.533
X24.02 Y27.453
X23.898 Y27.367
X23.781 Y27.273
X23.67 Y27.171
X23.566 Y27.064
X23.468 Y26.95
X23.378 Y26.83
X23.295 Y26.705
X23.22 Y26.576
X23.152 Y26.442
X23.093 Y26.304
X23.042 Y26.163
X23 Y26.018
X22.967 Y25.872
X22.943 Y25.724
X22.928 Y25.575
X22.922 Y25.425
X22.925 Y25.275
X22.937 Y25.126
X22.958 Y24.977
X22.988 Y24.83
X23.027 Y24.685
X23.075 Y24.543
X23.131 Y24.404
X23.195 Y24.268
X23.267 Y24.137
X23.348 Y24.01
X23.436 Y23.889
X23.531 Y23.773
X23.633 Y23.663
X23.741 Y23.559
X23.855 Y23.462
X23.975 Y23.372
X24.101 Y23.289
X24.231 Y23.215
X24.365 Y23.148
X24.503 Y23.09
X24.645 Y23.04
X24.789 Y22.998
X24.935 Y22.966
X25.083 Y22.942
X25.233 Y22.927
X25.383 Y22.922
X25.533 Y22.925
X25.682 Y22.938
X25.83 Y22.96
X25.977 Y22.99
X26.122 Y23.029
X26.264 Y23.077
X26.403 Y23.134
X26.538 Y23.199
X26.669 Y23.272
X26.796 Y23.352
X26.917 Y23.441
X27.033 Y23.536
X27.143 Y23.638
X27.247 Y23.746
X27.344 Y23.86
X27.435 Y23.98
X27.52 Y24.103
X27.598 Y24.232
X27.669 Y24.364
X27.733 Y24.499
X27.79 Y24.638
X27.84 Y24.779
X27.883 Y24.923
X27.918 Y25.069
X27.944 Y25.217
X27.963 Y25.365
X27.974 Y25.515
X27.976 Y25.665
X27.97 Y25.815
X27.955 Y25.964
X27.931 Y26.112
X27.899 Y26.259
X27.858 Y26.403
X27.809 Y26.545
X27.752 Y26.684
X27.687 Y26.819
X27.613 Y26.949
X27.532 Y27.076
X27.444 Y27.197
X27.349 Y27.313
X27.247 Y27.423
X27.139 Y27.527
X27.025 Y27.625
X26.906 Y27.716
X26.781 Y27.799
X26.652 Y27.876
X26.519 Y27.944
X26.382 Y28.006
X26.242 Y28.059
X26.099 Y28.105
X25.954 Y28.142
X25.807 Y28.171
X25.658 Y28.192
X25.509 Y28.205
X25.359 Y28.209
X25.209 Y28.205
X25.059 Y28.193
X24.911 Y28.173
X24.763 Y28.145
X24.618 Y28.109
X24.474 Y28.065
X24.334 Y28.013
X24.196 Y27.953
X24.061 Y27.887
X23.931 Y27.813
X23.804 Y27.732
X23.682 Y27.645
X23.565 Y27.551
X23.453 Y27.452
X23.347 Y27.346
X23.246 Y27.234
X23.152 Y27.118
X23.064 Y26.997
X22.982 Y26.871
X22.907 Y26.741
X22.839 Y26.607
X22.779 Y26.47
X22.726 Y26.329
X22.68 Y26.187
X22.642 Y26.041
X22.612 Y25.894
X22.59 Y25.746
X22.575 Y25.597
X22.568 Y25.447
X22.57 Y25.297
X22.579 Y25.147
X22.597 Y24.998
X22.622 Y24.85
X22.655 Y24.704
X22.695 Y24.56
X22.744 Y24.418
X22.799 Y24.278
X22.862 Y24.142
X22.932 Y24.01
X23.01 Y23.881
X23.093 Y23.757
X23.184 Y23.637
X23.28 Y23.522
X23.382 Y23.412
X23.49 Y23.308
X23.604 Y23.21
X23.722 Y23.118
X23.846 Y23.033
X23.973 Y22.954
X24.105 Y22.882
X24.24 Y22.816
X24.378 Y22.759
X24.519 Y22.708
X24.663 Y22.665
X24.809 Y22.63
X24.957 Y22.603
X25.105 Y22.583
X25.255 Y22.572
X25.405 Y22.568
X25.555 Y22.572
X25.704 Y22.584
X25.853 Y22.604
X26 Y22.632
X26.146 Y22.668
X26.289 Y22.711
X26.431 Y22.762
X26.569 Y22.82
X26.704 Y22.886
X26.835 Y22.958
X26.963 Y23.038
X27.086 Y23.123
X27.204 Y23.216
X27.317 Y23.314
X27.426 Y23.417
X27.529 Y23.526
X27.627 Y23.64
X27.719 Y23.758
X27.806 Y23.88
X27.886 Y24.007
X27.961 Y24.137
X28.029 Y24.271
X28.091 Y24.407
X28.146 Y24.547
X28.195 Y24.689
X28.236 Y24.833
X28.271 Y24.979
X28.299 Y25.126
X28.32 Y25.275
X28.333 Y25.424
X28.338 Y25.574
X28.336 Y25.724
X28.327 Y25.874
X28.311 Y26.023
X28.286 Y26.171
X28.255 Y26.318
X28.216 Y26.462
X28.169 Y26.605
X28.115 Y26.745
X28.054 Y26.882
X27.986 Y27.016
X27.912 Y27.146
X27.831 Y27.272
X27.743 Y27.394
X27.65 Y27.511
X27.55 Y27.623
X27.445 Y27.73
X27.334 Y27.832
X27.219 Y27.927
X27.099 Y28.017
X26.974 Y28.101
X26.845 Y28.178
X26.713 Y28.249
X26.577 Y28.313
X26.439 Y28.37
X26.297 Y28.42
X26.154 Y28.463
X26.008 Y28.499
X25.861 Y28.527
X25.712 Y28.549
X25.563 Y28.563
X25.413 Y28.57
X25.263
X25.113 Y28.562
X24.964 Y28.547
X24.816 Y28.525
X24.669 Y28.495
X24.523 Y28.459
X24.38 Y28.416
X24.238 Y28.366
X24.099 Y28.309
X23.963 Y28.246
X23.831 Y28.176
X23.701 Y28.1
X23.576 Y28.017
X23.454 Y27.929
X23.337 Y27.836
X23.225 Y27.737
X23.117 Y27.632
X23.014 Y27.523
X22.917 Y27.409
X22.825 Y27.29
X22.739 Y27.168
X22.658 Y27.041
X22.584 Y26.911
X22.516 Y26.777
X22.454 Y26.64
X22.399 Y26.501
X22.35 Y26.359
X22.309 Y26.215
X22.274 Y26.069
X22.246 Y25.922
X22.225 Y25.773
X22.21 Y25.624
X22.203 Y25.474
Y25.324
X22.21 Y25.174
X22.224 Y25.025
X22.245 Y24.876
X22.273 Y24.729
X22.308 Y24.583
X22.35 Y24.439
X22.398 Y24.297
X22.453 Y24.157
X22.515 Y24.02
X22.583 Y23.887
X22.657 Y23.756
X22.737 Y23.629
X22.823 Y23.507
X22.914 Y23.388
X23.011 Y23.273
X23.114 Y23.164
X23.221 Y23.059
X23.333 Y22.959
X23.45 Y22.865
X23.571 Y22.776
X23.696 Y22.694
X23.825 Y22.617
X23.957 Y22.546
X24.092 Y22.481
X24.231 Y22.423
X24.372 Y22.372
X24.515 Y22.327
X24.66 Y22.289
X24.806 Y22.257
X24.955 Y22.233
X25.103 Y22.216
X25.253 Y22.205
X25.403 Y22.202
X25.553 Y22.206
X25.703 Y22.216
X25.852 Y22.234
X26 Y22.259
X26.146 Y22.29
X26.291 Y22.329
X26.434 Y22.374
X26.575 Y22.426
X26.713 Y22.484
X26.849 Y22.548
X26.981 Y22.619
X27.11 Y22.696
X27.235 Y22.779
X27.356 Y22.867
X27.473 Y22.961
X27.586 Y23.06
X27.695 Y23.163
X27.798 Y23.272
X27.897 Y23.384
X27.991 Y23.501
X28.08 Y23.622
X28.164 Y23.747
X28.242 Y23.875
X28.314 Y24.006
X28.381 Y24.14
X28.442 Y24.277
X28.497 Y24.417
X28.546 Y24.559
X28.589 Y24.702
X28.625 Y24.848
X28.656 Y24.995
X28.679 Y25.143
X28.696 Y25.292
X28.707 Y25.442
X28.711 Y25.592
X28.708 Y25.741
X28.699 Y25.891
X28.683 Y26.04
X28.66 Y26.189
X28.631 Y26.336
X28.595 Y26.481
X28.553 Y26.625
X28.504 Y26.767
X28.448 Y26.906
X28.387 Y27.043
X28.319 Y27.177
X28.246 Y27.308
X28.166 Y27.435
X28.081 Y27.558
X27.99 Y27.678
X27.894 Y27.793
X27.793 Y27.904
X27.687 Y28.01
X27.576 Y28.111
X27.461 Y28.207
X27.341 Y28.298
X27.218 Y28.383
X27.091 Y28.463
X26.961 Y28.537
X26.827 Y28.605
X26.691 Y28.667
X26.551 Y28.723
X26.41 Y28.773
X26.266 Y28.817
X26.121 Y28.854
X25.974 Y28.885
X25.826 Y28.909
X25.677 Y28.927
X25.528 Y28.938
X25.378 Y28.943
X25.228 Y28.941
X25.078 Y28.933
X24.929 Y28.918
X24.78 Y28.897
X24.633 Y28.87
X24.487 Y28.836
X24.342 Y28.796
X24.199 Y28.75
X24.059 Y28.697
X23.921 Y28.639
X23.785 Y28.575
X23.652 Y28.505
X23.523 Y28.429
X23.396 Y28.349
X23.274 Y28.263
X23.155 Y28.171
X23.04 Y28.075
X22.929 Y27.974
X22.822 Y27.868
X22.721 Y27.758
X22.624 Y27.643
X22.531 Y27.525
X22.444 Y27.402
X22.362 Y27.276
X22.285 Y27.147
X22.214 Y27.015
X22.149 Y26.88
X22.09 Y26.743
X22.036 Y26.602
X21.988 Y26.46
X21.946 Y26.315
X21.911 Y26.168
X21.881 Y26.02
X21.858 Y25.872
X21.841 Y25.723
X21.83 Y25.573
X21.826 Y25.424
X21.828 Y25.274
X21.837 Y25.124
X21.852 Y24.973
X21.873 Y24.824
X21.9 Y24.675
X21.934 Y24.528
X21.973 Y24.383
X22.019 Y24.24
X22.07 Y24.1
X22.128 Y23.961
X22.191 Y23.825
X22.26 Y23.691
X22.335 Y23.56
X22.416 Y23.432
X22.502 Y23.307
X22.593 Y23.187
X22.688 Y23.071
X22.788 Y22.96
X22.893 Y22.852
X23.002 Y22.749
X23.115 Y22.651
X23.233 Y22.557
X23.355 Y22.468
X23.481 Y22.384
X23.611 Y22.305
X23.742 Y22.233
X23.877 Y22.166
X24.014 Y22.105
X24.153 Y22.05
X24.295 Y22
X24.439 Y21.957
X24.585 Y21.92
X24.733 Y21.888
X24.882 Y21.863
X25.032 Y21.844
X25.182 Y21.832
X25.332 Y21.826
X25.482
X25.632 Y21.833
X25.781 Y21.846
X25.931 Y21.865
X26.08 Y21.891
X26.228 Y21.923
X26.375 Y21.961
X26.521 Y22.005
X26.664 Y22.056
X26.804 Y22.112
X26.942 Y22.174
X27.079 Y22.242
X27.213 Y22.317
X27.345 Y22.398
X27.475 Y22.485
X27.601 Y22.577
X27.725 Y22.676
X27.844 Y22.78
X27.959 Y22.889
X28.07 Y23.004
X28.177 Y23.123
X28.278 Y23.247
X28.375 Y23.376
X28.466 Y23.509
X28.552 Y23.646
X28.632 Y23.787
X28.706 Y23.931
X28.774 Y24.077
X28.836 Y24.226
X28.891 Y24.377
X28.939 Y24.53
X28.981 Y24.684
X29.017 Y24.84
X29.046 Y24.996
X29.068 Y25.154
X29.083 Y25.312
X29.092 Y25.47
X29.094 Y25.627
X29.09 Y25.785
X29.078 Y25.942
X29.061 Y26.098
X29.037 Y26.253
X29.006 Y26.407
X28.969 Y26.56
X28.925 Y26.71
X28.876 Y26.859
X28.82 Y27.004
X28.759 Y27.147
X28.692 Y27.286
X28.619 Y27.422
X28.541 Y27.555
X28.456 Y27.685
X28.366 Y27.812
X28.271 Y27.936
X28.17 Y28.055
X28.064 Y28.17
X27.953 Y28.281
X27.838 Y28.387
X27.718 Y28.488
X27.594 Y28.585
X27.466 Y28.676
X27.334 Y28.761
X27.198 Y28.842
X27.059 Y28.916
X26.917 Y28.985
X26.772 Y29.047
X26.624 Y29.104
X26.474 Y29.154
X26.322 Y29.198
X26.167 Y29.236
X26.011 Y29.267
X25.852 Y29.292
X25.693 Y29.31
X25.532 Y29.322
X25.37 Y29.326
X25.209 Y29.324
X25.047 Y29.316
X24.886 Y29.3
X24.726 Y29.278
X24.566 Y29.248
X24.408 Y29.213
X24.251 Y29.17
X24.095 Y29.121
X23.941 Y29.065
X23.79 Y29.002
X23.641 Y28.933
X23.496 Y28.858
X23.353 Y28.778
X23.214 Y28.691
X23.079 Y28.598
X22.948 Y28.499
X22.82 Y28.395
X22.697 Y28.286
X22.578 Y28.171
X22.464 Y28.051
X22.356 Y27.926
X22.253 Y27.798
X22.155 Y27.665
X22.063 Y27.528
X21.977 Y27.387
X21.896 Y27.242
X21.822 Y27.094
X21.754 Y26.943
X21.692 Y26.789
X21.637 Y26.632
X21.588 Y26.474
X21.546 Y26.313
X21.511 Y26.152
X21.483 Y25.988
X21.462 Y25.824
X21.447 Y25.658
X21.44 Y25.492
X21.439 Y25.326
X21.446 Y25.159
X21.459 Y24.993
X21.48 Y24.829
X21.507 Y24.665
X21.541 Y24.503
X21.582 Y24.342
X21.629 Y24.182
X21.684 Y24.025
X21.745 Y23.87
X21.813 Y23.718
X21.886 Y23.568
X21.966 Y23.422
X22.052 Y23.28
X22.144 Y23.141
X22.242 Y23.007
X22.345 Y22.877
X22.453 Y22.751
X22.567 Y22.629
X22.686 Y22.512
X22.81 Y22.401
X22.939 Y22.294
X23.071 Y22.194
X23.208 Y22.099
X23.348 Y22.01
X23.492 Y21.927
X23.64 Y21.85
X23.79 Y21.779
X23.944 Y21.714
X24.101 Y21.656
X24.259 Y21.605
X24.42 Y21.56
X24.582 Y21.523
X24.746 Y21.492
X24.91 Y21.468
X25.075 Y21.451
X25.241 Y21.44
X25.408 Y21.437
X25.575 Y21.441
X25.742 Y21.452
X25.908 Y21.47
X26.074 Y21.495
X26.238 Y21.527
X26.401 Y21.565
X26.563 Y21.611
X26.723 Y21.664
X26.881 Y21.723
X27.037 Y21.789
X27.19 Y21.862
X27.341 Y21.942
X27.49 Y22.028
X27.635 Y22.121
X27.776 Y22.22
X27.914 Y22.326
X28.048 Y22.437
X28.177 Y22.555
X28.302 Y22.678
X28.421 Y22.807
X28.536 Y22.941
X28.645 Y23.08
X28.748 Y23.224
X28.845 Y23.372
X28.936 Y23.524
X29.021 Y23.679
X29.099 Y23.838
X29.169 Y24
X29.233 Y24.165
X29.29 Y24.332
X29.34 Y24.501
X29.383 Y24.671
X29.418 Y24.843
X29.446 Y25.016
X29.467 Y25.19
X29.481 Y25.364
X29.487 Y25.539
X29.485 Y25.713
X29.477 Y25.887
X29.461 Y26.061
X29.438 Y26.233
X29.407 Y26.404
X29.37 Y26.573
X29.326 Y26.74
X29.275 Y26.905
X29.217 Y27.067
X29.152 Y27.226
X29.08 Y27.383
X29.003 Y27.536
X28.918 Y27.686
X28.828 Y27.833
X28.731 Y27.976
X28.628 Y28.115
X28.52 Y28.249
X28.405 Y28.379
X28.286 Y28.504
X28.161 Y28.623
X28.031 Y28.738
X27.896 Y28.847
X27.757 Y28.951
X27.613 Y29.049
X27.465 Y29.14
X27.313 Y29.226
X27.158 Y29.305
X26.999 Y29.377
X26.837 Y29.443
X26.672 Y29.502
X26.505 Y29.555
X26.335 Y29.6
X26.163 Y29.638
X25.989 Y29.669
X25.813 Y29.693
X25.637 Y29.71
X25.46 Y29.718
X25.282 Y29.72
X25.104 Y29.714
X24.927 Y29.701
X24.749 Y29.68
X24.573 Y29.651
X24.397 Y29.615
X24.223 Y29.572
X24.051 Y29.521
X23.881 Y29.464
X23.713 Y29.399
X23.548 Y29.327
X23.386 Y29.248
X23.228 Y29.162
X23.073 Y29.069
X22.921 Y28.97
X22.774 Y28.865
X22.632 Y28.753
X22.494 Y28.636
X22.361 Y28.512
X22.233 Y28.383
X22.111 Y28.249
X21.994 Y28.11
X21.884 Y27.966
X21.779 Y27.817
X21.681 Y27.664
X21.589 Y27.507
X21.504 Y27.346
X21.425 Y27.181
X21.354 Y27.013
X21.29 Y26.843
X21.233 Y26.67
X21.183 Y26.494
X21.14 Y26.317
X21.106 Y26.138
X21.078 Y25.957
X21.058 Y25.775
X21.046 Y25.593
X21.042 Y25.41
X21.045 Y25.227
X21.056 Y25.045
X21.075 Y24.863
X21.101 Y24.682
X21.135 Y24.503
X21.176 Y24.324
X21.225 Y24.148
X21.281 Y23.974
X21.344 Y23.802
X21.415 Y23.633
X21.493 Y23.467
X21.577 Y23.305
X21.668 Y23.146
X21.766 Y22.992
X21.87 Y22.841
X21.981 Y22.695
X22.098 Y22.554
X22.22 Y22.418
X22.348 Y22.287
X22.482 Y22.161
X22.62 Y22.042
X22.764 Y21.928
X22.912 Y21.82
X23.064 Y21.719
X23.221 Y21.624
X23.382 Y21.536
X23.546 Y21.454
X23.713 Y21.38
X23.884 Y21.313
X24.057 Y21.252
X24.232 Y21.2
X24.409 Y21.154
X24.589 Y21.116
X24.769 Y21.086
X24.951 Y21.063
X25.134 Y21.048
X25.317 Y21.041
X25.501
X25.685 Y21.049
X25.868 Y21.065
X26.051 Y21.089
X26.232 Y21.12
X26.413 Y21.159
X26.592 Y21.205
X26.77 Y21.26
X26.945 Y21.321
X27.118 Y21.39
X27.289 Y21.467
X27.457 Y21.551
X27.622 Y21.643
X27.783 Y21.741
X27.94 Y21.846
X28.094 Y21.959
X28.243 Y22.078
X28.387 Y22.203
X28.526 Y22.335
X28.66 Y22.473
X28.788 Y22.617
X28.91 Y22.766
X29.026 Y22.92
X29.135 Y23.079
X29.238 Y23.243
X29.333 Y23.41
X29.422 Y23.582
X29.503 Y23.757
X29.577 Y23.936
X29.643 Y24.117
X29.701 Y24.3
X29.752 Y24.486
X29.795 Y24.674
X29.829 Y24.862
X29.856 Y25.052
X29.875 Y25.243
X29.886 Y25.435
X29.888 Y25.626
X29.883 Y25.817
X29.87 Y26.007
X29.848 Y26.197
X29.819 Y26.385
X29.782 Y26.571
X29.737 Y26.756
X29.685 Y26.938
X29.625 Y27.118
X29.557 Y27.295
X29.482 Y27.469
X29.4 Y27.639
X29.311 Y27.807
X29.215 Y27.97
X29.112 Y28.129
X29.002 Y28.284
X28.886 Y28.434
X28.764 Y28.579
X28.635 Y28.719
X28.501 Y28.853
X28.361 Y28.982
X28.216 Y29.105
X28.065 Y29.222
X27.91 Y29.332
X27.75 Y29.436
X27.585 Y29.534
X27.417 Y29.624
X27.244 Y29.707
X27.068 Y29.783
X26.888 Y29.852
X26.706 Y29.913
X26.521 Y29.967
X26.333 Y30.013
X26.144 Y30.051
X25.952 Y30.081
X25.76 Y30.103
X25.566 Y30.117
X25.372 Y30.123
X25.177 Y30.12
X24.982 Y30.11
X24.788 Y30.091
X24.594 Y30.064
X24.402 Y30.029
X24.211 Y29.985
X24.021 Y29.934
X23.834 Y29.875
X23.649 Y29.808
X23.467 Y29.733
X23.288 Y29.65
X23.113 Y29.56
X22.941 Y29.463
X22.774 Y29.358
X22.611 Y29.246
X22.452 Y29.128
X22.299 Y29.002
X22.151 Y28.871
X22.008 Y28.733
X21.872 Y28.589
X21.741 Y28.439
X21.617 Y28.284
X21.499 Y28.124
X21.388 Y27.959
X21.284 Y27.79
X21.187 Y27.616
X21.098 Y27.438
X21.016 Y27.256
X20.942 Y27.071
X20.875 Y26.883
X20.817 Y26.693
X20.766 Y26.5
X20.724 Y26.305
X20.69 Y26.108
X20.664 Y25.91
X20.647 Y25.711
X20.638 Y25.512
X20.637 Y25.312
X20.645 Y25.112
X20.661 Y24.913
X20.685 Y24.715
X20.718 Y24.518
X20.759 Y24.322
X20.808 Y24.128
X20.866 Y23.936
X20.931 Y23.747
X21.004 Y23.561
X21.085 Y23.378
X21.174 Y23.199
X21.27 Y23.023
X21.373 Y22.852
X21.484 Y22.685
X21.601 Y22.523
X21.725 Y22.366
X21.856 Y22.214
X21.993 Y22.068
X22.136 Y21.928
X22.284 Y21.794
X22.438 Y21.667
X22.598 Y21.545
X22.762 Y21.431
X22.931 Y21.324
X23.105 Y21.224
X23.282 Y21.131
X23.463 Y21.046
X23.648 Y20.968
X23.836 Y20.899
X24.026 Y20.837
X24.219 Y20.783
X24.414 Y20.738
X24.611 Y20.7
X24.81 Y20.671
X25.009 Y20.65
X25.209 Y20.638
X25.41 Y20.634
X25.611 Y20.639
X25.812 Y20.652
X26.012 Y20.673
X26.212 Y20.703
X26.41 Y20.742
X26.607 Y20.788
X26.803 Y20.843
X26.996 Y20.907
X27.187 Y20.978
X27.375 Y21.058
X27.56 Y21.146
X27.742 Y21.242
X27.92 Y21.345
X28.094 Y21.457
X28.263 Y21.575
X28.428 Y21.702
X28.588 Y21.835
X28.742 Y21.975
X28.891 Y22.121
X29.033 Y22.274
X29.169 Y22.433
X29.298 Y22.598
X29.421 Y22.768
X29.536 Y22.944
X29.644 Y23.124
X29.744 Y23.308
X29.836 Y23.496
X29.92 Y23.689
X29.996 Y23.884
X30.064 Y24.082
X30.123 Y24.283
X30.174 Y24.486
X30.217 Y24.691
X30.25 Y24.898
X30.275 Y25.105
X30.291 Y25.313
X30.298 Y25.522
X30.297 Y25.73
X30.287 Y25.938
X30.268 Y26.145
X30.24 Y26.35
X30.204 Y26.555
X30.16 Y26.757
X30.106 Y26.957
X30.045 Y27.155
X29.975 Y27.35
X29.898 Y27.542
X29.812 Y27.73
X29.718 Y27.915
X29.617 Y28.095
X29.508 Y28.271
X29.392 Y28.443
X29.269 Y28.609
X29.139 Y28.77
X29.002 Y28.926
X28.858 Y29.076
X28.709 Y29.22
X28.553 Y29.357
X28.392 Y29.488
X28.225 Y29.612
X28.053 Y29.729
X27.876 Y29.839
X27.694 Y29.942
X27.508 Y30.036
X27.317 Y30.123
X27.124 Y30.202
X26.926 Y30.273
X26.726 Y30.336
X26.523 Y30.39
X26.317 Y30.436
X26.11 Y30.473
X25.901 Y30.501
X25.69 Y30.521
X25.479 Y30.532
X25.267 Y30.534
X25.055 Y30.527
X24.843 Y30.511
X24.632 Y30.486
X24.422 Y30.452
X24.213 Y30.41
X24.006 Y30.358
X23.801 Y30.298
X23.599 Y30.229
X23.4 Y30.152
X23.203 Y30.066
X23.01 Y29.973
X22.822 Y29.871
X22.637 Y29.761
X22.458 Y29.643
X22.283 Y29.518
X22.113 Y29.385
X21.949 Y29.246
X21.791 Y29.099
X21.639 Y28.946
X21.494 Y28.786
X21.355 Y28.621
X21.224 Y28.45
X21.1 Y28.273
X20.983 Y28.091
X20.874 Y27.904
X20.772 Y27.713
X20.679 Y27.518
X20.594 Y27.318
X20.518 Y27.116
X20.45 Y26.91
X20.39 Y26.701
X20.34 Y26.491
X20.298 Y26.278
X20.266 Y26.063
X20.242 Y25.847
X20.228 Y25.631
X20.223 Y25.414
X20.226 Y25.197
X20.239 Y24.98
X20.261 Y24.764
X20.292 Y24.549
X20.332 Y24.335
X20.381 Y24.123
X20.439 Y23.914
X20.506 Y23.707
X20.581 Y23.503
X20.665 Y23.303
X20.757 Y23.106
X20.857 Y22.913
X20.966 Y22.724
X21.082 Y22.54
X21.206 Y22.361
X21.337 Y22.188
X21.475 Y22.02
X21.621 Y21.858
X21.773 Y21.703
X21.931 Y21.554
X22.096 Y21.411
X22.266 Y21.276
X22.442 Y21.148
X22.624 Y21.027
X22.81 Y20.915
X23 Y20.81
X23.195 Y20.713
X23.394 Y20.625
X23.597 Y20.545
X23.802 Y20.473
X24.011 Y20.41
X24.222 Y20.356
X24.435 Y20.311
X24.65 Y20.275
X24.866 Y20.248
X25.084 Y20.23
X25.302 Y20.221
X25.52
X25.739 Y20.231
X25.957 Y20.25
X26.175 Y20.277
X26.391 Y20.315
X26.606 Y20.361
X26.82 Y20.416
X27.031 Y20.48
X27.24 Y20.554
X27.446 Y20.636
X27.649 Y20.727
X27.848 Y20.827
X28.043 Y20.935
X28.234 Y21.051
X28.42 Y21.176
X28.601 Y21.309
X28.777 Y21.449
X28.947 Y21.597
X29.111 Y21.752
X29.269 Y21.915
X29.42 Y22.083
X29.563 Y22.259
X29.699 Y22.44
X29.828 Y22.627
X29.949 Y22.819
X30.061 Y23.016
X30.165 Y23.218
X30.261 Y23.424
X30.348 Y23.634
X30.426 Y23.847
X30.495 Y24.063
X30.554 Y24.282
X30.605 Y24.503
X30.646 Y24.726
X30.678 Y24.95
X30.7 Y25.175
X30.712 Y25.4
X30.716 Y25.626
X30.709 Y25.852
X30.694 Y26.077
X30.669 Y26.301
X30.634 Y26.523
X30.59 Y26.744
X30.537 Y26.962
X30.475 Y27.178
X30.404 Y27.391
X30.324 Y27.601
X30.235 Y27.808
X30.138 Y28.01
X30.032 Y28.208
X29.918 Y28.402
X29.796 Y28.591
X29.667 Y28.774
X29.529 Y28.952
X29.384 Y29.124
X29.232 Y29.289
X29.073 Y29.449
X28.908 Y29.601
X28.736 Y29.747
X28.557 Y29.885
X28.374 Y30.016
X28.184 Y30.139
X27.989 Y30.255
X27.79 Y30.362
X27.586 Y30.46
X27.378 Y30.55
X27.166 Y30.632
X26.95 Y30.704
X26.731 Y30.768
X26.51 Y30.822
X26.286 Y30.867
X26.061 Y30.902
X25.833 Y30.928
X25.605 Y30.945
X25.376 Y30.952
X25.146 Y30.949
X24.917 Y30.937
X24.688 Y30.915
X24.46 Y30.883
X24.233 Y30.842
X24.008 Y30.791
X23.785 Y30.73
X23.565 Y30.661
X23.347 Y30.582
X23.133 Y30.494
X22.922 Y30.397
X22.716 Y30.291
X22.514 Y30.176
X22.317 Y30.053
X22.125 Y29.922
X21.939 Y29.782
X21.758 Y29.635
X21.584 Y29.48
X21.417 Y29.318
X21.256 Y29.149
X21.102 Y28.974
X20.956 Y28.791
X20.818 Y28.603
X20.687 Y28.409
X20.565 Y28.21
X20.451 Y28.006
X20.346 Y27.797
X20.25 Y27.583
X20.162 Y27.366
X20.084 Y27.145
X20.015 Y26.921
X19.956 Y26.694
X19.906 Y26.465
X19.866 Y26.234
X19.836 Y26.002
X19.815 Y25.768
X19.804 Y25.533
X19.803 Y25.299
X19.812 Y25.064
X19.831 Y24.83
X19.86 Y24.597
X19.898 Y24.365
X19.946 Y24.135
X20.004 Y23.907
X20.071 Y23.682
X20.148 Y23.46
X20.234 Y23.241
X20.329 Y23.026
X20.433 Y22.816
X20.546 Y22.609
X20.667 Y22.408
X20.797 Y22.212
X20.935 Y22.021
X21.081 Y21.837
X21.234 Y21.659
X21.395 Y21.487
X21.563 Y21.322
X21.737 Y21.164
X21.919 Y21.014
X22.106 Y20.872
X22.299 Y20.738
X22.497 Y20.611
X22.701 Y20.494
X22.91 Y20.385
X23.123 Y20.284
X23.34 Y20.193
X23.56 Y20.111
X23.784 Y20.039
X24.011 Y19.975
X24.24 Y19.922
X24.472 Y19.878
X24.705 Y19.843
X24.94 Y19.819
X25.176 Y19.804
X25.412 Y19.8
X25.648 Y19.805
X25.885 Y19.82
X26.12 Y19.845
X26.355 Y19.881
X26.589 Y19.926
X26.82 Y19.98
X27.05 Y20.045
X27.277 Y20.12
X27.501 Y20.204
X27.722 Y20.297
X27.939 Y20.4
X28.152 Y20.512
X28.361 Y20.633
X28.564 Y20.764
X28.763 Y20.902
X28.955 Y21.05
X29.142 Y21.205
X29.322 Y21.368
X29.495 Y21.539
X29.661 Y21.718
X29.82 Y21.903
X29.971 Y22.095
X30.113 Y22.293
X30.248 Y22.498
X30.373 Y22.707
X30.49 Y22.922
X30.598 Y23.142
X30.696 Y23.366
X30.785 Y23.594
X30.864 Y23.825
X30.933 Y24.059
X30.993 Y24.296
X31.042 Y24.536
X31.082 Y24.776
X31.111 Y25.019
X31.129 Y25.262
X31.138 Y25.505
X31.137 Y25.748
X31.125 Y25.991
X31.103 Y26.234
X31.071 Y26.474
X31.028 Y26.714
X30.976 Y26.951
X30.914 Y27.185
X30.842 Y27.417
X30.761 Y27.646
X30.67 Y27.87
X30.569 Y28.091
X30.46 Y28.307
X30.341 Y28.519
X30.214 Y28.725
X30.078 Y28.926
X29.933 Y29.121
X29.781 Y29.31
X29.621 Y29.492
X29.453 Y29.668
X29.278 Y29.836
X29.095 Y29.998
X28.906 Y30.151
X28.711 Y30.296
X28.51 Y30.433
X28.302 Y30.562
X28.09 Y30.682
X27.872 Y30.793
X27.65 Y30.895
X27.423 Y30.987
X27.192 Y31.07
X26.958 Y31.144
X26.721 Y31.207
X26.481 Y31.261
X26.239 Y31.304
X25.994 Y31.337
X25.749 Y31.36
X25.502 Y31.373
X25.255 Y31.375
X25.008 Y31.367
X24.761 Y31.349
X24.515 Y31.32
X24.27 Y31.281
X24.026 Y31.231
X23.785 Y31.171
X23.546 Y31.101
X23.31 Y31.021
X23.078 Y30.931
X22.849 Y30.832
X22.624 Y30.722
X22.404 Y30.604
X22.19 Y30.476
X21.98 Y30.339
X21.777 Y30.193
X21.579 Y30.039
X21.388 Y29.876
X21.204 Y29.706
X21.027 Y29.528
X20.858 Y29.342
X20.697 Y29.149
X20.544 Y28.95
X20.399 Y28.745
X20.263 Y28.533
X20.136 Y28.316
X20.018 Y28.093
X19.909 Y27.866
X19.81 Y27.634
X19.721 Y27.398
X19.642 Y27.159
X19.573 Y26.916
X19.514 Y26.671
X19.466 Y26.423
X19.428 Y26.174
X19.4 Y25.923
X19.383 Y25.671
X19.377 Y25.418
X19.381 Y25.166
X19.396 Y24.914
X19.422 Y24.662
X19.458 Y24.412
X19.504 Y24.163
X19.561 Y23.917
X19.628 Y23.673
X19.706 Y23.433
X19.793 Y23.195
X19.891 Y22.962
X19.998 Y22.733
X20.114 Y22.508
X20.24 Y22.289
X20.376 Y22.075
X20.52 Y21.867
X20.672 Y21.665
X20.833 Y21.47
X21.002 Y21.281
X21.179 Y21.1
X21.363 Y20.927
X21.555 Y20.761
X21.753 Y20.604
X21.958 Y20.455
X22.168 Y20.315
X22.385 Y20.183
X22.607 Y20.061
X22.833 Y19.948
X23.065 Y19.845
X23.3 Y19.752
X23.54 Y19.669
X23.782 Y19.596
X24.028 Y19.533
X24.276 Y19.48
X24.526 Y19.438
X24.778 Y19.406
X25.031 Y19.385
X25.285 Y19.375
X25.54
X25.794 Y19.386
X26.049 Y19.408
X26.302 Y19.44
X26.554 Y19.483
X26.804 Y19.537
X27.053 Y19.601
X27.298 Y19.676
X27.541 Y19.761
X27.781 Y19.857
X28.016 Y19.962
X28.247 Y20.078
X28.474 Y20.203
X28.695 Y20.338
X28.911 Y20.483
X29.121 Y20.636
X29.325 Y20.799
X29.522 Y20.97
X29.711 Y21.149
X29.894 Y21.337
X30.068 Y21.532
X30.234 Y21.734
X30.391 Y21.944
X30.54 Y22.159
X30.68 Y22.381
X30.81 Y22.609
X30.93 Y22.842
X31.041 Y23.08
X31.141 Y23.323
X31.231 Y23.569
X31.311 Y23.819
X31.38 Y24.072
X31.439 Y24.327
X31.486 Y24.585
X31.523 Y24.844
X31.549 Y25.105
X31.564 Y25.366
X31.567 Y25.627
X31.56 Y25.889
X31.542 Y26.149
X31.513 Y26.409
X31.473 Y26.667
X31.422 Y26.923
X31.361 Y27.176
X31.289 Y27.427
X31.207 Y27.674
X31.114 Y27.918
X31.011 Y28.157
X30.898 Y28.392
X30.776 Y28.622
X30.644 Y28.847
X30.502 Y29.066
X30.352 Y29.278
X30.192 Y29.485
X30.024 Y29.684
X29.848 Y29.877
X29.663 Y30.062
X29.471 Y30.239
X29.272 Y30.408
X29.065 Y30.568
X28.852 Y30.72
X28.633 Y30.863
X28.407 Y30.997
X28.176 Y31.121
X27.94 Y31.235
X27.698 Y31.34
X27.453 Y31.434
X27.203 Y31.518
X26.95 Y31.591
X26.694 Y31.654
X26.435 Y31.706
X26.174 Y31.748
X25.911 Y31.778
X25.647 Y31.797
X25.382 Y31.805
X25.117 Y31.802
X24.851 Y31.788
X24.587 Y31.762
X24.323 Y31.726
X24.061 Y31.678
X23.801 Y31.62
X23.543 Y31.55
X23.289 Y31.47
X23.038 Y31.379
X22.79 Y31.277
X22.547 Y31.165
X22.309 Y31.043
X22.076 Y30.911
X21.848 Y30.769
X21.627 Y30.617
X21.412 Y30.456
X21.203 Y30.287
X21.002 Y30.108
X20.809 Y29.921
X20.623 Y29.726
X20.446 Y29.524
X20.277 Y29.314
X20.118 Y29.097
X19.967 Y28.873
X19.826 Y28.643
X19.694 Y28.407
X19.573 Y28.166
X19.462 Y27.92
X19.361 Y27.67
X19.271 Y27.415
X19.191 Y27.157
X19.123 Y26.895
X19.065 Y26.631
X19.019 Y26.364
X18.984 Y26.096
X18.96 Y25.827
X18.947 Y25.556
X18.946 Y25.285
X18.956 Y25.015
X18.978 Y24.745
X19.011 Y24.476
X19.055 Y24.209
X19.111 Y23.944
X19.177 Y23.681
X19.254 Y23.421
X19.343 Y23.165
X19.442 Y22.913
X19.551 Y22.665
X19.671 Y22.422
X19.801 Y22.184
X19.941 Y21.951
X20.091 Y21.725
X20.25 Y21.506
X20.418 Y21.293
X20.594 Y21.087
X20.78 Y20.889
X20.973 Y20.699
X21.175 Y20.517
X21.383 Y20.344
X21.599 Y20.18
X21.822 Y20.025
X22.051 Y19.879
X22.286 Y19.743
X22.526 Y19.617
X22.772 Y19.502
X23.022 Y19.396
X23.277 Y19.302
X23.535 Y19.218
X23.797 Y19.144
X24.061 Y19.082
X24.329 Y19.032
X24.598 Y18.992
X24.869 Y18.964
X25.141 Y18.947
X25.413 Y18.941
X25.686 Y18.947
X25.959 Y18.965
X26.231 Y18.994
X26.502 Y19.034
X26.771 Y19.086
X27.039 Y19.149
X27.303 Y19.224
X27.565 Y19.309
X27.823 Y19.406
X28.078 Y19.514
X28.328 Y19.632
X28.573 Y19.761
X28.813 Y19.9
X29.047 Y20.05
X29.275 Y20.209
X29.496 Y20.378
X29.71 Y20.557
X29.917 Y20.744
X30.116 Y20.94
X30.306 Y21.145
X30.488 Y21.357
X30.661 Y21.577
X30.825 Y21.804
X30.979 Y22.038
X31.123 Y22.279
X31.257 Y22.525
X31.381 Y22.777
X31.494 Y23.034
X31.596 Y23.295
X31.686 Y23.56
X31.766 Y23.829
X31.834 Y24.101
X31.891 Y24.375
X31.936 Y24.652
X31.97 Y24.93
X31.992 Y25.209
X32.002 Y25.488
X32 Y25.768
X31.986 Y26.047
X31.961 Y26.325
X31.924 Y26.602
X31.876 Y26.877
X31.816 Y27.15
X31.745 Y27.42
X31.662 Y27.686
X31.568 Y27.949
X31.464 Y28.208
X31.348 Y28.462
X31.222 Y28.711
X31.086 Y28.954
X30.94 Y29.192
X30.783 Y29.423
X30.617 Y29.647
X30.442 Y29.865
X30.258 Y30.075
X30.065 Y30.277
X29.863 Y30.471
X29.654 Y30.656
X29.437 Y30.832
X29.212 Y30.999
X28.98 Y31.157
X28.742 Y31.305
X28.498 Y31.443
X28.248 Y31.571
X27.992 Y31.688
X27.732 Y31.794
X27.467 Y31.89
X27.198 Y31.974
X26.926 Y32.047
X26.65 Y32.109
X26.372 Y32.159
X26.092 Y32.197
X25.81 Y32.223
X25.527 Y32.238
X25.244 Y32.241
X24.96 Y32.232
X24.677 Y32.21
X24.394 Y32.177
X24.113 Y32.132
X23.834 Y32.076
X23.558 Y32.007
X23.284 Y31.927
X23.014 Y31.836
X22.747 Y31.733
X22.485 Y31.619
X22.228 Y31.494
X21.976 Y31.358
X21.73 Y31.211
X21.49 Y31.055
X21.257 Y30.888
X21.031 Y30.711
X20.812 Y30.525
X20.601 Y30.33
X20.399 Y30.126
X20.205 Y29.914
X20.02 Y29.693
X19.845 Y29.465
X19.679 Y29.23
X19.523 Y28.988
X19.377 Y28.739
X19.242 Y28.485
X19.118 Y28.224
X19.005 Y27.959
X18.903 Y27.689
X18.812 Y27.415
X18.733 Y27.138
X18.665 Y26.857
X18.61 Y26.574
X18.566 Y26.288
X18.535 Y26.001
X18.515 Y25.713
X18.508 Y25.424
X18.513 Y25.135
X18.53 Y24.846
X18.559 Y24.558
X18.6 Y24.272
X18.653 Y23.988
X18.718 Y23.706
X18.795 Y23.427
X18.883 Y23.151
X18.983 Y22.88
X19.095 Y22.612
X19.217 Y22.35
X19.35 Y22.093
X19.495 Y21.842
X19.649 Y21.597
X19.814 Y21.359
X19.988 Y21.128
X20.172 Y20.905
X20.366 Y20.689
X20.568 Y20.482
X20.779 Y20.283
X20.998 Y20.093
X21.225 Y19.913
X21.459 Y19.743
X21.7 Y19.582
X21.948 Y19.432
X22.201 Y19.292
X22.461 Y19.163
X22.726 Y19.045
X22.995 Y18.938
X23.269 Y18.842
X23.547 Y18.758
X23.828 Y18.686
X24.112 Y18.626
X24.399 Y18.577
X24.687 Y18.541
X24.977 Y18.517
X25.268 Y18.505
X25.559
X25.851 Y18.517
X26.142 Y18.542
X26.432 Y18.579
X26.72 Y18.628
X27.007 Y18.69
X27.291 Y18.763
X27.572 Y18.848
X27.849 Y18.946
X28.123 Y19.055
X28.392 Y19.175
X28.656 Y19.307
X28.914 Y19.45
X29.167 Y19.604
X29.414 Y19.769
X29.653 Y19.944
X29.885 Y20.129
X30.11 Y20.324
X30.326 Y20.528
X30.533 Y20.742
X30.732 Y20.964
X30.921 Y21.194
X31.101 Y21.433
X31.27 Y21.678
X31.429 Y21.931
X31.577 Y22.191
X31.715 Y22.456
X31.841 Y22.727
X31.955 Y23.003
X32.058 Y23.283
X32.149 Y23.568
X32.228 Y23.856
X32.294 Y24.147
X32.349 Y24.441
X32.391 Y24.736
X32.42 Y25.033
X32.437 Y25.331
X32.442 Y25.629
X32.434 Y25.927
X32.413 Y26.224
X32.38 Y26.52
X32.335 Y26.815
X32.277 Y27.107
X32.207 Y27.396
X32.125 Y27.682
X32.031 Y27.964
X31.925 Y28.242
X31.808 Y28.516
X31.679 Y28.784
X31.54 Y29.047
X31.389 Y29.303
X31.227 Y29.553
X31.056 Y29.796
X30.874 Y30.032
X30.682 Y30.26
X30.481 Y30.48
X30.27 Y30.691
X30.051 Y30.893
X29.824 Y31.086
X29.588 Y31.269
X29.345 Y31.443
X29.095 Y31.606
X28.837 Y31.758
X28.574 Y31.9
X28.304 Y32.03
X28.029 Y32.15
X27.749 Y32.257
X27.465 Y32.353
X27.176 Y32.437
X26.884 Y32.509
X26.589 Y32.568
X26.292 Y32.615
X25.993 Y32.65
X25.692 Y32.672
X25.39 Y32.681
X25.088 Y32.678
X24.786 Y32.662
X24.485 Y32.633
X24.185 Y32.591
X23.886 Y32.537
X23.59 Y32.471
X23.297 Y32.392
X23.007 Y32.3
X22.722 Y32.197
X22.44 Y32.081
X22.164 Y31.954
X21.893 Y31.815
X21.627 Y31.665
X21.369 Y31.503
X21.117 Y31.331
X20.872 Y31.149
X20.635 Y30.956
X20.407 Y30.753
X20.187 Y30.54
X19.976 Y30.319
X19.774 Y30.089
X19.582 Y29.85
X19.4 Y29.603
X19.229 Y29.349
X19.069 Y29.088
X18.919 Y28.82
X18.781 Y28.546
X18.655 Y28.267
X18.54 Y27.982
X18.437 Y27.692
X18.347 Y27.399
X18.269 Y27.102
X18.203 Y26.802
X18.151 Y26.499
X18.111 Y26.194
X18.083 Y25.888
X18.069 Y25.58
X18.068 Y25.273
X18.079 Y24.965
X18.103 Y24.659
X18.141 Y24.353
X18.191 Y24.05
X18.254 Y23.748
X18.329 Y23.45
X18.417 Y23.155
X18.517 Y22.864
X18.63 Y22.577
X18.754 Y22.295
X18.89 Y22.019
X19.038 Y21.748
X19.197 Y21.484
X19.366 Y21.227
X19.547 Y20.978
X19.738 Y20.736
X19.938 Y20.502
X20.149 Y20.277
X20.369 Y20.061
X20.597 Y19.854
X20.835 Y19.657
X21.08 Y19.471
X21.333 Y19.294
X21.593 Y19.129
X21.86 Y18.974
X22.133 Y18.831
X22.412 Y18.7
X22.696 Y18.58
X22.985 Y18.472
X23.279 Y18.376
X23.576 Y18.293
X23.877 Y18.223
X24.181 Y18.165
X24.487 Y18.12
X24.795 Y18.087
X25.104 Y18.068
X25.414 Y18.062
X25.724 Y18.068
X26.034 Y18.088
X26.343 Y18.121
X26.65 Y18.167
X26.956 Y18.225
X27.26 Y18.297
X27.56 Y18.381
X27.857 Y18.478
X28.15 Y18.588
X28.439 Y18.71
X28.722 Y18.844
X29 Y18.99
X29.272 Y19.148
X29.537 Y19.317
X29.795 Y19.498
X30.046 Y19.689
X30.289 Y19.891
X30.523 Y20.103
X30.748 Y20.325
X30.964 Y20.556
X31.17 Y20.797
X31.366 Y21.046
X31.551 Y21.303
X31.726 Y21.568
X31.889 Y21.839
X32.04 Y22.118
X32.18 Y22.403
X32.308 Y22.693
X32.424 Y22.989
X32.527 Y23.289
X32.617 Y23.593
X32.694 Y23.901
X32.758 Y24.211
X32.81 Y24.524
X32.848 Y24.839
X32.872 Y25.155
X32.884 Y25.471
X32.882 Y25.788
X32.867 Y26.104
X32.839 Y26.42
X32.797 Y26.733
X32.742 Y27.045
X32.674 Y27.354
X32.594 Y27.66
X32.5 Y27.962
X32.394 Y28.26
X32.276 Y28.553
X32.145 Y28.841
X32.002 Y29.123
X31.848 Y29.399
X31.682 Y29.668
X31.505 Y29.93
X31.317 Y30.185
X31.119 Y30.431
X30.91 Y30.669
X30.691 Y30.898
X30.463 Y31.118
X30.226 Y31.328
X29.98 Y31.528
X29.725 Y31.717
X29.463 Y31.896
X29.193 Y32.064
X28.917 Y32.22
X28.633 Y32.365
X28.344 Y32.498
X28.049 Y32.618
X27.75 Y32.726
X27.445 Y32.822
X27.137 Y32.905
X26.825 Y32.974
X26.511 Y33.031
X26.194 Y33.075
X25.875 Y33.105
X25.555 Y33.121
X25.234 Y33.124
X24.914 Y33.114
X24.593 Y33.09
X24.274 Y33.053
X23.956 Y33.003
X23.641 Y32.939
X23.328 Y32.861
X23.019 Y32.771
X22.713 Y32.668
X22.412 Y32.551
X22.116 Y32.423
X21.825 Y32.281
X21.541 Y32.128
X21.263 Y31.963
X20.992 Y31.786
X20.728 Y31.597
X20.473 Y31.398
X20.226 Y31.188
X19.987 Y30.968
X19.759 Y30.738
X19.54 Y30.498
X19.331 Y30.249
X19.133 Y29.992
X18.945 Y29.726
X18.769 Y29.453
X18.605 Y29.172
X18.452 Y28.885
X18.312 Y28.591
X18.184 Y28.292
X18.068 Y27.987
X17.966 Y27.678
X17.877 Y27.365
X17.8 Y27.048
X17.738 Y26.728
X17.688 Y26.406
X17.653 Y26.082
X17.63 Y25.756
X17.622 Y25.43
X17.627 Y25.104
X17.646 Y24.778
X17.679 Y24.453
X17.725 Y24.13
X17.785 Y23.809
X17.858 Y23.491
X17.945 Y23.176
X18.045 Y22.865
X18.157 Y22.558
X18.283 Y22.257
X18.421 Y21.961
X18.571 Y21.671
X18.734 Y21.387
X18.908 Y21.111
X19.094 Y20.842
X19.291 Y20.581
X19.499 Y20.329
X19.717 Y20.086
X19.945 Y19.852
X20.183 Y19.627
X20.43 Y19.413
X20.686 Y19.21
X20.95 Y19.017
X21.222 Y18.836
X21.501 Y18.666
X21.788 Y18.508
X22.081 Y18.362
X22.38 Y18.229
X22.684 Y18.108
X22.993 Y18
X23.306 Y17.905
X23.624 Y17.824
X23.944 Y17.755
X24.268 Y17.701
X24.593 Y17.659
X24.921 Y17.632
X25.249 Y17.618
X25.578
X25.907 Y17.632
X26.235 Y17.66
X26.562 Y17.702
X26.887 Y17.757
X27.21 Y17.826
X27.531 Y17.909
X27.847 Y18.005
X28.16 Y18.114
X28.469 Y18.237
X28.772 Y18.373
X29.069 Y18.521
X29.361 Y18.682
X29.645 Y18.855
X29.923 Y19.041
X30.192 Y19.237
X30.454 Y19.446
X30.706 Y19.665
X30.95 Y19.895
X31.183 Y20.135
X31.407 Y20.385
X31.62 Y20.644
X31.821 Y20.912
X32.012 Y21.188
X32.191 Y21.472
X32.358 Y21.764
X32.512 Y22.062
X32.654 Y22.367
X32.783 Y22.677
X32.898 Y22.992
X33.001 Y23.312
X33.09 Y23.636
X33.165 Y23.963
X33.226 Y24.294
X33.273 Y24.626
X33.307 Y24.96
X33.326 Y25.295
X33.331 Y25.631
X33.322 Y25.966
X33.299 Y26.3
X33.262 Y26.634
X33.211 Y26.965
X33.146 Y27.294
X33.068 Y27.619
X32.976 Y27.942
X32.87 Y28.26
X32.751 Y28.573
X32.619 Y28.881
X32.474 Y29.183
X32.317 Y29.478
X32.147 Y29.767
X31.966 Y30.049
X31.772 Y30.323
X31.568 Y30.588
X31.352 Y30.845
X31.125 Y31.092
X30.889 Y31.33
X30.642 Y31.558
X30.386 Y31.775
X30.121 Y31.981
X29.847 Y32.177
X29.565 Y32.36
X29.276 Y32.532
X28.979 Y32.692
X28.676 Y32.839
X28.367 Y32.973
X28.052 Y33.094
X27.732 Y33.202
X27.408 Y33.296
X27.08 Y33.377
X26.748 Y33.444
X26.413 Y33.497
X26.077 Y33.536
X25.739 Y33.561
X25.4 Y33.572
X25.06 Y33.568
X24.721 Y33.55
X24.382 Y33.518
X24.045 Y33.471
X23.71 Y33.411
X23.377 Y33.336
X23.048 Y33.247
X22.723 Y33.145
X22.402 Y33.029
X22.086 Y32.899
X21.775 Y32.756
X21.471 Y32.601
X21.173 Y32.432
X20.882 Y32.251
X20.599 Y32.058
X20.325 Y31.853
X20.059 Y31.636
X19.802 Y31.409
X19.555 Y31.17
X19.318 Y30.922
X19.092 Y30.663
X18.876 Y30.396
X18.672 Y30.119
X18.48 Y29.834
X18.3 Y29.541
X18.132 Y29.24
X17.977 Y28.933
X17.835 Y28.619
X17.706 Y28.3
X17.591 Y27.975
X17.489 Y27.646
X17.401 Y27.313
X17.328 Y26.976
X17.268 Y26.636
X17.223 Y26.294
X17.193 Y25.951
X17.177 Y25.606
X17.175 Y25.261
X17.188 Y24.916
X17.215 Y24.572
X17.257 Y24.229
X17.313 Y23.888
X17.383 Y23.55
X17.467 Y23.215
X17.566 Y22.884
X17.678 Y22.558
X17.804 Y22.236
X17.944 Y21.92
X18.096 Y21.61
X18.262 Y21.307
X18.44 Y21.01
X18.63 Y20.722
X18.832 Y20.442
X19.046 Y20.17
X19.272 Y19.908
X19.508 Y19.655
X19.754 Y19.413
X20.01 Y19.181
X20.276 Y18.96
X20.551 Y18.751
X20.835 Y18.553
X21.127 Y18.367
X21.426 Y18.193
X21.733 Y18.033
X22.046 Y17.885
X22.364 Y17.75
X22.689 Y17.629
X23.018 Y17.522
X23.352 Y17.429
X23.689 Y17.349
X24.03 Y17.284
X24.373 Y17.233
X24.719 Y17.197
X25.065 Y17.175
X25.413 Y17.168
X25.761 Y17.175
X26.108 Y17.197
X26.455 Y17.234
X26.8 Y17.285
X27.143 Y17.351
X27.483 Y17.431
X27.82 Y17.526
X28.153 Y17.634
X28.481 Y17.757
X28.804 Y17.893
X29.122 Y18.043
X29.433 Y18.207
X29.737 Y18.383
X30.034 Y18.573
X30.323 Y18.775
X30.604 Y18.989
X30.876 Y19.214
X31.138 Y19.451
X31.39 Y19.7
X31.631 Y19.958
X31.862 Y20.227
X32.081 Y20.505
X32.288 Y20.793
X32.483 Y21.089
X32.666 Y21.393
X32.836 Y21.704
X32.992 Y22.022
X33.135 Y22.347
X33.264 Y22.678
X33.379 Y23.013
X33.48 Y23.353
X33.567 Y23.697
X33.639 Y24.044
X33.697 Y24.394
X33.739 Y24.746
X33.767 Y25.1
X33.78 Y25.454
X33.778 Y25.808
X33.761 Y26.162
X33.73 Y26.515
X33.683 Y26.866
X33.622 Y27.215
X33.546 Y27.561
X33.456 Y27.903
X33.352 Y28.241
X33.233 Y28.575
X33.101 Y28.903
X32.955 Y29.225
X32.795 Y29.541
X32.622 Y29.85
X32.437 Y30.152
X32.239 Y30.445
X32.028 Y30.73
X31.806 Y31.006
X31.573 Y31.272
X31.328 Y31.529
X31.073 Y31.775
X30.807 Y32.01
X30.532 Y32.234
X30.247 Y32.446
X29.954 Y32.646
X29.652 Y32.834
X29.343 Y33.009
X29.026 Y33.171
X28.702 Y33.32
X28.373 Y33.455
X28.037 Y33.576
X27.697 Y33.683
X27.352 Y33.776
X27.004 Y33.854
X26.652 Y33.917
X26.298 Y33.966
X25.941 Y34
X25.584 Y34.018
X25.225 Y34.022
X24.867 Y34.011
X24.509 Y33.984
X24.152 Y33.943
X23.798 Y33.886
X23.445 Y33.815
X23.096 Y33.729
X22.75 Y33.628
X22.409 Y33.513
X22.073 Y33.383
X21.742 Y33.239
X21.417 Y33.082
X21.099 Y32.911
X20.789 Y32.726
X20.486 Y32.529
X20.192 Y32.319
X19.906 Y32.096
X19.63 Y31.862
X19.365 Y31.616
X19.109 Y31.359
X18.865 Y31.092
X18.631 Y30.814
X18.41 Y30.527
X18.201 Y30.231
X18.004 Y29.926
X17.821 Y29.613
X17.65 Y29.292
X17.493 Y28.964
X17.35 Y28.63
X17.222 Y28.29
X17.107 Y27.945
X17.007 Y27.596
X16.922 Y27.242
X16.852 Y26.885
X16.797 Y26.526
X16.757 Y26.164
X16.732 Y25.801
X16.722 Y25.437
X16.728 Y25.073
X16.749 Y24.709
X16.785 Y24.347
X16.837 Y23.987
X16.903 Y23.628
X16.985 Y23.273
X17.082 Y22.922
X17.193 Y22.575
X17.318 Y22.233
X17.458 Y21.896
X17.612 Y21.566
X17.78 Y21.242
X17.961 Y20.926
X18.156 Y20.618
X18.363 Y20.318
X18.582 Y20.026
X18.814 Y19.745
X19.057 Y19.473
X19.312 Y19.212
X19.577 Y18.962
X19.852 Y18.723
X20.138 Y18.495
X20.432 Y18.28
X20.736 Y18.078
X21.048 Y17.888
X21.367 Y17.712
X21.694 Y17.549
X22.027 Y17.4
X22.367 Y17.265
X22.712 Y17.145
X23.062 Y17.039
X23.416 Y16.948
X23.773 Y16.871
X24.134 Y16.81
X24.498 Y16.764
X24.863 Y16.733
X25.229 Y16.718
X25.596
X25.963 Y16.733
X26.329 Y16.764
X26.694 Y16.81
X27.056 Y16.872
X27.417 Y16.949
X27.774 Y17.041
X28.127 Y17.148
X28.476 Y17.27
X28.819 Y17.406
X29.157 Y17.557
X29.489 Y17.722
X29.813 Y17.902
X30.13 Y18.094
X30.439 Y18.301
X30.739 Y18.52
X31.03 Y18.751
X31.312 Y18.995
X31.582 Y19.251
X31.843 Y19.518
X32.091 Y19.796
X32.328 Y20.084
X32.553 Y20.382
X32.765 Y20.689
X32.964 Y21.005
X33.15 Y21.329
X33.322 Y21.661
X33.48 Y22
X33.623 Y22.345
X33.752 Y22.696
X33.866 Y23.052
X33.965 Y23.412
X34.049 Y23.777
X34.117 Y24.144
X34.17 Y24.514
X34.207 Y24.885
X34.229 Y25.258
X34.234 Y25.632
X34.225 Y26.005
X34.199 Y26.377
X34.158 Y26.748
X34.102 Y27.117
X34.029 Y27.483
X33.942 Y27.846
X33.84 Y28.205
X33.722 Y28.559
X33.59 Y28.908
X33.443 Y29.251
X33.282 Y29.587
X33.107 Y29.916
X32.918 Y30.238
X32.716 Y30.552
X32.501 Y30.857
X32.273 Y31.152
X32.033 Y31.438
X31.781 Y31.714
X31.517 Y31.979
X31.243 Y32.233
X30.958 Y32.475
X30.663 Y32.705
X30.358 Y32.922
X30.044 Y33.126
X29.722 Y33.318
X29.392 Y33.495
X29.055 Y33.659
X28.711 Y33.809
X28.36 Y33.944
X28.005 Y34.064
X27.644 Y34.169
X27.278 Y34.259
X26.91 Y34.334
X26.538 Y34.393
X26.163 Y34.436
X25.787 Y34.464
X25.41 Y34.476
X25.032 Y34.472
X24.655 Y34.452
X24.279 Y34.417
X23.904 Y34.365
X23.532 Y34.298
X23.162 Y34.215
X22.796 Y34.117
X22.434 Y34.003
X22.077 Y33.874
X21.726 Y33.73
X21.381 Y33.572
X21.043 Y33.399
X20.712 Y33.211
X20.389 Y33.01
X20.074 Y32.796
X19.769 Y32.568
X19.474 Y32.328
X19.188 Y32.075
X18.914 Y31.811
X18.651 Y31.535
X18.399 Y31.248
X18.16 Y30.95
X17.933 Y30.643
X17.719 Y30.327
X17.519 Y30.001
X17.333 Y29.668
X17.16 Y29.326
X17.002 Y28.978
X16.859 Y28.624
X16.731 Y28.263
X16.618 Y27.897
X16.521 Y27.527
X16.439 Y27.153
X16.373 Y26.776
X16.322 Y26.397
X16.288 Y26.015
X16.27 Y25.632
X16.268 Y25.249
X16.282 Y24.866
X16.312 Y24.484
X16.358 Y24.104
X16.42 Y23.725
X16.498 Y23.35
X16.592 Y22.978
X16.701 Y22.611
X16.826 Y22.248
X16.966 Y21.891
X17.12 Y21.54
X17.289 Y21.195
X17.473 Y20.858
X17.671 Y20.53
X17.882 Y20.209
X18.106 Y19.898
X18.344 Y19.597
X18.594 Y19.305
X18.856 Y19.025
X19.129 Y18.755
X19.414 Y18.498
X19.709 Y18.252
X20.014 Y18.019
X20.329 Y17.8
X20.653 Y17.593
X20.985 Y17.4
X21.325 Y17.222
X21.673 Y17.058
X22.027 Y16.908
X22.387 Y16.774
X22.753 Y16.654
X23.123 Y16.551
X23.498 Y16.462
X23.876 Y16.39
X24.257 Y16.333
X24.641 Y16.293
X25.026 Y16.268
X25.412 Y16.26
X25.798 Y16.268
X26.183 Y16.293
X26.568 Y16.333
X26.951 Y16.39
X27.332 Y16.463
X27.709 Y16.551
X28.083 Y16.656
X28.452 Y16.776
X28.816 Y16.912
X29.175 Y17.063
X29.527 Y17.23
X29.872 Y17.411
X30.209 Y17.606
X30.539 Y17.816
X30.859 Y18.04
X31.17 Y18.277
X31.471 Y18.527
X31.761 Y18.789
X32.041 Y19.064
X32.308 Y19.35
X32.564 Y19.648
X32.806 Y19.956
X33.036 Y20.274
X33.252 Y20.602
X33.455 Y20.938
X33.643 Y21.283
X33.816 Y21.636
X33.975 Y21.995
X34.118 Y22.361
X34.246 Y22.732
X34.358 Y23.109
X34.454 Y23.49
X34.534 Y23.874
X34.597 Y24.262
X34.645 Y24.652
X34.676 Y25.043
X34.69 Y25.436
X34.688 Y25.828
X34.67 Y26.22
X34.635 Y26.611
X34.584 Y27
X34.516 Y27.387
X34.432 Y27.77
X34.333 Y28.15
X34.217 Y28.524
X34.086 Y28.894
X33.939 Y29.258
X33.777 Y29.615
X33.6 Y29.966
X33.409 Y30.308
X33.203 Y30.642
X32.984 Y30.968
X32.751 Y31.284
X32.505 Y31.589
X32.246 Y31.885
X31.975 Y32.169
X31.692 Y32.442
X31.398 Y32.703
X31.093 Y32.951
X30.778 Y33.186
X30.453 Y33.408
X30.119 Y33.616
X29.776 Y33.81
X29.425 Y33.99
X29.067 Y34.155
X28.702 Y34.304
X28.33 Y34.439
X27.953 Y34.557
X27.572 Y34.66
X27.186 Y34.747
X26.796 Y34.817
X26.404 Y34.871
X26.01 Y34.909
X25.614 Y34.929
X25.217 Y34.934
X24.82 Y34.921
X24.424 Y34.892
X24.03 Y34.847
X23.637 Y34.784
X23.247 Y34.705
X22.86 Y34.61
X22.478 Y34.499
X22.1 Y34.371
X21.728 Y34.228
X21.362 Y34.069
X21.003 Y33.895
X20.651 Y33.706
X20.308 Y33.502
X19.973 Y33.284
X19.647 Y33.052
X19.332 Y32.806
X19.027 Y32.547
X18.732 Y32.275
X18.45 Y31.991
X18.179 Y31.696
X17.921 Y31.389
X17.677 Y31.071
X17.445 Y30.744
X17.228 Y30.406
X17.024 Y30.06
X16.836 Y29.706
X16.662 Y29.344
X16.504 Y28.975
X16.362 Y28.599
X16.235 Y28.218
X16.124 Y27.831
X16.03 Y27.44
X15.952 Y27.046
X15.891 Y26.648
X15.847 Y26.248
X15.819 Y25.847
X15.808 Y25.445
X15.815 Y25.042
X15.838 Y24.641
X15.878 Y24.24
X15.934 Y23.841
X16.008 Y23.446
X16.098 Y23.053
X16.205 Y22.665
X16.327 Y22.281
X16.466 Y21.903
X16.621 Y21.531
X16.791 Y21.166
X16.976 Y20.808
X17.176 Y20.458
X17.391 Y20.117
X17.619 Y19.785
X17.862 Y19.463
X18.118 Y19.152
X18.387 Y18.852
X18.668 Y18.563
X18.961 Y18.286
X19.265 Y18.022
X19.581 Y17.77
X19.907 Y17.533
X20.242 Y17.309
X20.587 Y17.099
X20.94 Y16.904
X21.301 Y16.724
X21.669 Y16.559
X22.045 Y16.41
X22.426 Y16.276
X22.812 Y16.159
X23.204 Y16.058
X23.599 Y15.973
X23.998 Y15.906
X24.4 Y15.855
X24.803 Y15.82
X25.208 Y15.803
X25.613
X26.019 Y15.82
X26.423 Y15.854
X26.827 Y15.905
X27.227 Y15.973
X27.625 Y16.058
X28.02 Y16.159
X28.41 Y16.277
X28.795 Y16.411
X29.175 Y16.562
X29.548 Y16.729
X29.914 Y16.911
X30.272 Y17.109
X30.622 Y17.321
X30.963 Y17.549
X31.294 Y17.79
X31.615 Y18.046
X31.926 Y18.315
X32.225 Y18.596
X32.512 Y18.891
X32.786 Y19.197
X33.048 Y19.515
X33.295 Y19.843
X33.53 Y20.182
X33.749 Y20.531
X33.954 Y20.888
X34.144 Y21.254
X34.318 Y21.627
X34.476 Y22.008
X34.619 Y22.395
X34.744 Y22.787
X34.854 Y23.184
X34.946 Y23.586
X35.022 Y23.991
X35.08 Y24.399
X35.121 Y24.809
X35.145 Y25.22
X35.152 Y25.632
X35.141 Y26.044
X35.113 Y26.455
X35.068 Y26.864
X35.006 Y27.271
X34.926 Y27.675
X34.83 Y28.076
X34.717 Y28.472
X34.588 Y28.862
X34.442 Y29.247
X34.28 Y29.626
X34.102 Y29.997
X33.909 Y30.361
X33.701 Y30.716
X33.478 Y31.062
X33.241 Y31.399
X32.989 Y31.725
X32.724 Y32.041
X32.446 Y32.345
X32.156 Y32.637
X31.853 Y32.918
X31.539 Y33.185
X31.213 Y33.439
X30.877 Y33.679
X30.531 Y33.904
X30.176 Y34.115
X29.812 Y34.312
X29.44 Y34.492
X29.061 Y34.657
X28.674 Y34.806
X28.282 Y34.939
X27.884 Y35.055
X27.481 Y35.155
X27.075 Y35.237
X26.664 Y35.303
X26.252 Y35.351
X25.837 Y35.381
X25.421 Y35.395
X25.005 Y35.391
X24.589 Y35.369
X24.175 Y35.33
X23.762 Y35.273
X23.351 Y35.199
X22.944 Y35.108
X22.541 Y35
X22.142 Y34.875
X21.749 Y34.733
X21.362 Y34.574
X20.981 Y34.4
X20.609 Y34.209
X20.244 Y34.003
X19.888 Y33.782
X19.542 Y33.546
X19.206 Y33.295
X18.88 Y33.031
X18.566 Y32.753
X18.263 Y32.461
X17.973 Y32.158
X17.696 Y31.842
X17.432 Y31.514
X17.183 Y31.176
X16.947 Y30.828
X16.727 Y30.47
X16.521 Y30.102
X16.331 Y29.727
X16.157 Y29.343
X16 Y28.953
X15.858 Y28.556
X15.734 Y28.154
X15.626 Y27.746
X15.536 Y27.334
X15.463 Y26.919
X15.408 Y26.501
X15.37 Y26.081
X15.35 Y25.66
X15.347 Y25.238
X15.363 Y24.817
X15.396 Y24.396
X15.446 Y23.977
X15.514 Y23.56
X15.6 Y23.147
X15.703 Y22.738
X15.823 Y22.333
X15.96 Y21.934
X16.114 Y21.54
X16.284 Y21.154
X16.47 Y20.775
X16.672 Y20.404
X16.889 Y20.042
X17.122 Y19.689
X17.369 Y19.346
X17.63 Y19.014
X17.905 Y18.694
X18.193 Y18.385
X18.494 Y18.088
X18.808 Y17.804
X19.132 Y17.534
X19.468 Y17.278
X19.815 Y17.035
X20.171 Y16.808
X20.537 Y16.596
X20.912 Y16.399
X21.294 Y16.218
X21.684 Y16.053
X22.08 Y15.905
X22.483 Y15.774
X22.891 Y15.659
X23.303 Y15.562
X23.719 Y15.482
X24.139 Y15.419
X24.561 Y15.375
X24.985 Y15.348
X25.409 Y15.339
X25.834 Y15.347
X26.259 Y15.374
X26.682 Y15.418
X27.104 Y15.48
X27.522 Y15.56
X27.937 Y15.658
X28.349 Y15.773
X28.755 Y15.905
X29.155 Y16.054
X29.55 Y16.22
X29.937 Y16.403
X30.316 Y16.602
X30.688 Y16.817
X31.049 Y17.047
X31.402 Y17.293
X31.744 Y17.553
X32.074 Y17.828
X32.393 Y18.116
X32.7 Y18.418
X32.994 Y18.732
X33.275 Y19.059
X33.542 Y19.398
X33.795 Y19.747
X34.032 Y20.107
X34.255 Y20.476
X34.461 Y20.855
X34.652 Y21.242
X34.826 Y21.637
X34.984 Y22.039
X35.124 Y22.447
X35.247 Y22.861
X35.353 Y23.279
X35.441 Y23.701
X35.511 Y24.127
X35.564 Y24.556
X35.598 Y24.986
X35.614 Y25.417
X35.612 Y25.848
X35.592 Y26.279
X35.554 Y26.709
X35.497 Y27.136
X35.423 Y27.561
X35.331 Y27.982
X35.222 Y28.399
X35.095 Y28.811
X34.951 Y29.218
X34.79 Y29.618
X34.612 Y30.011
X34.418 Y30.396
X34.208 Y30.772
X33.982 Y31.14
X33.741 Y31.497
X33.485 Y31.845
X33.215 Y32.181
X32.93 Y32.506
X32.632 Y32.818
X32.322 Y33.118
X31.999 Y33.405
X31.663 Y33.678
X31.317 Y33.936
X30.96 Y34.18
X30.593 Y34.409
X30.216 Y34.623
X29.831 Y34.82
X29.437 Y35.001
X29.036 Y35.166
X28.629 Y35.313
X28.215 Y35.444
X27.796 Y35.557
X27.372 Y35.652
X26.944 Y35.73
X26.514 Y35.789
X26.08 Y35.83
X25.646 Y35.854
X25.21 Y35.858
X24.775 Y35.845
X24.34 Y35.813
X23.906 Y35.763
X23.475 Y35.695
X23.047 Y35.609
X22.623 Y35.504
X22.203 Y35.382
X21.789 Y35.243
X21.38 Y35.086
X20.979 Y34.911
X20.584 Y34.72
X20.198 Y34.513
X19.821 Y34.289
X19.454 Y34.05
X19.096 Y33.795
X18.75 Y33.526
X18.415 Y33.242
X18.092 Y32.944
X17.782 Y32.633
X17.485 Y32.308
X17.202 Y31.972
X16.934 Y31.624
X16.68 Y31.264
X16.441 Y30.895
X16.218 Y30.515
X16.011 Y30.126
X15.82 Y29.729
X15.647 Y29.324
X15.49 Y28.913
X15.351 Y28.494
X15.23 Y28.07
X15.126 Y27.642
X15.041 Y27.209
X14.973 Y26.773
X14.924 Y26.335
X14.894 Y25.895
X14.882 Y25.454
X14.889 Y25.012
X14.914 Y24.572
X14.958 Y24.132
X15.02 Y23.695
X15.1 Y23.261
X15.199 Y22.831
X15.316 Y22.405
X15.45 Y21.984
X15.602 Y21.569
X15.771 Y21.161
X15.958 Y20.76
X16.161 Y20.368
X16.38 Y19.984
X16.615 Y19.61
X16.866 Y19.247
X17.132 Y18.894
X17.412 Y18.552
X17.707 Y18.222
X18.015 Y17.906
X18.336 Y17.602
X18.67 Y17.312
X19.016 Y17.036
X19.373 Y16.775
X19.741 Y16.53
X20.119 Y16.299
X20.506 Y16.085
X20.902 Y15.888
X21.306 Y15.707
X21.717 Y15.543
X22.135 Y15.396
X22.559 Y15.268
X22.988 Y15.157
X23.422 Y15.064
X23.859 Y14.989
X24.299 Y14.933
X24.742 Y14.896
X25.185 Y14.877
X25.63 Y14.876
X26.074 Y14.895
X26.518 Y14.932
X26.959 Y14.988
X27.399 Y15.062
X27.835 Y15.154
X28.267 Y15.265
X28.695 Y15.395
X29.117 Y15.542
X29.532 Y15.707
X29.941 Y15.889
X30.342 Y16.088
X30.735 Y16.305
X31.118 Y16.537
X31.491 Y16.786
X31.854 Y17.051
X32.206 Y17.33
X32.546 Y17.624
X32.873 Y17.933
X33.187 Y18.255
X33.488 Y18.59
X33.774 Y18.938
X34.046 Y19.297
X34.302 Y19.668
X34.543 Y20.049
X34.767 Y20.44
X34.975 Y20.841
X35.166 Y21.249
X35.339 Y21.666
X35.495 Y22.089
X35.633 Y22.518
X35.753 Y22.953
X35.854 Y23.393
X35.937 Y23.836
X36.001 Y24.283
X36.046 Y24.732
X36.073 Y25.182
X36.08 Y25.633
X36.069 Y26.083
X36.038 Y26.533
X35.989 Y26.981
X35.921 Y27.427
X35.834 Y27.869
X35.729 Y28.308
X35.605 Y28.741
X35.464 Y29.169
X35.304 Y29.59
X35.127 Y30.005
X34.933 Y30.412
X34.722 Y30.81
X34.494 Y31.199
X34.25 Y31.578
X33.99 Y31.946
X33.715 Y32.304
X33.425 Y32.65
X33.121 Y32.983
X32.803 Y33.303
X32.471 Y33.61
X32.127 Y33.902
X31.771 Y34.18
X31.404 Y34.443
X31.025 Y34.69
X30.636 Y34.922
X30.238 Y35.136
X29.831 Y35.334
X29.416 Y35.515
X28.993 Y35.678
X28.564 Y35.824
X28.128 Y35.951
X27.688 Y36.06
X27.243 Y36.151
X26.794 Y36.222
X26.343 Y36.275
X25.89 Y36.309
X25.435 Y36.323
X24.98 Y36.319
X24.525 Y36.296
X24.071 Y36.253
X23.619 Y36.191
X23.17 Y36.111
X22.725 Y36.011
X22.284 Y35.893
X21.848 Y35.756
X21.418 Y35.601
X20.995 Y35.428
X20.579 Y35.238
X20.171 Y35.029
X19.773 Y34.804
X19.384 Y34.563
X19.005 Y34.305
X18.637 Y34.031
X18.281 Y33.742
X17.938 Y33.438
X17.607 Y33.12
X17.29 Y32.788
X16.987 Y32.443
X16.699 Y32.085
X16.426 Y31.716
X16.168 Y31.335
X15.927 Y30.944
X15.702 Y30.542
X15.495 Y30.132
X15.304 Y29.713
X15.132 Y29.286
X14.977 Y28.853
X14.841 Y28.413
X14.723 Y27.968
X14.625 Y27.518
X14.545 Y27.065
X14.484 Y26.608
X14.443 Y26.149
X14.42 Y25.689
X14.418 Y25.228
X14.434 Y24.767
X14.47 Y24.308
X14.525 Y23.85
X14.6 Y23.395
X14.693 Y22.943
X14.805 Y22.496
X14.936 Y22.054
X15.086 Y21.617
X15.254 Y21.188
X15.439 Y20.765
X15.642 Y20.351
X15.863 Y19.946
X16.1 Y19.55
X16.354 Y19.165
X16.624 Y18.79
X16.909 Y18.427
X17.209 Y18.077
X17.524 Y17.739
X17.853 Y17.415
X18.195 Y17.105
X18.55 Y16.809
X18.917 Y16.529
X19.295 Y16.264
X19.684 Y16.016
X20.084 Y15.784
X20.493 Y15.569
X20.911 Y15.371
X21.336 Y15.191
X21.77 Y15.029
X22.209 Y14.885
X22.655 Y14.759
X23.105 Y14.653
X23.56 Y14.566
X24.018 Y14.497
X24.479 Y14.448
X24.942 Y14.419
X25.406 Y14.408
X25.87 Y14.418
X26.333 Y14.447
X26.796 Y14.495
X27.256 Y14.563
X27.713 Y14.65
X28.166 Y14.756
X28.615 Y14.881
X29.058 Y15.025
X29.496 Y15.188
X29.926 Y15.369
X30.349 Y15.568
X30.763 Y15.785
X31.168 Y16.02
X31.563 Y16.271
X31.948 Y16.539
X32.321 Y16.822
X32.682 Y17.122
X33.03 Y17.436
X33.365 Y17.765
X33.686 Y18.108
X33.992 Y18.465
X34.283 Y18.834
X34.559 Y19.215
X34.818 Y19.607
X35.061 Y20.01
X35.286 Y20.423
X35.494 Y20.845
X35.684 Y21.275
X35.856 Y21.713
X36.01 Y22.158
X36.144 Y22.609
X36.26 Y23.066
X36.356 Y23.526
X36.433 Y23.991
X36.49 Y24.458
X36.527 Y24.927
X36.545 Y25.397
X36.543 Y25.868
X36.521 Y26.338
X36.48 Y26.806
X36.419 Y27.273
X36.338 Y27.736
X36.238 Y28.196
X36.119 Y28.651
X35.98 Y29.1
X35.823 Y29.543
X35.648 Y29.98
X35.454 Y30.408
X35.242 Y30.828
X35.013 Y31.239
X34.767 Y31.64
X34.504 Y32.031
X34.225 Y32.41
X33.931 Y32.776
X33.621 Y33.131
X33.296 Y33.472
X32.957 Y33.799
X32.605 Y34.112
X32.239 Y34.41
X31.862 Y34.692
X31.472 Y34.958
X31.072 Y35.208
X30.662 Y35.441
X30.241 Y35.656
X29.812 Y35.854
X29.375 Y36.034
X28.931 Y36.195
X28.479 Y36.337
X28.023 Y36.461
X27.561 Y36.565
X27.094 Y36.649
X26.625 Y36.714
X26.153 Y36.76
X25.679 Y36.785
X25.204 Y36.79
X24.73 Y36.776
X24.256 Y36.741
X23.783 Y36.687
X23.314 Y36.613
X22.847 Y36.519
X22.385 Y36.406
X21.927 Y36.273
X21.476 Y36.121
X21.031 Y35.95
X20.593 Y35.76
X20.163 Y35.552
X19.743 Y35.327
X19.332 Y35.083
X18.932 Y34.823
X18.542 Y34.545
X18.165 Y34.252
X17.8 Y33.943
X17.448 Y33.618
X17.11 Y33.279
X16.787 Y32.926
X16.479 Y32.56
X16.186 Y32.181
X15.909 Y31.79
X15.649 Y31.387
X15.406 Y30.974
X15.18 Y30.551
X14.973 Y30.118
X14.783 Y29.678
X14.613 Y29.229
X14.461 Y28.774
X14.329 Y28.312
X14.216 Y27.846
X14.123 Y27.375
X14.049 Y26.9
X13.996 Y26.423
X13.962 Y25.944
X13.949 Y25.463
X13.956 Y24.983
X13.984 Y24.503
X14.031 Y24.025
X14.098 Y23.549
X14.186 Y23.076
X14.293 Y22.607
X14.42 Y22.143
X14.566 Y21.685
X14.731 Y21.234
X14.916 Y20.789
X15.118 Y20.353
X15.339 Y19.926
X15.578 Y19.508
X15.834 Y19.101
X16.107 Y18.704
X16.396 Y18.32
X16.701 Y17.948
X17.022 Y17.589
X17.357 Y17.244
X17.707 Y16.913
X18.07 Y16.597
X18.446 Y16.297
X18.835 Y16.013
X19.235 Y15.745
X19.646 Y15.495
X20.068 Y15.261
X20.499 Y15.046
X20.939 Y14.849
X21.386 Y14.67
X21.841 Y14.511
X22.303 Y14.37
X22.77 Y14.249
X23.242 Y14.148
X23.718 Y14.067
X24.197 Y14.006
X24.678 Y13.965
X25.162 Y13.944
X25.645 Y13.943
X26.129 Y13.963
X26.612 Y14.003
X27.092 Y14.064
X27.57 Y14.144
X28.045 Y14.245
X28.515 Y14.365
X28.98 Y14.506
X29.44 Y14.666
X29.892 Y14.845
X30.336 Y15.043
X30.773 Y15.26
X31.2 Y15.495
X31.617 Y15.748
X32.023 Y16.018
X32.417 Y16.305
X32.8 Y16.609
X33.17 Y16.929
X33.526 Y17.264
X33.867 Y17.614
X34.194 Y17.978
X34.505 Y18.356
X34.801 Y18.747
X35.08 Y19.15
X35.341 Y19.564
X35.585 Y19.989
X35.811 Y20.424
X36.019 Y20.868
X36.208 Y21.32
X36.377 Y21.781
X36.527 Y22.247
X36.658 Y22.72
X36.768 Y23.198
X36.858 Y23.68
X36.928 Y24.165
X36.977 Y24.653
X37.006 Y25.142
X37.015 Y25.632
X37.002 Y26.122
X36.969 Y26.611
X36.916 Y27.098
X36.842 Y27.583
X36.748 Y28.064
X36.634 Y28.54
X36.5 Y29.012
X36.346 Y29.477
X36.173 Y29.935
X35.98 Y30.386
X35.769 Y30.828
X35.54 Y31.261
X35.292 Y31.684
X35.027 Y32.096
X34.745 Y32.497
X34.446 Y32.886
X34.131 Y33.262
X33.8 Y33.624
X33.455 Y33.973
X33.095 Y34.306
X32.721 Y34.624
X32.334 Y34.927
X31.934 Y35.212
X31.523 Y35.481
X31.101 Y35.733
X30.668 Y35.967
X30.225 Y36.182
X29.774 Y36.378
X29.315 Y36.556
X28.848 Y36.714
X28.375 Y36.853
X27.897 Y36.971
X27.413 Y37.07
X26.926 Y37.148
X26.436 Y37.205
X25.943 Y37.242
X25.449 Y37.258
X24.955 Y37.254
X24.46 Y37.228
X23.968 Y37.182
X23.477 Y37.115
X22.989 Y37.028
X22.505 Y36.92
X22.026 Y36.792
X21.553 Y36.644
X21.086 Y36.476
X20.626 Y36.288
X20.175 Y36.081
X19.732 Y35.855
X19.299 Y35.611
X18.876 Y35.349
X18.465 Y35.069
X18.066 Y34.772
X17.679 Y34.458
X17.306 Y34.128
X16.947 Y33.783
X16.603 Y33.423
X16.274 Y33.048
X15.96 Y32.66
X15.664 Y32.259
X15.384 Y31.846
X15.122 Y31.421
X14.878 Y30.986
X14.653 Y30.54
X14.446 Y30.086
X14.258 Y29.623
X14.091 Y29.152
X13.943 Y28.675
X13.815 Y28.192
X13.707 Y27.704
X13.62 Y27.212
X13.554 Y26.716
X13.509 Y26.218
X13.485 Y25.718
X13.482 Y25.218
X13.499 Y24.718
X13.538 Y24.219
X13.598 Y23.723
X13.678 Y23.229
X13.78 Y22.739
X13.901 Y22.253
X14.043 Y21.773
X14.205 Y21.299
X14.387 Y20.833
X14.588 Y20.375
X14.809 Y19.925
X15.048 Y19.485
X15.305 Y19.055
X15.581 Y18.637
X15.873 Y18.231
X16.183 Y17.837
X16.508 Y17.456
X16.85 Y17.09
X17.206 Y16.738
X17.578 Y16.401
X17.963 Y16.08
X18.361 Y15.776
X18.771 Y15.488
X19.194 Y15.218
X19.627 Y14.966
X20.071 Y14.733
X20.524 Y14.518
X20.986 Y14.322
X21.456 Y14.146
X21.933 Y13.99
X22.416 Y13.854
X22.905 Y13.738
X23.399 Y13.643
X23.896 Y13.569
X24.396 Y13.515
X24.898 Y13.483
X25.401 Y13.472
X25.905 Y13.482
X26.408 Y13.513
X26.909 Y13.565
X27.408 Y13.638
X27.904 Y13.733
X28.396 Y13.848
X28.883 Y13.983
X29.364 Y14.14
X29.838 Y14.316
X30.305 Y14.512
X30.763 Y14.728
X31.212 Y14.963
X31.651 Y15.217
X32.08 Y15.489
X32.496 Y15.779
X32.901 Y16.087
X33.292 Y16.411
X33.67 Y16.752
X34.033 Y17.108
X34.381 Y17.48
X34.713 Y17.866
X35.029 Y18.265
X35.327 Y18.678
X35.608 Y19.103
X35.872 Y19.54
X36.116 Y19.987
X36.342 Y20.444
X36.548 Y20.91
X36.735 Y21.385
X36.901 Y21.867
X37.047 Y22.356
X37.172 Y22.85
X37.277 Y23.35
X37.36 Y23.853
X37.422 Y24.359
X37.463 Y24.867
X37.482 Y25.377
X37.48 Y25.887
X37.457 Y26.396
X37.412 Y26.904
X37.346 Y27.409
X37.259 Y27.912
X37.151 Y28.41
X37.022 Y28.903
X36.872 Y29.39
X36.702 Y29.871
X36.512 Y30.344
X36.302 Y30.808
X36.073 Y31.264
X35.825 Y31.709
X35.558 Y32.144
X35.273 Y32.567
X34.971 Y32.978
X34.652 Y33.376
X34.316 Y33.76
X33.964 Y34.13
X33.597 Y34.484
X33.215 Y34.823
X32.82 Y35.146
X32.411 Y35.452
X31.989 Y35.741
X31.555 Y36.012
X31.11 Y36.264
X30.655 Y36.498
X30.19 Y36.712
X29.717 Y36.907
X29.235 Y37.082
X28.747 Y37.236
X28.252 Y37.37
X27.751 Y37.483
X27.246 Y37.575
X26.738 Y37.646
X26.226 Y37.695
X25.713 Y37.722
X25.199 Y37.729
X24.685 Y37.713
X24.172 Y37.676
X23.66 Y37.617
X23.152 Y37.537
X22.646 Y37.436
X22.146 Y37.313
X21.65 Y37.169
X21.161 Y37.005
X20.679 Y36.82
X20.205 Y36.615
X19.74 Y36.39
X19.285 Y36.146
X18.84 Y35.883
X18.407 Y35.601
X17.985 Y35.301
X17.576 Y34.983
X17.181 Y34.649
X16.8 Y34.298
X16.435 Y33.931
X16.084 Y33.549
X15.75 Y33.153
X15.433 Y32.743
X15.134 Y32.319
X14.852 Y31.884
X14.589 Y31.437
X14.344 Y30.979
X14.12 Y30.511
X13.915 Y30.034
X13.73 Y29.549
X13.565 Y29.056
X13.422 Y28.557
X13.3 Y28.052
X13.198 Y27.542
X13.119 Y27.028
X13.061 Y26.512
X13.025 Y25.993
X13.01 Y25.474
X13.018 Y24.954
X13.047 Y24.434
X13.098 Y23.917
X13.171 Y23.402
X13.265 Y22.89
X13.381 Y22.383
X13.518 Y21.881
X13.676 Y21.385
X13.855 Y20.897
X14.054 Y20.416
X14.273 Y19.944
X14.512 Y19.481
X14.77 Y19.029
X15.047 Y18.588
X15.342 Y18.159
X15.655 Y17.743
X15.985 Y17.341
X16.331 Y16.952
X16.694 Y16.579
X17.072 Y16.221
X17.465 Y15.879
X17.872 Y15.554
X18.293 Y15.246
X18.726 Y14.956
X19.171 Y14.685
X19.627 Y14.432
X20.093 Y14.199
X20.569 Y13.985
X21.053 Y13.792
X21.545 Y13.619
X22.044 Y13.467
X22.55 Y13.336
X23.06 Y13.227
X23.575 Y13.138
X24.093 Y13.072
X24.614 Y13.027
X25.137 Y13.004
X25.66
X26.183 Y13.025
X26.705 Y13.068
X27.225 Y13.133
X27.743 Y13.22
X28.256 Y13.329
X28.764 Y13.459
X29.267 Y13.611
X29.764 Y13.783
X30.253 Y13.977
X30.734 Y14.191
X31.205 Y14.425
X31.667 Y14.679
X32.118 Y14.952
X32.557 Y15.244
X32.984 Y15.555
X33.397 Y15.883
X33.797 Y16.228
X34.182 Y16.59
X34.551 Y16.969
X34.905 Y17.362
X35.241 Y17.77
X35.56 Y18.192
X35.862 Y18.627
X36.145 Y19.075
X36.408 Y19.534
X36.653 Y20.004
X36.877 Y20.484
X37.081 Y20.972
X37.265 Y21.469
X37.427 Y21.974
X37.568 Y22.484
X37.688 Y23.001
X37.785 Y23.521
X37.861 Y24.046
X37.915 Y24.573
X37.946 Y25.102
X37.955 Y25.631
X37.942 Y26.161
X37.907 Y26.689
X37.849 Y27.216
X37.77 Y27.739
X37.668 Y28.259
X37.545 Y28.774
X37.4 Y29.283
X37.234 Y29.786
X37.047 Y30.282
X36.84 Y30.769
X36.612 Y31.247
X36.364 Y31.715
X36.096 Y32.172
X35.81 Y32.618
X35.505 Y33.051
X35.182 Y33.471
X34.842 Y33.878
X34.485 Y34.27
X34.112 Y34.646
X33.723 Y35.007
X33.319 Y35.351
X32.901 Y35.677
X32.469 Y35.987
X32.025 Y36.277
X31.568 Y36.549
X31.101 Y36.802
X30.623 Y37.035
X30.136 Y37.247
X29.64 Y37.439
X29.136 Y37.61
X28.625 Y37.76
X28.108 Y37.889
X27.586 Y37.995
X27.059 Y38.08
X26.53 Y38.142
X25.997 Y38.182
X25.464 Y38.2
X24.93 Y38.195
X24.396 Y38.168
X23.864 Y38.118
X23.334 Y38.046
X22.808 Y37.952
X22.285 Y37.836
X21.768 Y37.697
X21.257 Y37.537
X20.752 Y37.356
X20.256 Y37.154
X19.768 Y36.931
X19.29 Y36.687
X18.823 Y36.423
X18.366 Y36.14
X17.922 Y35.838
X17.491 Y35.518
X17.074 Y35.179
X16.671 Y34.824
X16.283 Y34.451
X15.911 Y34.062
X15.556 Y33.658
X15.218 Y33.24
X14.897 Y32.807
X14.595 Y32.361
X14.313 Y31.903
X14.049 Y31.433
X13.805 Y30.952
X13.582 Y30.462
X13.38 Y29.962
X13.198 Y29.455
X13.038 Y28.94
X12.9 Y28.418
X12.784 Y27.891
X12.69 Y27.36
X12.618 Y26.825
X12.569 Y26.288
X12.543 Y25.749
X12.539 Y25.209
X12.558 Y24.67
X12.6 Y24.131
X12.664 Y23.595
X12.751 Y23.062
X12.86 Y22.533
X12.991 Y22.009
X13.144 Y21.491
X13.319 Y20.98
X13.515 Y20.477
X13.732 Y19.982
X13.969 Y19.497
X14.227 Y19.022
X14.505 Y18.558
X14.802 Y18.107
X15.117 Y17.668
X15.451 Y17.243
X15.802 Y16.832
X16.171 Y16.436
X16.555 Y16.056
X16.956 Y15.693
X17.371 Y15.347
X17.8 Y15.018
X18.243 Y14.708
X18.699 Y14.416
X19.167 Y14.144
X19.645 Y13.892
X20.134 Y13.66
X20.633 Y13.449
X21.14 Y13.258
X21.654 Y13.09
X22.176 Y12.943
X22.703 Y12.818
X23.235 Y12.715
X23.772 Y12.634
X24.311 Y12.577
X24.853 Y12.541
X25.396 Y12.529
X25.939 Y12.54
X26.482 Y12.573
X27.022 Y12.629
X27.561 Y12.708
X28.096 Y12.809
X28.626 Y12.933
X29.151 Y13.079
X29.67 Y13.248
X30.181 Y13.438
X30.685 Y13.649
X31.179 Y13.881
X31.664 Y14.135
X32.137 Y14.408
X32.599 Y14.701
X33.048 Y15.014
X33.485 Y15.345
X33.906 Y15.695
X34.314 Y16.062
X34.705 Y16.446
X35.08 Y16.846
X35.438 Y17.262
X35.779 Y17.693
X36.101 Y18.137
X36.404 Y18.595
X36.688 Y19.066
X36.951 Y19.547
X37.195 Y20.04
X37.417 Y20.543
X37.618 Y21.054
X37.798 Y21.574
X37.955 Y22.1
X38.091 Y22.633
X38.203 Y23.171
X38.293 Y23.713
X38.361 Y24.259
X38.405 Y24.806
X38.426 Y25.356
X38.424 Y25.905
X38.399 Y26.454
X38.351 Y27.002
X38.28 Y27.546
X38.186 Y28.088
X38.07 Y28.625
X37.931 Y29.156
X37.77 Y29.682
X37.586 Y30.2
X37.382 Y30.709
X37.156 Y31.21
X36.909 Y31.701
X36.642 Y32.182
X36.355 Y32.65
X36.048 Y33.106
X35.722 Y33.549
X35.378 Y33.978
X35.016 Y34.392
X34.637 Y34.791
X34.242 Y35.174
X33.831 Y35.539
X33.404 Y35.887
X32.964 Y36.217
X32.509 Y36.529
X32.042 Y36.821
X31.563 Y37.093
X31.072 Y37.345
X30.572 Y37.576
X30.061 Y37.786
X29.543 Y37.975
X29.016 Y38.141
X28.483 Y38.286
X27.944 Y38.407
X27.4 Y38.507
X26.852 Y38.583
X26.301 Y38.636
X25.749 Y38.666
X25.195 Y38.673
X24.641 Y38.657
X24.088 Y38.617
X23.537 Y38.554
X22.989 Y38.468
X22.445 Y38.359
X21.906 Y38.227
X21.372 Y38.072
X20.845 Y37.895
X20.326 Y37.696
X19.816 Y37.476
X19.315 Y37.234
X18.825 Y36.971
X18.345 Y36.688
X17.878 Y36.384
X17.425 Y36.061
X16.984 Y35.72
X16.559 Y35.36
X16.149 Y34.982
X15.755 Y34.587
X15.377 Y34.176
X15.018 Y33.75
X14.676 Y33.308
X14.353 Y32.853
X14.05 Y32.384
X13.767 Y31.903
X13.503 Y31.41
X13.261 Y30.906
X13.04 Y30.393
X12.841 Y29.871
X12.664 Y29.341
X12.509 Y28.803
X12.377 Y28.26
X12.268 Y27.711
X12.182 Y27.158
X12.12 Y26.602
X12.081 Y26.044
X12.065 Y25.485
X12.073 Y24.925
X12.104 Y24.366
X12.159 Y23.809
X12.237 Y23.255
X12.338 Y22.704
X12.463 Y22.158
X12.61 Y21.618
X12.78 Y21.084
X12.972 Y20.558
X13.186 Y20.04
X13.422 Y19.532
X13.679 Y19.034
X13.956 Y18.547
X14.254 Y18.073
X14.571 Y17.611
X14.908 Y17.163
X15.263 Y16.73
X15.636 Y16.311
X16.026 Y15.909
X16.433 Y15.524
X16.856 Y15.156
X17.294 Y14.805
X17.747 Y14.474
X18.212 Y14.162
X18.691 Y13.87
X19.182 Y13.598
X19.684 Y13.346
X20.195 Y13.117
X20.717 Y12.908
X21.246 Y12.722
X21.784 Y12.558
X22.327 Y12.417
X22.877 Y12.299
X23.431 Y12.204
X23.989 Y12.132
X24.549 Y12.084
X25.111 Y12.059
X25.675 Y12.058
X26.237 Y12.08
X26.799 Y12.127
X27.359 Y12.197
X27.915 Y12.29
X28.467 Y12.407
X29.015 Y12.547
X29.556 Y12.709
X30.09 Y12.895
X30.616 Y13.103
X31.133 Y13.333
X31.64 Y13.584
X32.137 Y13.857
X32.622 Y14.151
X33.094 Y14.465
X33.553 Y14.799
X33.998 Y15.151
X34.428 Y15.523
X34.842 Y15.912
X35.239 Y16.318
X35.619 Y16.741
X35.981 Y17.18
X36.325 Y17.633
X36.649 Y18.101
X36.953 Y18.582
X37.237 Y19.075
X37.5 Y19.58
X37.741 Y20.096
X37.961 Y20.621
X38.158 Y21.156
X38.333 Y21.698
X38.485 Y22.247
X38.614 Y22.802
X38.719 Y23.361
X38.8 Y23.925
X38.858 Y24.492
X38.892 Y25.06
X38.902 Y25.629
X38.888 Y26.199
X38.851 Y26.767
X38.789 Y27.333
X38.704 Y27.896
X38.595 Y28.455
X38.462 Y29.009
X38.307 Y29.556
X38.129 Y30.097
X37.928 Y30.63
X37.705 Y31.154
X37.46 Y31.668
X37.193 Y32.171
X36.906 Y32.663
X36.599 Y33.142
X36.271 Y33.608
X35.924 Y34.06
X35.558 Y34.497
X35.174 Y34.919
X34.773 Y35.324
X34.355 Y35.711
X33.921 Y36.081
X33.472 Y36.433
X33.008 Y36.765
X32.53 Y37.078
X32.04 Y37.371
X31.538 Y37.642
X31.024 Y37.893
X30.5 Y38.122
X29.967 Y38.328
X29.425 Y38.512
X28.876 Y38.674
X28.321 Y38.812
X27.76 Y38.926
X27.194 Y39.017
X26.625 Y39.085
X26.053 Y39.128
X25.48 Y39.147
X24.906 Y39.142
X24.332 Y39.113
X23.761 Y39.06
X23.191 Y38.983
X22.625 Y38.882
X22.064 Y38.757
X21.508 Y38.609
X20.959 Y38.437
X20.417 Y38.243
X19.884 Y38.026
X19.36 Y37.786
X18.846 Y37.525
X18.344 Y37.242
X17.854 Y36.938
X17.376 Y36.614
X16.913 Y36.269
X16.465 Y35.906
X16.032 Y35.524
X15.615 Y35.124
X15.216 Y34.707
X14.834 Y34.273
X14.47 Y33.823
X14.126 Y33.359
X13.802 Y32.88
X13.498 Y32.388
X13.214 Y31.884
X12.953 Y31.368
X12.713 Y30.841
X12.495 Y30.305
X12.3 Y29.759
X12.128 Y29.206
X11.98 Y28.647
X11.855 Y28.081
X11.753 Y27.511
X11.676 Y26.936
X11.624 Y26.359
X11.595 Y25.78
X11.591 Y25.201
X11.611 Y24.621
X11.655 Y24.043
X11.724 Y23.468
X11.817 Y22.895
X11.934 Y22.327
X12.075 Y21.765
X12.239 Y21.208
X12.426 Y20.659
X12.636 Y20.119
X12.869 Y19.587
X13.124 Y19.066
X13.401 Y18.556
X13.699 Y18.058
X14.017 Y17.573
X14.356 Y17.102
X14.714 Y16.645
X15.091 Y16.204
X15.486 Y15.779
X15.899 Y15.371
X16.329 Y14.981
X16.775 Y14.609
X17.236 Y14.256
X17.711 Y13.922
X18.201 Y13.609
X18.703 Y13.317
X19.216 Y13.046
X19.741 Y12.796
X20.276 Y12.569
X20.821 Y12.365
X21.373 Y12.183
X21.933 Y12.025
X22.499 Y11.891
X23.071 Y11.78
X23.646 Y11.694
X24.226 Y11.631
X24.807 Y11.594
X25.39 Y11.58
X25.973 Y11.591
X26.555 Y11.627
X27.136 Y11.687
X27.714 Y11.771
X28.288 Y11.88
X28.857 Y12.013
X29.421 Y12.169
X29.978 Y12.35
X30.527 Y12.553
X31.067 Y12.78
X31.598 Y13.029
X32.117 Y13.3
X32.626 Y13.594
X33.121 Y13.908
X33.604 Y14.243
X34.071 Y14.599
X34.524 Y14.973
X34.961 Y15.367
X35.381 Y15.779
X35.784 Y16.208
X36.168 Y16.654
X36.533 Y17.116
X36.879 Y17.592
X37.204 Y18.083
X37.509 Y18.588
X37.792 Y19.105
X38.053 Y19.633
X38.292 Y20.172
X38.508 Y20.72
X38.701 Y21.277
X38.87 Y21.842
X39.015 Y22.413
X39.136 Y22.99
X39.233 Y23.572
X39.305 Y24.157
X39.353 Y24.745
X39.376 Y25.334
X39.374 Y25.923
X39.347 Y26.512
X39.296 Y27.099
X39.22 Y27.684
X39.12 Y28.264
X38.995 Y28.84
X38.846 Y29.411
X38.673 Y29.974
X38.477 Y30.53
X38.258 Y31.077
X38.016 Y31.614
X37.751 Y32.141
X37.465 Y32.656
X37.157 Y33.159
X36.828 Y33.649
X36.479 Y34.124
X36.11 Y34.584
X35.722 Y35.029
X35.316 Y35.456
X34.892 Y35.867
X34.451 Y36.259
X33.993 Y36.633
X33.521 Y36.987
X33.034 Y37.321
X32.533 Y37.635
X32.019 Y37.927
X31.493 Y38.197
X30.956 Y38.445
X30.409 Y38.671
X29.853 Y38.873
X29.288 Y39.052
X28.716 Y39.207
X28.138 Y39.338
X27.555 Y39.445
X26.968 Y39.527
X26.377 Y39.584
X25.785 Y39.616
X25.191 Y39.624
X24.597 Y39.606
X24.004 Y39.564
X23.414 Y39.497
X22.826 Y39.405
X22.243 Y39.288
X21.665 Y39.147
X21.093 Y38.981
X20.528 Y38.792
X19.972 Y38.579
X19.424 Y38.343
X18.888 Y38.084
X18.362 Y37.802
X17.848 Y37.498
X17.347 Y37.174
X16.861 Y36.828
X16.389 Y36.462
X15.933 Y36.076
X15.493 Y35.672
X15.071 Y35.249
X14.666 Y34.808
X14.281 Y34.351
X13.915 Y33.879
X13.568 Y33.391
X13.243 Y32.888
X12.939 Y32.373
X12.657 Y31.845
X12.397 Y31.305
X12.16 Y30.755
X11.947 Y30.196
X11.757 Y29.628
X11.591 Y29.052
X11.449 Y28.47
X11.332 Y27.882
X11.24 Y27.29
X11.173 Y26.694
X11.13 Y26.096
X11.113 Y25.497
X11.121 Y24.897
X11.155 Y24.298
X11.213 Y23.701
X11.297 Y23.107
X11.405 Y22.517
X11.538 Y21.932
X11.696 Y21.353
X11.877 Y20.781
X12.083 Y20.218
X12.312 Y19.663
X12.565 Y19.118
X12.84 Y18.585
X13.137 Y18.063
X13.455 Y17.555
X13.795 Y17.06
X14.156 Y16.58
X14.536 Y16.115
X14.936 Y15.667
X15.354 Y15.236
X15.79 Y14.823
X16.242 Y14.428
X16.712 Y14.053
X17.196 Y13.698
X17.695 Y13.363
X18.208 Y13.05
X18.733 Y12.758
X19.271 Y12.489
X19.819 Y12.242
X20.378 Y12.019
X20.945 Y11.819
X21.52 Y11.643
X22.103 Y11.492
X22.691 Y11.365
X23.285 Y11.263
X23.882 Y11.186
X24.483 Y11.134
X25.085 Y11.107
X25.688 Y11.106
X26.291 Y11.13
X26.893 Y11.179
X27.492 Y11.254
X28.088 Y11.353
X28.68 Y11.478
X29.266 Y11.628
X29.845 Y11.802
X30.417 Y12
X30.981 Y12.223
X31.534 Y12.469
X32.078 Y12.738
X32.61 Y13.03
X33.129 Y13.344
X33.635 Y13.68
X34.126 Y14.037
X34.602 Y14.414
X35.063 Y14.812
X35.506 Y15.228
X35.931 Y15.663
X36.338 Y16.115
X36.726 Y16.585
X37.094 Y17.07
X37.441 Y17.57
X37.767 Y18.085
X38.071 Y18.613
X38.352 Y19.153
X38.611 Y19.705
X38.846 Y20.267
X39.058 Y20.839
X39.245 Y21.419
X39.407 Y22.007
X39.545 Y22.6
X39.658 Y23.2
X39.746 Y23.803
X39.808 Y24.409
X39.845 Y25.018
X39.856 Y25.627
X39.841 Y26.236
X39.801 Y26.845
X39.735 Y27.451
X39.644 Y28.053
X39.528 Y28.651
X39.386 Y29.244
X39.22 Y29.831
X39.029 Y30.409
X38.815 Y30.98
X38.576 Y31.541
X38.314 Y32.091
X38.029 Y32.63
X37.722 Y33.157
X37.393 Y33.67
X37.042 Y34.169
X36.671 Y34.653
X36.28 Y35.12
X35.869 Y35.572
X35.44 Y36.005
X34.993 Y36.42
X34.528 Y36.817
X34.047 Y37.193
X33.551 Y37.549
X33.04 Y37.884
X32.515 Y38.197
X31.978 Y38.488
X31.428 Y38.757
X30.868 Y39.002
X30.297 Y39.223
X29.718 Y39.42
X29.13 Y39.593
X28.536 Y39.741
X27.936 Y39.864
X27.33 Y39.961
X26.721 Y40.034
X26.11 Y40.08
X25.496 Y40.101
X24.882 Y40.096
X24.269 Y40.065
X23.657 Y40.008
X23.048 Y39.926
X22.443 Y39.818
X21.842 Y39.685
X21.247 Y39.527
X20.66 Y39.343
X20.08 Y39.136
X19.51 Y38.903
X18.949 Y38.647
X18.4 Y38.368
X17.862 Y38.066
X17.338 Y37.741
X16.827 Y37.394
X16.332 Y37.026
X15.852 Y36.638
X15.389 Y36.23
X14.943 Y35.802
X14.516 Y35.356
X14.107 Y34.892
X13.719 Y34.412
X13.35 Y33.915
X13.003 Y33.403
X12.678 Y32.877
X12.375 Y32.338
X12.095 Y31.786
X11.838 Y31.223
X11.605 Y30.65
X11.396 Y30.067
X11.212 Y29.476
X11.053 Y28.877
X10.919 Y28.272
X10.811 Y27.663
X10.728 Y27.049
X10.671 Y26.432
X10.641 Y25.813
X10.636 Y25.193
X10.657 Y24.573
X10.705 Y23.955
X10.778 Y23.34
X10.877 Y22.728
X11.002 Y22.12
X11.152 Y21.519
X11.327 Y20.924
X11.527 Y20.337
X11.752 Y19.759
X12 Y19.191
X12.273 Y18.633
X12.568 Y18.088
X12.887 Y17.556
X13.227 Y17.037
X13.589 Y16.533
X13.972 Y16.044
X14.375 Y15.573
X14.797 Y15.118
X15.238 Y14.682
X15.698 Y14.264
X16.174 Y13.866
X16.667 Y13.488
X17.175 Y13.132
X17.698 Y12.797
X18.235 Y12.484
X18.784 Y12.194
X19.345 Y11.927
X19.917 Y11.684
X20.499 Y11.466
X21.09 Y11.271
X21.688 Y11.102
X22.293 Y10.958
X22.904 Y10.84
X23.52 Y10.747
X24.139 Y10.68
X24.76 Y10.639
X25.383 Y10.625
X26.006 Y10.636
X26.629 Y10.674
X27.25 Y10.738
X27.867 Y10.828
X28.481 Y10.944
X29.09 Y11.086
X29.692 Y11.253
X30.287 Y11.445
X30.874 Y11.663
X31.451 Y11.904
X32.018 Y12.171
X32.574 Y12.46
X33.117 Y12.773
X33.646 Y13.109
X34.162 Y13.467
X34.662 Y13.846
X35.146 Y14.247
X35.613 Y14.667
X36.061 Y15.107
X36.492 Y15.565
X36.902 Y16.041
X37.293 Y16.534
X37.662 Y17.043
X38.01 Y17.568
X38.335 Y18.106
X38.638 Y18.658
X38.917 Y19.222
X39.172 Y19.798
X39.403 Y20.383
X39.609 Y20.978
X39.79 Y21.582
X39.946 Y22.192
X40.075 Y22.808
X40.179 Y23.429
X40.256 Y24.054
X40.307 Y24.682
X40.332 Y25.311
X40.33 Y25.94
X40.302 Y26.569
X40.248 Y27.197
X40.167 Y27.821
X40.06 Y28.442
X39.927 Y29.057
X39.768 Y29.666
X39.584 Y30.268
X39.374 Y30.862
X39.14 Y31.446
X38.882 Y32.021
X38.599 Y32.583
X38.293 Y33.134
X37.965 Y33.671
X37.614 Y34.194
X37.241 Y34.702
X36.847 Y35.194
X36.433 Y35.669
X35.999 Y36.126
X35.546 Y36.565
X35.075 Y36.984
X34.587 Y37.383
X34.082 Y37.762
X33.562 Y38.119
X33.027 Y38.453
X32.478 Y38.766
X31.917 Y39.055
X31.344 Y39.32
X30.759 Y39.561
X30.165 Y39.777
X29.563 Y39.969
X28.952 Y40.134
X28.335 Y40.274
X27.712 Y40.389
X27.085 Y40.476
X26.455 Y40.538
X25.822 Y40.573
X25.188 Y40.581
X24.554 Y40.563
X23.921 Y40.518
X23.29 Y40.446
X22.663 Y40.348
X22.04 Y40.224
X21.423 Y40.073
X20.812 Y39.897
X20.209 Y39.695
X19.615 Y39.468
X19.031 Y39.216
X18.458 Y38.939
X17.896 Y38.639
X17.348 Y38.315
X16.814 Y37.969
X16.294 Y37.6
X15.79 Y37.209
X15.303 Y36.798
X14.834 Y36.366
X14.383 Y35.915
X13.951 Y35.445
X13.539 Y34.958
X13.148 Y34.453
X12.779 Y33.932
X12.431 Y33.397
X12.107 Y32.847
X11.805 Y32.283
X11.528 Y31.708
X11.275 Y31.121
X11.047 Y30.524
X10.844 Y29.917
X10.666 Y29.303
X10.515 Y28.682
X10.39 Y28.055
X10.291 Y27.423
X10.219 Y26.787
X10.174 Y26.149
X10.155 Y25.509
X10.164 Y24.869
X10.199 Y24.23
X10.261 Y23.593
X10.35 Y22.959
X10.465 Y22.33
X10.607 Y21.705
X10.775 Y21.088
X10.969 Y20.477
X11.188 Y19.876
X11.432 Y19.284
X11.701 Y18.702
X11.995 Y18.133
X12.311 Y17.576
X12.651 Y17.033
X13.014 Y16.505
X13.398 Y15.993
X13.804 Y15.497
X14.23 Y15.018
X14.676 Y14.558
X15.141 Y14.117
X15.624 Y13.696
X16.124 Y13.295
X16.641 Y12.916
X17.174 Y12.559
X17.721 Y12.224
X18.281 Y11.913
X18.855 Y11.625
X19.44 Y11.362
X20.035 Y11.124
X20.641 Y10.91
X21.255 Y10.722
X21.876 Y10.561
X22.504 Y10.425
X23.137 Y10.316
X23.775 Y10.233
X24.415 Y10.178
X25.058 Y10.149
X25.701 Y10.147
X26.345 Y10.173
X26.986 Y10.225
X27.626 Y10.304
X28.262 Y10.41
X28.893 Y10.543
X29.518 Y10.703
X30.136 Y10.888
X30.746 Y11.1
X31.347 Y11.337
X31.938 Y11.599
X32.517 Y11.886
X33.085 Y12.197
X33.638 Y12.531
X34.178 Y12.889
X34.702 Y13.27
X35.21 Y13.672
X35.701 Y14.096
X36.174 Y14.539
X36.628 Y15.003
X37.062 Y15.485
X37.475 Y15.985
X37.867 Y16.502
X38.238 Y17.036
X38.584 Y17.584
X38.593 Y17.599
X38.601 Y17.612
X38.937 Y18.269
X39.176 Y18.703
X39.414 Y19.181
X39.5 Y19.376
X39.507 Y19.394
G3 X38.925 Y19.643 I-0.299 J0.106
G1 X38.049 Y17.925
G3 X38.601 Y17.612 I0.283 J-0.144
G1 X38.987 Y18.282
X39.258 Y18.784
X39.334 Y18.952
X39.925 Y20.459
X39.985 Y20.627
X40.145 Y21.129
X40.528 Y22.804
X40.557 Y22.987
X40.604 Y23.306
X40.625 Y23.474
X40.738 Y24.981
X40.747 Y25.149
Y25.651
X40.738 Y25.819
X40.625 Y27.326
X40.604 Y27.494
X40.555 Y27.828
X40.528 Y27.996
X40.145 Y29.671
X39.985 Y30.173
X39.925 Y30.341
X39.334 Y31.848
X39.258 Y32.016
X38.987 Y32.518
X38.311 Y33.69
X38.212 Y33.858
X37.986 Y34.193
X37.877 Y34.335
X36.872 Y35.595
X36.784 Y35.7
X36.637 Y35.868
X36.538 Y35.973
X35.365 Y37.061
X34.995 Y37.375
X34.797 Y37.542
X33.188 Y38.64
X33.072 Y38.715
X32.685 Y38.902
X31.513 Y39.467
X31.346 Y39.545
X30.843 Y39.756
X30.676 Y39.811
X29.168 Y40.276
X29.001 Y40.319
X28.666 Y40.396
X28.498 Y40.432
X26.824 Y40.684
X26.271 Y40.725
X26.154 Y40.726
X24.646
X24.529 Y40.725
X23.976 Y40.684
X22.302 Y40.432
X22.105 Y40.39
X21.799 Y40.319
X21.632 Y40.276
X20.124 Y39.811
X19.957 Y39.756
X19.454 Y39.545
X19.287 Y39.467
X17.947 Y38.822
X17.728 Y38.715
X17.612 Y38.64
X16.003 Y37.542
X15.602 Y37.204
X15.435 Y37.061
X14.262 Y35.973
X14.163 Y35.868
X14.016 Y35.7
X13.928 Y35.595
X12.923 Y34.335
X12.814 Y34.193
X12.587 Y33.858
X12.42 Y33.571
X11.813 Y32.518
X11.542 Y32.016
X11.466 Y31.848
X10.875 Y30.341
X10.815 Y30.173
X10.655 Y29.671
X10.272 Y27.996
X10.243 Y27.813
X10.196 Y27.494
X10.175 Y27.326
X10.062 Y25.819
X10.053 Y25.651
Y25.149
X10.062 Y24.981
X10.175 Y23.474
X10.196 Y23.306
X10.245 Y22.972
X10.272 Y22.804
X10.655 Y21.129
X10.815 Y20.627
X10.875 Y20.459
X11.466 Y18.952
X11.542 Y18.784
X11.813 Y18.282
X12.489 Y17.11
X12.588 Y16.942
X12.814 Y16.607
X12.923 Y16.465
X13.928 Y15.205
X14.016 Y15.1
X14.163 Y14.932
X14.262 Y14.827
X15.435 Y13.739
X15.805 Y13.425
X16.003 Y13.258
X17.612 Y12.16
X17.728 Y12.085
X18.115 Y11.898
X19.287 Y11.333
X19.454 Y11.255
X19.957 Y11.044
X20.124 Y10.989
X21.632 Y10.524
X21.799 Y10.481
X22.134 Y10.404
X22.302 Y10.368
X23.976 Y10.116
X24.529 Y10.075
X24.646 Y10.074
X26.154
X26.271 Y10.075
X26.824 Y10.116
X28.498 Y10.368
X28.695 Y10.41
X29.001 Y10.481
X29.168 Y10.524
X30.676 Y10.989
X30.843 Y11.044
X31.346 Y11.255
X31.513 Y11.333
X32.853 Y11.978
X33.072 Y12.085
X33.188 Y12.16
X34.797 Y13.258
X35.198 Y13.596
X35.365 Y13.739
X36.538 Y14.827
X36.637 Y14.932
X36.784 Y15.1
X36.872 Y15.205
X37.877 Y16.465
X37.986 Y16.607
X38.213 Y16.942
X38.38 Y17.229
X38.593 Y17.599
G3 X38.488 Y18.012 I-0.28 J0.149
G1 X38.437 Y18.03 Z-0.495
X38.387 Y18.048 Z-0.481
X38.341 Y18.064 Z-0.458
X38.313 Y18.065 Z-0.44
X38.269 Y18.056 Z-0.4
X38.233 Y18.049 Z-0.353
X38.207 Y18.043 Z-0.3
X38.191 Y18.04 Z-0.242
X38.185 Y18.039 Z-0.183
G0 Z3.003
X26.78 Y24.792
Z2
G3 X24.02 Y26.009 Z1.835 I-1.38 J0.608 F150
X26.78 Y24.792 Z1.669 I1.38 J-0.608
X24.02 Y26.009 Z1.504 I-1.38 J0.608
X26.78 Y24.792 Z1.338 I1.38 J-0.608
X24.02 Y26.009 Z1.173 I-1.38 J0.608
X26.78 Y24.792 Z1.007 I1.38 J-0.608
X24.02 Y26.009 Z0.842 I-1.38 J0.608
X26.78 Y24.792 Z0.676 I1.38 J-0.608
X24.02 Y26.009 Z0.511 I-1.38 J0.608
X26.78 Y24.792 Z0.345 I1.38 J-0.608
X24.02 Y26.009 Z0.18 I-1.38 J0.608
X26.78 Y24.792 Z0.015 I1.38 J-0.608
X24.02 Y26.009 Z-0.151 I-1.38 J0.608
X26.78 Y24.792 Z-0.316 I1.38 J-0.608
X24.02 Y26.009 Z-0.482 I-1.38 J0.608
X26.78 Y24.792 Z-0.647 I1.38 J-0.608
X24.02 Y26.009 Z-0.813 I-1.38 J0.608
X26.78 Y24.792 Z-0.978 I1.38 J-0.608
X26.908 Y25.4 Z-1 I-1.38 J0.608
X23.892 Y25.4 I-1.508 J0
X26.908 Y25.4 I1.508 J0
G1 X26.922 Y25.921 F500
X26.919 Y26.071
X26.887 Y26.218
X26.833 Y26.358
X26.761 Y26.489
X26.675 Y26.612
X26.575 Y26.724
X26.465 Y26.826
X26.346 Y26.916
X26.218 Y26.995
X26.084 Y27.062
X25.944 Y27.117
X25.8 Y27.159
X25.653 Y27.188
X25.504 Y27.205
X25.354 Y27.209
X25.204 Y27.2
X25.056 Y27.178
X24.91 Y27.145
X24.767 Y27.099
X24.628 Y27.041
X24.495 Y26.972
X24.368 Y26.892
X24.248 Y26.802
X24.136 Y26.702
X24.033 Y26.593
X23.939 Y26.476
X23.855 Y26.352
X23.782 Y26.221
X23.72 Y26.085
X23.669 Y25.944
X23.63 Y25.799
X23.603 Y25.651
X23.588 Y25.502
X23.586 Y25.352
X23.596 Y25.202
X23.619 Y25.054
X23.653 Y24.908
X23.7 Y24.765
X23.758 Y24.627
X23.828 Y24.494
X23.908 Y24.367
X23.998 Y24.248
X24.098 Y24.136
X24.207 Y24.033
X24.324 Y23.939
X24.449 Y23.855
X24.579 Y23.782
X24.716 Y23.72
X24.857 Y23.669
X25.002 Y23.63
X25.15 Y23.603
X25.299 Y23.589
X25.449 Y23.586
X25.599 Y23.597
X25.747 Y23.619
X25.893 Y23.654
X26.035 Y23.701
X26.173 Y23.759
X26.306 Y23.828
X26.433 Y23.909
X26.553 Y23.999
X26.665 Y24.099
X26.768 Y24.208
X26.862 Y24.325
X26.945 Y24.449
X27.019 Y24.58
X27.081 Y24.717
X27.132 Y24.858
X27.174 Y25.002
X27.211 Y25.148
X27.241 Y25.295
X27.264 Y25.443
X27.277 Y25.593
X27.281 Y25.743
X27.273 Y25.892
X27.252 Y26.041
X27.218 Y26.187
X27.172 Y26.33
X27.114 Y26.468
X27.044 Y26.601
X26.963 Y26.727
X26.871 Y26.845
X26.77 Y26.956
X26.66 Y27.058
X26.542 Y27.151
X26.418 Y27.235
X26.287 Y27.308
X26.151 Y27.371
X26.01 Y27.424
X25.866 Y27.465
X25.719 Y27.496
X25.571 Y27.517
X25.421 Y27.526
X25.271 Y27.524
X25.122 Y27.512
X24.973 Y27.488
X24.827 Y27.454
X24.684 Y27.409
X24.544 Y27.355
X24.409 Y27.291
X24.278 Y27.217
X24.153 Y27.134
X24.034 Y27.043
X23.922 Y26.943
X23.817 Y26.836
X23.72 Y26.722
X23.631 Y26.601
X23.551 Y26.474
X23.48 Y26.342
X23.419 Y26.205
X23.368 Y26.064
X23.326 Y25.92
X23.294 Y25.773
X23.273 Y25.625
X23.263 Y25.475
Y25.325
X23.273 Y25.175
X23.294 Y25.027
X23.326 Y24.88
X23.367 Y24.736
X23.419 Y24.595
X23.48 Y24.458
X23.551 Y24.326
X23.631 Y24.199
X23.719 Y24.078
X23.816 Y23.963
X23.921 Y23.856
X24.032 Y23.756
X24.151 Y23.664
X24.276 Y23.581
X24.406 Y23.507
X24.541 Y23.442
X24.681 Y23.386
X24.824 Y23.341
X24.97 Y23.305
X25.117 Y23.281
X25.267 Y23.266
X25.417 Y23.262
X25.567 Y23.268
X25.716 Y23.285
X25.863 Y23.312
X26.008 Y23.35
X26.15 Y23.398
X26.289 Y23.456
X26.423 Y23.523
X26.552 Y23.599
X26.676 Y23.684
X26.793 Y23.778
X26.903 Y23.879
X27.006 Y23.989
X27.101 Y24.105
X27.188 Y24.227
X27.267 Y24.355
X27.338 Y24.487
X27.401 Y24.623
X27.458 Y24.762
X27.506 Y24.903
X27.547 Y25.048
X27.58 Y25.194
X27.604 Y25.342
X27.619 Y25.492
X27.625 Y25.641
X27.62 Y25.791
X27.606 Y25.941
X27.582 Y26.089
X27.548 Y26.235
X27.504 Y26.378
X27.45 Y26.518
X27.386 Y26.654
X27.312 Y26.785
X27.23 Y26.91
X27.14 Y27.03
X27.041 Y27.143
X26.935 Y27.249
X26.822 Y27.348
X26.703 Y27.438
X26.577 Y27.521
X26.447 Y27.595
X26.312 Y27.66
X26.173 Y27.716
X26.031 Y27.764
X25.885 Y27.802
X25.738 Y27.831
X25.589 Y27.85
X25.44 Y27.859
X25.29
X25.14 Y27.85
X24.991 Y27.832
X24.844 Y27.804
X24.698 Y27.767
X24.555 Y27.722
X24.416 Y27.667
X24.28 Y27.604
X24.148 Y27.533
X24.02 Y27.453
X23.898 Y27.367
X23.781 Y27.273
X23.67 Y27.171
X23.566 Y27.064
X23.468 Y26.95
X23.378 Y26.83
X23.295 Y26.705
X23.22 Y26.576
X23.152 Y26.442
X23.093 Y26.304
X23.042 Y26.163
X23 Y26.018
X22.967 Y25.872
X22.943 Y25.724
X22.928 Y25.575
X22.922 Y25.425
X22.925 Y25.275
X22.937 Y25.126
X22.958 Y24.977
X22.988 Y24.83
X23.027 Y24.685
X23.075 Y24.543
X23.131 Y24.404
X23.195 Y24.268
X23.267 Y24.137
X23.348 Y24.01
X23.436 Y23.889
X23.531 Y23.773
X23.633 Y23.663
X23.741 Y23.559
X23.855 Y23.462
X23.975 Y23.372
X24.101 Y23.289
X24.231 Y23.215
X24.365 Y23.148
X24.503 Y23.09
X24.645 Y23.04
X24.789 Y22.998
X24.935 Y22.966
X25.083 Y22.942
X25.233 Y22.927
X25.383 Y22.922
X25.533 Y22.925
X25.682 Y22.938
X25.83 Y22.96
X25.977 Y22.99
X26.122 Y23.029
X26.264 Y23.077
X26.403 Y23.134
X26.538 Y23.199
X26.669 Y23.272
X26.796 Y23.352
X26.917 Y23.441
X27.033 Y23.536
X27.143 Y23.638
X27.247 Y23.746
X27.344 Y23.86
X27.435 Y23.98
X27.52 Y24.103
X27.598 Y24.232
X27.669 Y24.364
X27.733 Y24.499
X27.79 Y24.638
X27.84 Y24.779
X27.883 Y24.923
X27.918 Y25.069
X27.944 Y25.217
X27.963 Y25.365
X27.974 Y25.515
X27.976 Y25.665
X27.97 Y25.815
X27.955 Y25.964
X27.931 Y26.112
X27.899 Y26.259
X27.858 Y26.403
X27.809 Y26.545
X27.752 Y26.684
X27.687 Y26.819
X27.613 Y26.949
X27.532 Y27.076
X27.444 Y27.197
X27.349 Y27.313
X27.247 Y27.423
X27.139 Y27.527
X27.025 Y27.625
X26.906 Y27.716
X26.781 Y27.799
X26.652 Y27.876
X26.519 Y27.944
X26.382 Y28.006
X26.242 Y28.059
X26.099 Y28.105
X25.954 Y28.142
X25.807 Y28.171
X25.658 Y28.192
X25.509 Y28.205
X25.359 Y28.209
X25.209 Y28.205
X25.059 Y28.193
X24.911 Y28.173
X24.763 Y28.145
X24.618 Y28.109
X24.474 Y28.065
X24.334 Y28.013
X24.196 Y27.953
X24.061 Y27.887
X23.931 Y27.813
X23.804 Y27.732
X23.682 Y27.645
X23.565 Y27.551
X23.453 Y27.452
X23.347 Y27.346
X23.246 Y27.234
X23.152 Y27.118
X23.064 Y26.997
X22.982 Y26.871
X22.907 Y26.741
X22.839 Y26.607
X22.779 Y26.47
X22.726 Y26.329
X22.68 Y26.187
X22.642 Y26.041
X22.612 Y25.894
X22.59 Y25.746
X22.575 Y25.597
X22.568 Y25.447
X22.57 Y25.297
X22.579 Y25.147
X22.597 Y24.998
X22.622 Y24.85
X22.655 Y24.704
X22.695 Y24.56
X22.744 Y24.418
X22.799 Y24.278
X22.862 Y24.142
X22.932 Y24.01
X23.01 Y23.881
X23.093 Y23.757
X23.184 Y23.637
X23.28 Y23.522
X23.382 Y23.412
X23.49 Y23.308
X23.604 Y23.21
X23.722 Y23.118
X23.846 Y23.033
X23.973 Y22.954
X24.105 Y22.882
X24.24 Y22.816
X24.378 Y22.759
X24.519 Y22.708
X24.663 Y22.665
X24.809 Y22.63
X24.957 Y22.603
X25.105 Y22.583
X25.255 Y22.572
X25.405 Y22.568
X25.555 Y22.572
X25.704 Y22.584
X25.853 Y22.604
X26 Y22.632
X26.146 Y22.668
X26.289 Y22.711
X26.431 Y22.762
X26.569 Y22.82
X26.704 Y22.886
X26.835 Y22.958
X26.963 Y23.038
X27.086 Y23.123
X27.204 Y23.216
X27.317 Y23.314
X27.426 Y23.417
X27.529 Y23.526
X27.627 Y23.64
X27.719 Y23.758
X27.806 Y23.88
X27.886 Y24.007
X27.961 Y24.137
X28.029 Y24.271
X28.091 Y24.407
X28.146 Y24.547
X28.195 Y24.689
X28.236 Y24.833
X28.271 Y24.979
X28.299 Y25.126
X28.32 Y25.275
X28.333 Y25.424
X28.338 Y25.574
X28.336 Y25.724
X28.327 Y25.874
X28.311 Y26.023
X28.286 Y26.171
X28.255 Y26.318
X28.216 Y26.462
X28.169 Y26.605
X28.115 Y26.745
X28.054 Y26.882
X27.986 Y27.016
X27.912 Y27.146
X27.831 Y27.272
X27.743 Y27.394
X27.65 Y27.511
X27.55 Y27.623
X27.445 Y27.73
X27.334 Y27.832
X27.219 Y27.927
X27.099 Y28.017
X26.974 Y28.101
X26.845 Y28.178
X26.713 Y28.249
X26.577 Y28.313
X26.439 Y28.37
X26.297 Y28.42
X26.154 Y28.463
X26.008 Y28.499
X25.861 Y28.527
X25.712 Y28.549
X25.563 Y28.563
X25.413 Y28.57
X25.263
X25.113 Y28.562
X24.964 Y28.547
X24.816 Y28.525
X24.669 Y28.495
X24.523 Y28.459
X24.38 Y28.416
X24.238 Y28.366
X24.099 Y28.309
X23.963 Y28.246
X23.831 Y28.176
X23.701 Y28.1
X23.576 Y28.017
X23.454 Y27.929
X23.337 Y27.836
X23.225 Y27.737
X23.117 Y27.632
X23.014 Y27.523
X22.917 Y27.409
X22.825 Y27.29
X22.739 Y27.168
X22.658 Y27.041
X22.584 Y26.911
X22.516 Y26.777
X22.454 Y26.64
X22.399 Y26.501
X22.35 Y26.359
X22.309 Y26.215
X22.274 Y26.069
X22.246 Y25.922
X22.225 Y25.773
X22.21 Y25.624
X22.203 Y25.474
Y25.324
X22.21 Y25.174
X22.224 Y25.025
X22.245 Y24.876
X22.273 Y24.729
X22.308 Y24.583
X22.35 Y24.439
X22.398 Y24.297
X22.453 Y24.157
X22.515 Y24.02
X22.583 Y23.887
X22.657 Y23.756
X22.737 Y23.629
X22.823 Y23.507
X22.914 Y23.388
X23.011 Y23.273
X23.114 Y23.164
X23.221 Y23.059
X23.333 Y22.959
X23.45 Y22.865
X23.571 Y22.776
X23.696 Y22.694
X23.825 Y22.617
X23.957 Y22.546
X24.092 Y22.481
X24.231 Y22.423
X24.372 Y22.372
X24.515 Y22.327
X24.66 Y22.289
X24.806 Y22.257
X24.955 Y22.233
X25.103 Y22.216
X25.253 Y22.205
X25.403 Y22.202
X25.553 Y22.206
X25.703 Y22.216
X25.852 Y22.234
X26 Y22.259
X26.146 Y22.29
X26.291 Y22.329
X26.434 Y22.374
X26.575 Y22.426
X26.713 Y22.484
X26.849 Y22.548
X26.981 Y22.619
X27.11 Y22.696
X27.235 Y22.779
X27.356 Y22.867
X27.473 Y22.961
X27.586 Y23.06
X27.695 Y23.163
X27.798 Y23.272
X27.897 Y23.384
X27.991 Y23.501
X28.08 Y23.622
X28.164 Y23.747
X28.242 Y23.875
X28.314 Y24.006
X28.381 Y24.14
X28.442 Y24.277
X28.497 Y24.417
X28.546 Y24.559
X28.589 Y24.702
X28.625 Y24.848
X28.656 Y24.995
X28.679 Y25.143
X28.696 Y25.292
X28.707 Y25.442
X28.711 Y25.592
X28.708 Y25.741
X28.699 Y25.891
X28.683 Y26.04
X28.66 Y26.189
X28.631 Y26.336
X28.595 Y26.481
X28.553 Y26.625
X28.504 Y26.767
X28.448 Y26.906
X28.387 Y27.043
X28.319 Y27.177
X28.246 Y27.308
X28.166 Y27.435
X28.081 Y27.558
X27.99 Y27.678
X27.894 Y27.793
X27.793 Y27.904
X27.687 Y28.01
X27.576 Y28.111
X27.461 Y28.207
X27.341 Y28.298
X27.218 Y28.383
X27.091 Y28.463
X26.961 Y28.537
X26.827 Y28.605
X26.691 Y28.667
X26.551 Y28.723
X26.41 Y28.773
X26.266 Y28.817
X26.121 Y28.854
X25.974 Y28.885
X25.826 Y28.909
X25.677 Y28.927
X25.528 Y28.938
X25.378 Y28.943
X25.228 Y28.941
X25.078 Y28.933
X24.929 Y28.918
X24.78 Y28.897
X24.633 Y28.87
X24.487 Y28.836
X24.342 Y28.796
X24.199 Y28.75
X24.059 Y28.697
X23.921 Y28.639
X23.785 Y28.575
X23.652 Y28.505
X23.523 Y28.429
X23.396 Y28.349
X23.274 Y28.263
X23.155 Y28.171
X23.04 Y28.075
X22.929 Y27.974
X22.822 Y27.868
X22.721 Y27.758
X22.624 Y27.643
X22.531 Y27.525
X22.444 Y27.402
X22.362 Y27.276
X22.285 Y27.147
X22.214 Y27.015
X22.149 Y26.88
X22.09 Y26.743
X22.036 Y26.602
X21.988 Y26.46
X21.946 Y26.315
X21.911 Y26.168
X21.881 Y26.02
X21.858 Y25.872
X21.841 Y25.723
X21.83 Y25.573
X21.826 Y25.424
X21.828 Y25.274
X21.837 Y25.124
X21.852 Y24.973
X21.873 Y24.824
X21.9 Y24.675
X21.934 Y24.528
X21.973 Y24.383
X22.019 Y24.24
X22.07 Y24.1
X22.128 Y23.961
X22.191 Y23.825
X22.26 Y23.691
X22.335 Y23.56
X22.416 Y23.432
X22.502 Y23.307
X22.593 Y23.187
X22.688 Y23.071
X22.788 Y22.96
X22.893 Y22.852
X23.002 Y22.749
X23.115 Y22.651
X23.233 Y22.557
X23.355 Y22.468
X23.481 Y22.384
X23.611 Y22.305
X23.742 Y22.233
X23.877 Y22.166
X24.014 Y22.105
X24.153 Y22.05
X24.295 Y22
X24.439 Y21.957
X24.585 Y21.92
X24.733 Y21.888
X24.882 Y21.863
X25.032 Y21.844
X25.182 Y21.832
X25.332 Y21.826
X25.482
X25.632 Y21.833
X25.781 Y21.846
X25.931 Y21.865
X26.08 Y21.891
X26.228 Y21.923
X26.375 Y21.961
X26.521 Y22.005
X26.664 Y22.056
X26.804 Y22.112
X26.942 Y22.174
X27.079 Y22.242
X27.213 Y22.317
X27.345 Y22.398
X27.475 Y22.485
X27.601 Y22.577
X27.725 Y22.676
X27.844 Y22.78
X27.959 Y22.889
X28.07 Y23.004
X28.177 Y23.123
X28.278 Y23.247
X28.375 Y23.376
X28.466 Y23.509
X28.552 Y23.646
X28.632 Y23.787
X28.706 Y23.931
X28.774 Y24.077
X28.836 Y24.226
X28.891 Y24.377
X28.939 Y24.53
X28.981 Y24.684
X29.017 Y24.84
X29.046 Y24.996
X29.068 Y25.154
X29.083 Y25.312
X29.092 Y25.47
X29.094 Y25.627
X29.09 Y25.785
X29.078 Y25.942
X29.061 Y26.098
X29.037 Y26.253
X29.006 Y26.407
X28.969 Y26.56
X28.925 Y26.71
X28.876 Y26.859
X28.82 Y27.004
X28.759 Y27.147
X28.692 Y27.286
X28.619 Y27.422
X28.541 Y27.555
X28.456 Y27.685
X28.366 Y27.812
X28.271 Y27.936
X28.17 Y28.055
X28.064 Y28.17
X27.953 Y28.281
X27.838 Y28.387
X27.718 Y28.488
X27.594 Y28.585
X27.466 Y28.676
X27.334 Y28.761
X27.198 Y28.842
X27.059 Y28.916
X26.917 Y28.985
X26.772 Y29.047
X26.624 Y29.104
X26.474 Y29.154
X26.322 Y29.198
X26.167 Y29.236
X26.011 Y29.267
X25.852 Y29.292
X25.693 Y29.31
X25.532 Y29.322
X25.37 Y29.326
X25.209 Y29.324
X25.047 Y29.316
X24.886 Y29.3
X24.726 Y29.278
X24.566 Y29.248
X24.408 Y29.213
X24.251 Y29.17
X24.095 Y29.121
X23.941 Y29.065
X23.79 Y29.002
X23.641 Y28.933
X23.496 Y28.858
X23.353 Y28.778
X23.214 Y28.691
X23.079 Y28.598
X22.948 Y28.499
X22.82 Y28.395
X22.697 Y28.286
X22.578 Y28.171
X22.464 Y28.051
X22.356 Y27.926
X22.253 Y27.798
X22.155 Y27.665
X22.063 Y27.528
X21.977 Y27.387
X21.896 Y27.242
X21.822 Y27.094
X21.754 Y26.943
X21.692 Y26.789
X21.637 Y26.632
X21.588 Y26.474
X21.546 Y26.313
X21.511 Y26.152
X21.483 Y25.988
X21.462 Y25.824
X21.447 Y25.658
X21.44 Y25.492
X21.439 Y25.326
X21.446 Y25.159
X21.459 Y24.993
X21.48 Y24.829
X21.507 Y24.665
X21.541 Y24.503
X21.582 Y24.342
X21.629 Y24.182
X21.684 Y24.025
X21.745 Y23.87
X21.813 Y23.718
X21.886 Y23.568
X21.966 Y23.422
X22.052 Y23.28
X22.144 Y23.141
X22.242 Y23.007
X22.345 Y22.877
X22.453 Y22.751
X22.567 Y22.629
X22.686 Y22.512
X22.81 Y22.401
X22.939 Y22.294
X23.071 Y22.194
X23.208 Y22.099
X23.348 Y22.01
X23.492 Y21.927
X23.64 Y21.85
X23.79 Y21.779
X23.944 Y21.714
X24.101 Y21.656
X24.259 Y21.605
X24.42 Y21.56
X24.582 Y21.523
X24.746 Y21.492
X24.91 Y21.468
X25.075 Y21.451
X25.241 Y21.44
X25.408 Y21.437
X25.575 Y21.441
X25.742 Y21.452
X25.908 Y21.47
X26.074 Y21.495
X26.238 Y21.527
X26.401 Y21.565
X26.563 Y21.611
X26.723 Y21.664
X26.881 Y21.723
X27.037 Y21.789
X27.19 Y21.862
X27.341 Y21.942
X27.49 Y22.028
X27.635 Y22.121
X27.776 Y22.22
X27.914 Y22.326
X28.048 Y22.437
X28.177 Y22.555
X28.302 Y22.678
X28.421 Y22.807
X28.536 Y22.941
X28.645 Y23.08
X28.748 Y23.224
X28.845 Y23.372
X28.936 Y23.524
X29.021 Y23.679
X29.099 Y23.838
X29.169 Y24
X29.233 Y24.165
X29.29 Y24.332
X29.34 Y24.501
X29.383 Y24.671
X29.418 Y24.843
X29.446 Y25.016
X29.467 Y25.19
X29.481 Y25.364
X29.487 Y25.539
X29.485 Y25.713
X29.477 Y25.887
X29.461 Y26.061
X29.438 Y26.233
X29.407 Y26.404
X29.37 Y26.573
X29.326 Y26.74
X29.275 Y26.905
X29.217 Y27.067
X29.152 Y27.226
X29.08 Y27.383
X29.003 Y27.536
X28.918 Y27.686
X28.828 Y27.833
X28.731 Y27.976
X28.628 Y28.115
X28.52 Y28.249
X28.405 Y28.379
X28.286 Y28.504
X28.161 Y28.623
X28.031 Y28.738
X27.896 Y28.847
X27.757 Y28.951
X27.613 Y29.049
X27.465 Y29.14
X27.313 Y29.226
X27.158 Y29.305
X26.999 Y29.377
X26.837 Y29.443
X26.672 Y29.502
X26.505 Y29.555
X26.335 Y29.6
X26.163 Y29.638
X25.989 Y29.669
X25.813 Y29.693
X25.637 Y29.71
X25.46 Y29.718
X25.282 Y29.72
X25.104 Y29.714
X24.927 Y29.701
X24.749 Y29.68
X24.573 Y29.651
X24.397 Y29.615
X24.223 Y29.572
X24.051 Y29.521
X23.881 Y29.464
X23.713 Y29.399
X23.548 Y29.327
X23.386 Y29.248
X23.228 Y29.162
X23.073 Y29.069
X22.921 Y28.97
X22.774 Y28.865
X22.632 Y28.753
X22.494 Y28.636
X22.361 Y28.512
X22.233 Y28.383
X22.111 Y28.249
X21.994 Y28.11
X21.884 Y27.966
X21.779 Y27.817
X21.681 Y27.664
X21.589 Y27.507
X21.504 Y27.346
X21.425 Y27.181
X21.354 Y27.013
X21.29 Y26.843
X21.233 Y26.67
X21.183 Y26.494
X21.14 Y26.317
X21.106 Y26.138
X21.078 Y25.957
X21.058 Y25.775
X21.046 Y25.593
X21.042 Y25.41
X21.045 Y25.227
X21.056 Y25.045
X21.075 Y24.863
X21.101 Y24.682
X21.135 Y24.503
X21.176 Y24.324
X21.225 Y24.148
X21.281 Y23.974
X21.344 Y23.802
X21.415 Y23.633
X21.493 Y23.467
X21.577 Y23.305
X21.668 Y23.146
X21.766 Y22.992
X21.87 Y22.841
X21.981 Y22.695
X22.098 Y22.554
X22.22 Y22.418
X22.348 Y22.287
X22.482 Y22.161
X22.62 Y22.042
X22.764 Y21.928
X22.912 Y21.82
X23.064 Y21.719
X23.221 Y21.624
X23.382 Y21.536
X23.546 Y21.454
X23.713 Y21.38
X23.884 Y21.313
X24.057 Y21.252
X24.232 Y21.2
X24.409 Y21.154
X24.589 Y21.116
X24.769 Y21.086
X24.951 Y21.063
X25.134 Y21.048
X25.317 Y21.041
X25.501
X25.685 Y21.049
X25.868 Y21.065
X26.051 Y21.089
X26.232 Y21.12
X26.413 Y21.159
X26.592 Y21.205
X26.77 Y21.26
X26.945 Y21.321
X27.118 Y21.39
X27.289 Y21.467
X27.457 Y21.551
X27.622 Y21.643
X27.783 Y21.741
X27.94 Y21.846
X28.094 Y21.959
X28.243 Y22.078
X28.387 Y22.203
X28.526 Y22.335
X28.66 Y22.473
X28.788 Y22.617
X28.91 Y22.766
X29.026 Y22.92
X29.135 Y23.079
X29.238 Y23.243
X29.333 Y23.41
X29.422 Y23.582
X29.503 Y23.757
X29.577 Y23.936
X29.643 Y24.117
X29.701 Y24.3
X29.752 Y24.486
X29.795 Y24.674
X29.829 Y24.862
X29.856 Y25.052
X29.875 Y25.243
X29.886 Y25.435
X29.888 Y25.626
X29.883 Y25.817
X29.87 Y26.007
X29.848 Y26.197
X29.819 Y26.385
X29.782 Y26.571
X29.737 Y26.756
X29.685 Y26.938
X29.625 Y27.118
X29.557 Y27.295
X29.482 Y27.469
X29.4 Y27.639
X29.311 Y27.807
X29.215 Y27.97
X29.112 Y28.129
X29.002 Y28.284
X28.886 Y28.434
X28.764 Y28.579
X28.635 Y28.719
X28.501 Y28.853
X28.361 Y28.982
X28.216 Y29.105
X28.065 Y29.222
X27.91 Y29.332
X27.75 Y29.436
X27.585 Y29.534
X27.417 Y29.624
X27.244 Y29.707
X27.068 Y29.783
X26.888 Y29.852
X26.706 Y29.913
X26.521 Y29.967
X26.333 Y30.013
X26.144 Y30.051
X25.952 Y30.081
X25.76 Y30.103
X25.566 Y30.117
X25.372 Y30.123
X25.177 Y30.12
X24.982 Y30.11
X24.788 Y30.091
X24.594 Y30.064
X24.402 Y30.029
X24.211 Y29.985
X24.021 Y29.934
X23.834 Y29.875
X23.649 Y29.808
X23.467 Y29.733
X23.288 Y29.65
X23.113 Y29.56
X22.941 Y29.463
X22.774 Y29.358
X22.611 Y29.246
X22.452 Y29.128
X22.299 Y29.002
X22.151 Y28.871
X22.008 Y28.733
X21.872 Y28.589
X21.741 Y28.439
X21.617 Y28.284
X21.499 Y28.124
X21.388 Y27.959
X21.284 Y27.79
X21.187 Y27.616
X21.098 Y27.438
X21.016 Y27.256
X20.942 Y27.071
X20.875 Y26.883
X20.817 Y26.693
X20.766 Y26.5
X20.724 Y26.305
X20.69 Y26.108
X20.664 Y25.91
X20.647 Y25.711
X20.638 Y25.512
X20.637 Y25.312
X20.645 Y25.112
X20.661 Y24.913
X20.685 Y24.715
X20.718 Y24.518
X20.759 Y24.322
X20.808 Y24.128
X20.866 Y23.936
X20.931 Y23.747
X21.004 Y23.561
X21.085 Y23.378
X21.174 Y23.199
X21.27 Y23.023
X21.373 Y22.852
X21.484 Y22.685
X21.601 Y22.523
X21.725 Y22.366
X21.856 Y22.214
X21.993 Y22.068
X22.136 Y21.928
X22.284 Y21.794
X22.438 Y21.667
X22.598 Y21.545
X22.762 Y21.431
X22.931 Y21.324
X23.105 Y21.224
X23.282 Y21.131
X23.463 Y21.046
X23.648 Y20.968
X23.836 Y20.899
X24.026 Y20.837
X24.219 Y20.783
X24.414 Y20.738
X24.611 Y20.7
X24.81 Y20.671
X25.009 Y20.65
X25.209 Y20.638
X25.41 Y20.634
X25.611 Y20.639
X25.812 Y20.652
X26.012 Y20.673
X26.212 Y20.703
X26.41 Y20.742
X26.607 Y20.788
X26.803 Y20.843
X26.996 Y20.907
X27.187 Y20.978
X27.375 Y21.058
X27.56 Y21.146
X27.742 Y21.242
X27.92 Y21.345
X28.094 Y21.457
X28.263 Y21.575
X28.428 Y21.702
X28.588 Y21.835
X28.742 Y21.975
X28.891 Y22.121
X29.033 Y22.274
X29.169 Y22.433
X29.298 Y22.598
X29.421 Y22.768
X29.536 Y22.944
X29.644 Y23.124
X29.744 Y23.308
X29.836 Y23.496
X29.92 Y23.689
X29.996 Y23.884
X30.064 Y24.082
X30.123 Y24.283
X30.174 Y24.486
X30.217 Y24.691
X30.25 Y24.898
X30.275 Y25.105
X30.291 Y25.313
X30.298 Y25.522
X30.297 Y25.73
X30.287 Y25.938
X30.268 Y26.145
X30.24 Y26.35
X30.204 Y26.555
X30.16 Y26.757
X30.106 Y26.957
X30.045 Y27.155
X29.975 Y27.35
X29.898 Y27.542
X29.812 Y27.73
X29.718 Y27.915
X29.617 Y28.095
X29.508 Y28.271
X29.392 Y28.443
X29.269 Y28.609
X29.139 Y28.77
X29.002 Y28.926
X28.858 Y29.076
X28.709 Y29.22
X28.553 Y29.357
X28.392 Y29.488
X28.225 Y29.612
X28.053 Y29.729
X27.876 Y29.839
X27.694 Y29.942
X27.508 Y30.036
X27.317 Y30.123
X27.124 Y30.202
X26.926 Y30.273
X26.726 Y30.336
X26.523 Y30.39
X26.317 Y30.436
X26.11 Y30.473
X25.901 Y30.501
X25.69 Y30.521
X25.479 Y30.532
X25.267 Y30.534
X25.055 Y30.527
X24.843 Y30.511
X24.632 Y30.486
X24.422 Y30.452
X24.213 Y30.41
X24.006 Y30.358
X23.801 Y30.298
X23.599 Y30.229
X23.4 Y30.152
X23.203 Y30.066
X23.01 Y29.973
X22.822 Y29.871
X22.637 Y29.761
X22.458 Y29.643
X22.283 Y29.518
X22.113 Y29.385
X21.949 Y29.246
X21.791 Y29.099
X21.639 Y28.946
X21.494 Y28.786
X21.355 Y28.621
X21.224 Y28.45
X21.1 Y28.273
X20.983 Y28.091
X20.874 Y27.904
X20.772 Y27.713
X20.679 Y27.518
X20.594 Y27.318
X20.518 Y27.116
X20.45 Y26.91
X20.39 Y26.701
X20.34 Y26.491
X20.298 Y26.278
X20.266 Y26.063
X20.242 Y25.847
X20.228 Y25.631
X20.223 Y25.414
X20.226 Y25.197
X20.239 Y24.98
X20.261 Y24.764
X20.292 Y24.549
X20.332 Y24.335
X20.381 Y24.123
X20.439 Y23.914
X20.506 Y23.707
X20.581 Y23.503
X20.665 Y23.303
X20.757 Y23.106
X20.857 Y22.913
X20.966 Y22.724
X21.082 Y22.54
X21.206 Y22.361
X21.337 Y22.188
X21.475 Y22.02
X21.621 Y21.858
X21.773 Y21.703
X21.931 Y21.554
X22.096 Y21.411
X22.266 Y21.276
X22.442 Y21.148
X22.624 Y21.027
X22.81 Y20.915
X23 Y20.81
X23.195 Y20.713
X23.394 Y20.625
X23.597 Y20.545
X23.802 Y20.473
X24.011 Y20.41
X24.222 Y20.356
X24.435 Y20.311
X24.65 Y20.275
X24.866 Y20.248
X25.084 Y20.23
X25.302 Y20.221
X25.52
X25.739 Y20.231
X25.957 Y20.25
X26.175 Y20.277
X26.391 Y20.315
X26.606 Y20.361
X26.82 Y20.416
X27.031 Y20.48
X27.24 Y20.554
X27.446 Y20.636
X27.649 Y20.727
X27.848 Y20.827
X28.043 Y20.935
X28.234 Y21.051
X28.42 Y21.176
X28.601 Y21.309
X28.777 Y21.449
X28.947 Y21.597
X29.111 Y21.752
X29.269 Y21.915
X29.42 Y22.083
X29.563 Y22.259
X29.699 Y22.44
X29.828 Y22.627
X29.949 Y22.819
X30.061 Y23.016
X30.165 Y23.218
X30.261 Y23.424
X30.348 Y23.634
X30.426 Y23.847
X30.495 Y24.063
X30.554 Y24.282
X30.605 Y24.503
X30.646 Y24.726
X30.678 Y24.95
X30.7 Y25.175
X30.712 Y25.4
X30.716 Y25.626
X30.709 Y25.852
X30.694 Y26.077
X30.669 Y26.301
X30.634 Y26.523
X30.59 Y26.744
X30.537 Y26.962
X30.475 Y27.178
X30.404 Y27.391
X30.324 Y27.601
X30.235 Y27.808
X30.138 Y28.01
X30.032 Y28.208
X29.918 Y28.402
X29.796 Y28.591
X29.667 Y28.774
X29.529 Y28.952
X29.384 Y29.124
X29.232 Y29.289
X29.073 Y29.449
X28.908 Y29.601
X28.736 Y29.747
X28.557 Y29.885
X28.374 Y30.016
X28.184 Y30.139
X27.989 Y30.255
X27.79 Y30.362
X27.586 Y30.46
X27.378 Y30.55
X27.166 Y30.632
X26.95 Y30.704
X26.731 Y30.768
X26.51 Y30.822
X26.286 Y30.867
X26.061 Y30.902
X25.833 Y30.928
X25.605 Y30.945
X25.376 Y30.952
X25.146 Y30.949
X24.917 Y30.937
X24.688 Y30.915
X24.46 Y30.883
X24.233 Y30.842
X24.008 Y30.791
X23.785 Y30.73
X23.565 Y30.661
X23.347 Y30.582
X23.133 Y30.494
X22.922 Y30.397
X22.716 Y30.291
X22.514 Y30.176
X22.317 Y30.053
X22.125 Y29.922
X21.939 Y29.782
X21.758 Y29.635
X21.584 Y29.48
X21.417 Y29.318
X21.256 Y29.149
X21.102 Y28.974
X20.956 Y28.791
X20.818 Y28.603
X20.687 Y28.409
X20.565 Y28.21
X20.451 Y28.006
X20.346 Y27.797
X20.25 Y27.583
X20.162 Y27.366
X20.084 Y27.145
X20.015 Y26.921
X19.956 Y26.694
X19.906 Y26.465
X19.866 Y26.234
X19.836 Y26.002
X19.815 Y25.768
X19.804 Y25.533
X19.803 Y25.299
X19.812 Y25.064
X19.831 Y24.83
X19.86 Y24.597
X19.898 Y24.365
X19.946 Y24.135
X20.004 Y23.907
X20.071 Y23.682
X20.148 Y23.46
X20.234 Y23.241
X20.329 Y23.026
X20.433 Y22.816
X20.546 Y22.609
X20.667 Y22.408
X20.797 Y22.212
X20.935 Y22.021
X21.081 Y21.837
X21.234 Y21.659
X21.395 Y21.487
X21.563 Y21.322
X21.737 Y21.164
X21.919 Y21.014
X22.106 Y20.872
X22.299 Y20.738
X22.497 Y20.611
X22.701 Y20.494
X22.91 Y20.385
X23.123 Y20.284
X23.34 Y20.193
X23.56 Y20.111
X23.784 Y20.039
X24.011 Y19.975
X24.24 Y19.922
X24.472 Y19.878
X24.705 Y19.843
X24.94 Y19.819
X25.176 Y19.804
X25.412 Y19.8
X25.648 Y19.805
X25.885 Y19.82
X26.12 Y19.845
X26.355 Y19.881
X26.589 Y19.926
X26.82 Y19.98
X27.05 Y20.045
X27.277 Y20.12
X27.501 Y20.204
X27.722 Y20.297
X27.939 Y20.4
X28.152 Y20.512
X28.361 Y20.633
X28.564 Y20.764
X28.763 Y20.902
X28.955 Y21.05
X29.142 Y21.205
X29.322 Y21.368
X29.495 Y21.539
X29.661 Y21.718
X29.82 Y21.903
X29.971 Y22.095
X30.113 Y22.293
X30.248 Y22.498
X30.373 Y22.707
X30.49 Y22.922
X30.598 Y23.142
X30.696 Y23.366
X30.785 Y23.594
X30.864 Y23.825
X30.933 Y24.059
X30.993 Y24.296
X31.042 Y24.536
X31.082 Y24.776
X31.111 Y25.019
X31.129 Y25.262
X31.138 Y25.505
X31.137 Y25.748
X31.125 Y25.991
X31.103 Y26.234
X31.071 Y26.474
X31.028 Y26.714
X30.976 Y26.951
X30.914 Y27.185
X30.842 Y27.417
X30.761 Y27.646
X30.67 Y27.87
X30.569 Y28.091
X30.46 Y28.307
X30.341 Y28.519
X30.214 Y28.725
X30.078 Y28.926
X29.933 Y29.121
X29.781 Y29.31
X29.621 Y29.492
X29.453 Y29.668
X29.278 Y29.836
X29.095 Y29.998
X28.906 Y30.151
X28.711 Y30.296
X28.51 Y30.433
X28.302 Y30.562
X28.09 Y30.682
X27.872 Y30.793
X27.65 Y30.895
X27.423 Y30.987
X27.192 Y31.07
X26.958 Y31.144
X26.721 Y31.207
X26.481 Y31.261
X26.239 Y31.304
X25.994 Y31.337
X25.749 Y31.36
X25.502 Y31.373
X25.255 Y31.375
X25.008 Y31.367
X24.761 Y31.349
X24.515 Y31.32
X24.27 Y31.281
X24.026 Y31.231
X23.785 Y31.171
X23.546 Y31.101
X23.31 Y31.021
X23.078 Y30.931
X22.849 Y30.832
X22.624 Y30.722
X22.404 Y30.604
X22.19 Y30.476
X21.98 Y30.339
X21.777 Y30.193
X21.579 Y30.039
X21.388 Y29.876
X21.204 Y29.706
X21.027 Y29.528
X20.858 Y29.342
X20.697 Y29.149
X20.544 Y28.95
X20.399 Y28.745
X20.263 Y28.533
X20.136 Y28.316
X20.018 Y28.093
X19.909 Y27.866
X19.81 Y27.634
X19.721 Y27.398
X19.642 Y27.159
X19.573 Y26.916
X19.514 Y26.671
X19.466 Y26.423
X19.428 Y26.174
X19.4 Y25.923
X19.383 Y25.671
X19.377 Y25.418
X19.381 Y25.166
X19.396 Y24.914
X19.422 Y24.662
X19.458 Y24.412
X19.504 Y24.163
X19.561 Y23.917
X19.628 Y23.673
X19.706 Y23.433
X19.793 Y23.195
X19.891 Y22.962
X19.998 Y22.733
X20.114 Y22.508
X20.24 Y22.289
X20.376 Y22.075
X20.52 Y21.867
X20.672 Y21.665
X20.833 Y21.47
X21.002 Y21.281
X21.179 Y21.1
X21.363 Y20.927
X21.555 Y20.761
X21.753 Y20.604
X21.958 Y20.455
X22.168 Y20.315
X22.385 Y20.183
X22.607 Y20.061
X22.833 Y19.948
X23.065 Y19.845
X23.3 Y19.752
X23.54 Y19.669
X23.782 Y19.596
X24.028 Y19.533
X24.276 Y19.48
X24.526 Y19.438
X24.778 Y19.406
