(NozzleDeepADOC_OP1)
(ADOC is 10mm with adaptive paths.)
(Machine)
(  vendor: Banggood)
(  model: 3018)
(  description: Generic 3-axis)
(T1  D=3.175 CR=0 - ZMIN=-18 - flat end mill)
(T3  D=2 CR=1 - ZMIN=-17.75 - ball end mill)
G90 G94
G17
G21

(Adaptive1)
T1 M6
S9000 M3
G54
G0 X25.639 Y26.888
Z5
Z3.01
Z2.5
G3 X25.16 Y23.91 Z2.335 I-0.24 J-1.489 F150
X25.639 Y26.888 Z2.169 I0.24 J1.489
X25.16 Y23.91 Z2.004 I-0.24 J-1.489
X25.639 Y26.888 Z1.838 I0.24 J1.489
X25.16 Y23.91 Z1.673 I-0.24 J-1.489
X25.639 Y26.888 Z1.507 I0.24 J1.489
X25.16 Y23.91 Z1.342 I-0.24 J-1.489
X25.639 Y26.888 Z1.176 I0.24 J1.489
X25.16 Y23.91 Z1.011 I-0.24 J-1.489
X25.639 Y26.888 Z0.845 I0.24 J1.489
X25.16 Y23.91 Z0.68 I-0.24 J-1.489
X25.639 Y26.888 Z0.515 I0.24 J1.489
X25.16 Y23.91 Z0.349 I-0.24 J-1.489
X25.639 Y26.888 Z0.184 I0.24 J1.489
X25.16 Y23.91 Z0.018 I-0.24 J-1.489
X25.639 Y26.888 Z-0.147 I0.24 J1.489
X25.16 Y23.91 Z-0.313 I-0.24 J-1.489
X25.639 Y26.888 Z-0.478 I0.24 J1.489
X25.16 Y23.91 Z-0.644 I-0.24 J-1.489
X25.639 Y26.888 Z-0.809 I0.24 J1.489
X25.16 Y23.91 Z-0.974 I-0.24 J-1.489
X25.639 Y26.888 Z-1.14 I0.24 J1.489
X25.16 Y23.91 Z-1.305 I-0.24 J-1.489
X25.639 Y26.888 Z-1.471 I0.24 J1.489
X25.16 Y23.91 Z-1.636 I-0.24 J-1.489
X25.639 Y26.888 Z-1.802 I0.24 J1.489
X25.16 Y23.91 Z-1.967 I-0.24 J-1.489
X25.639 Y26.888 Z-2.133 I0.24 J1.489
X25.16 Y23.91 Z-2.298 I-0.24 J-1.489
X25.639 Y26.888 Z-2.464 I0.24 J1.489
X25.16 Y23.91 Z-2.629 I-0.24 J-1.489
X25.639 Y26.888 Z-2.794 I0.24 J1.489
X25.16 Y23.91 Z-2.96 I-0.24 J-1.489
X25.639 Y26.888 Z-3.125 I0.24 J1.489
X25.16 Y23.91 Z-3.291 I-0.24 J-1.489
X25.639 Y26.888 Z-3.456 I0.24 J1.489
X25.16 Y23.91 Z-3.622 I-0.24 J-1.489
X25.639 Y26.888 Z-3.787 I0.24 J1.489
X25.16 Y23.91 Z-3.953 I-0.24 J-1.489
X25.639 Y26.888 Z-4.118 I0.24 J1.489
X25.16 Y23.91 Z-4.284 I-0.24 J-1.489
X25.639 Y26.888 Z-4.449 I0.24 J1.489
X25.16 Y23.91 Z-4.614 I-0.24 J-1.489
X25.639 Y26.888 Z-4.78 I0.24 J1.489
X25.16 Y23.91 Z-4.945 I-0.24 J-1.489
X25.639 Y26.888 Z-5.111 I0.24 J1.489
X25.16 Y23.91 Z-5.276 I-0.24 J-1.489
X25.639 Y26.888 Z-5.442 I0.24 J1.489
X25.16 Y23.91 Z-5.607 I-0.24 J-1.489
X25.639 Y26.888 Z-5.773 I0.24 J1.489
X25.16 Y23.91 Z-5.938 I-0.24 J-1.489
X25.639 Y26.888 Z-6.103 I0.24 J1.489
X25.16 Y23.91 Z-6.269 I-0.24 J-1.489
X25.639 Y26.888 Z-6.434 I0.24 J1.489
X25.16 Y23.91 Z-6.6 I-0.24 J-1.489
X25.639 Y26.888 Z-6.765 I0.24 J1.489
X25.16 Y23.91 Z-6.931 I-0.24 J-1.489
X25.639 Y26.888 Z-7.096 I0.24 J1.489
X25.16 Y23.91 Z-7.262 I-0.24 J-1.489
X25.639 Y26.888 Z-7.427 I0.24 J1.489
X25.16 Y23.91 Z-7.593 I-0.24 J-1.489
X25.639 Y26.888 Z-7.758 I0.24 J1.489
X25.16 Y23.91 Z-7.923 I-0.24 J-1.489
X25.639 Y26.888 Z-8.089 I0.24 J1.489
X25.16 Y23.91 Z-8.254 I-0.24 J-1.489
X25.639 Y26.888 Z-8.42 I0.24 J1.489
X25.16 Y23.91 Z-8.585 I-0.24 J-1.489
X25.639 Y26.888 Z-8.751 I0.24 J1.489
X25.16 Y23.91 Z-8.916 I-0.24 J-1.489
X25.639 Y26.888 Z-9.082 I0.24 J1.489
X25.16 Y23.91 Z-9.247 I-0.24 J-1.489
X25.639 Y26.888 Z-9.413 I0.24 J1.489
X25.16 Y23.91 Z-9.578 I-0.24 J-1.489
X25.639 Y26.888 Z-9.743 I0.24 J1.489
X25.16 Y23.91 Z-9.909 I-0.24 J-1.489
X26.908 Y25.399 Z-10 I0.24 J1.489
X23.891 Y25.399 I-1.508 J0
X26.908 Y25.399 I1.508 J0
G1 X26.921 Y25.92 F500
X26.919 Y26.07
X26.887 Y26.217
X26.833 Y26.357
X26.761 Y26.488
X26.674 Y26.611
X26.575 Y26.723
X26.465 Y26.825
X26.345 Y26.915
X26.218 Y26.994
X26.083 Y27.061
X25.944 Y27.116
X25.8 Y27.158
X25.653 Y27.187
X25.504 Y27.204
X25.354 Y27.208
X25.204 Y27.199
X25.055 Y27.177
X24.909 Y27.144
X24.767 Y27.098
X24.628 Y27.04
X24.495 Y26.971
X24.368 Y26.891
X24.248 Y26.801
X24.136 Y26.701
X24.033 Y26.592
X23.939 Y26.475
X23.855 Y26.351
X23.781 Y26.22
X23.719 Y26.084
X23.668 Y25.943
X23.629 Y25.798
X23.602 Y25.65
X23.588 Y25.501
X23.586 Y25.351
X23.596 Y25.201
X23.618 Y25.053
X23.653 Y24.907
X23.7 Y24.764
X23.758 Y24.626
X23.827 Y24.493
X23.908 Y24.366
X23.998 Y24.247
X24.098 Y24.135
X24.207 Y24.032
X24.324 Y23.938
X24.448 Y23.854
X24.579 Y23.781
X24.716 Y23.719
X24.857 Y23.668
X25.002 Y23.629
X25.149 Y23.602
X25.299 Y23.588
X25.449 Y23.585
X25.598 Y23.596
X25.746 Y23.618
X25.892 Y23.653
X26.035 Y23.7
X26.173 Y23.758
X26.306 Y23.827
X26.433 Y23.908
X26.552 Y23.998
X26.664 Y24.098
X26.767 Y24.207
X26.861 Y24.324
X26.945 Y24.448
X27.018 Y24.579
X27.08 Y24.716
X27.132 Y24.857
X27.174 Y25.001
X27.21 Y25.147
X27.24 Y25.294
X27.264 Y25.442
X27.277 Y25.592
X27.281 Y25.742
X27.272 Y25.891
X27.251 Y26.04
X27.218 Y26.186
X27.172 Y26.329
X27.114 Y26.467
X27.044 Y26.6
X26.962 Y26.726
X26.871 Y26.844
X26.769 Y26.955
X26.66 Y27.057
X26.542 Y27.15
X26.417 Y27.234
X26.286 Y27.307
X26.15 Y27.37
X26.01 Y27.423
X25.866 Y27.464
X25.719 Y27.495
X25.57 Y27.516
X25.421 Y27.525
X25.271 Y27.523
X25.121 Y27.511
X24.973 Y27.487
X24.827 Y27.453
X24.684 Y27.408
X24.544 Y27.354
X24.408 Y27.29
X24.278 Y27.216
X24.153 Y27.133
X24.034 Y27.042
X23.922 Y26.942
X23.817 Y26.835
X23.72 Y26.721
X23.631 Y26.6
X23.551 Y26.473
X23.48 Y26.341
X23.419 Y26.204
X23.367 Y26.063
X23.326 Y25.919
X23.294 Y25.772
X23.273 Y25.624
X23.262 Y25.474
X23.263 Y25.324
X23.273 Y25.174
X23.294 Y25.026
X23.325 Y24.879
X23.367 Y24.735
X23.418 Y24.594
X23.48 Y24.457
X23.551 Y24.325
X23.63 Y24.198
X23.719 Y24.077
X23.816 Y23.962
X23.92 Y23.855
X24.032 Y23.755
X24.151 Y23.663
X24.276 Y23.58
X24.406 Y23.506
X24.541 Y23.441
X24.68 Y23.385
X24.823 Y23.34
X24.969 Y23.304
X25.117 Y23.28
X25.266 Y23.265
X25.416 Y23.261
X25.566 Y23.267
X25.715 Y23.284
X25.863 Y23.311
X26.008 Y23.349
X26.15 Y23.397
X26.289 Y23.455
X26.423 Y23.522
X26.552 Y23.598
X26.676 Y23.683
X26.793 Y23.777
X26.903 Y23.878
X27.006 Y23.988
X27.101 Y24.104
X27.188 Y24.226
X27.266 Y24.354
X27.337 Y24.486
X27.401 Y24.622
X27.457 Y24.761
X27.506 Y24.902
X27.547 Y25.047
X27.58 Y25.193
X27.603 Y25.341
X27.618 Y25.491
X27.624 Y25.64
X27.62 Y25.79
X27.606 Y25.94
X27.582 Y26.088
X27.547 Y26.234
X27.503 Y26.377
X27.449 Y26.517
X27.385 Y26.653
X27.312 Y26.784
X27.23 Y26.909
X27.139 Y27.029
X27.041 Y27.142
X26.935 Y27.248
X26.822 Y27.347
X26.702 Y27.437
X26.577 Y27.52
X26.447 Y27.594
X26.312 Y27.659
X26.173 Y27.715
X26.03 Y27.763
X25.885 Y27.801
X25.738 Y27.83
X25.589 Y27.849
X25.439 Y27.858
X25.289
X25.14 Y27.849
X24.991 Y27.831
X24.843 Y27.803
X24.698 Y27.766
X24.555 Y27.721
X24.415 Y27.666
X24.279 Y27.603
X24.147 Y27.532
X24.02 Y27.452
X23.898 Y27.366
X23.781 Y27.272
X23.67 Y27.17
X23.566 Y27.063
X23.468 Y26.949
X23.378 Y26.829
X23.295 Y26.704
X23.219 Y26.575
X23.152 Y26.441
X23.093 Y26.303
X23.042 Y26.162
X23 Y26.017
X22.967 Y25.871
X22.943 Y25.723
X22.928 Y25.574
X22.922 Y25.424
X22.924 Y25.274
X22.936 Y25.125
X22.958 Y24.976
X22.988 Y24.829
X23.027 Y24.684
X23.074 Y24.542
X23.13 Y24.403
X23.195 Y24.267
X23.267 Y24.136
X23.347 Y24.009
X23.435 Y23.888
X23.53 Y23.772
X23.632 Y23.662
X23.741 Y23.558
X23.855 Y23.461
X23.975 Y23.371
X24.1 Y23.288
X24.23 Y23.214
X24.365 Y23.147
X24.503 Y23.089
X24.644 Y23.039
X24.789 Y22.997
X24.935 Y22.965
X25.083 Y22.941
X25.232 Y22.926
X25.382 Y22.921
X25.532 Y22.924
X25.682 Y22.937
X25.83 Y22.959
X25.977 Y22.989
X26.122 Y23.028
X26.264 Y23.076
X26.403 Y23.133
X26.538 Y23.198
X26.669 Y23.271
X26.796 Y23.351
X26.917 Y23.44
X27.033 Y23.535
X27.143 Y23.637
X27.246 Y23.745
X27.344 Y23.859
X27.435 Y23.979
X27.519 Y24.102
X27.597 Y24.231
X27.668 Y24.363
X27.733 Y24.498
X27.79 Y24.637
X27.84 Y24.778
X27.883 Y24.922
X27.917 Y25.068
X27.944 Y25.216
X27.963 Y25.364
X27.973 Y25.514
X27.976 Y25.664
X27.969 Y25.814
X27.954 Y25.963
X27.931 Y26.111
X27.899 Y26.258
X27.858 Y26.402
X27.809 Y26.544
X27.752 Y26.683
X27.686 Y26.818
X27.613 Y26.948
X27.532 Y27.075
X27.444 Y27.196
X27.349 Y27.312
X27.247 Y27.422
X27.139 Y27.526
X27.025 Y27.624
X26.905 Y27.715
X26.781 Y27.798
X26.652 Y27.875
X26.519 Y27.943
X26.382 Y28.005
X26.242 Y28.058
X26.099 Y28.104
X25.953 Y28.141
X25.806 Y28.17
X25.658 Y28.191
X25.508 Y28.204
X25.358 Y28.208
X25.208 Y28.204
X25.059 Y28.192
X24.91 Y28.172
X24.763 Y28.144
X24.617 Y28.108
X24.474 Y28.064
X24.333 Y28.012
X24.195 Y27.952
X24.061 Y27.886
X23.93 Y27.812
X23.804 Y27.731
X23.682 Y27.644
X23.565 Y27.55
X23.453 Y27.451
X23.347 Y27.345
X23.246 Y27.233
X23.152 Y27.117
X23.063 Y26.996
X22.982 Y26.87
X22.907 Y26.74
X22.839 Y26.606
X22.778 Y26.469
X22.725 Y26.328
X22.68 Y26.186
X22.642 Y26.04
X22.612 Y25.893
X22.589 Y25.745
X22.575 Y25.596
X22.568 Y25.446
X22.569 Y25.296
X22.579 Y25.146
X22.596 Y24.997
X22.622 Y24.85
X22.655 Y24.703
X22.695 Y24.559
X22.743 Y24.417
X22.799 Y24.277
X22.862 Y24.141
X22.932 Y24.009
X23.009 Y23.88
X23.093 Y23.756
X23.183 Y23.636
X23.28 Y23.521
X23.382 Y23.411
X23.49 Y23.307
X23.603 Y23.209
X23.722 Y23.117
X23.845 Y23.032
X23.973 Y22.953
X24.104 Y22.881
X24.239 Y22.815
X24.378 Y22.758
X24.519 Y22.707
X24.663 Y22.664
X24.809 Y22.629
X24.956 Y22.602
X25.105 Y22.582
X25.254 Y22.571
X25.404 Y22.567
X25.554 Y22.571
X25.704 Y22.583
X25.853 Y22.603
X26 Y22.631
X26.146 Y22.667
X26.289 Y22.71
X26.43 Y22.761
X26.569 Y22.819
X26.704 Y22.885
X26.835 Y22.957
X26.962 Y23.037
X27.085 Y23.122
X27.204 Y23.215
X27.317 Y23.313
X27.426 Y23.416
X27.529 Y23.525
X27.627 Y23.639
X27.719 Y23.757
X27.805 Y23.879
X27.886 Y24.006
X27.961 Y24.136
X28.029 Y24.27
X28.09 Y24.406
X28.146 Y24.546
X28.194 Y24.688
X28.236 Y24.832
X28.271 Y24.978
X28.299 Y25.125
X28.319 Y25.274
X28.332 Y25.423
X28.338 Y25.573
X28.336 Y25.723
X28.327 Y25.873
X28.31 Y26.022
X28.286 Y26.17
X28.254 Y26.317
X28.215 Y26.461
X28.169 Y26.604
X28.115 Y26.744
X28.054 Y26.881
X27.986 Y27.015
X27.911 Y27.145
X27.83 Y27.271
X27.743 Y27.393
X27.649 Y27.51
X27.55 Y27.622
X27.444 Y27.729
X27.334 Y27.831
X27.218 Y27.926
X27.098 Y28.016
X26.974 Y28.1
X26.845 Y28.177
X26.713 Y28.248
X26.577 Y28.312
X26.438 Y28.369
X26.297 Y28.419
X26.153 Y28.462
X26.008 Y28.498
X25.86 Y28.526
X25.712 Y28.548
X25.563 Y28.562
X25.413 Y28.569
X25.263
X25.113 Y28.561
X24.964 Y28.546
X24.815 Y28.524
X24.668 Y28.494
X24.523 Y28.458
X24.379 Y28.415
X24.238 Y28.365
X24.099 Y28.308
X23.963 Y28.245
X23.83 Y28.175
X23.701 Y28.099
X23.576 Y28.016
X23.454 Y27.928
X23.337 Y27.835
X23.224 Y27.736
X23.116 Y27.631
X23.014 Y27.522
X22.916 Y27.408
X22.824 Y27.289
X22.738 Y27.167
X22.658 Y27.04
X22.584 Y26.91
X22.516 Y26.776
X22.454 Y26.639
X22.399 Y26.5
X22.35 Y26.358
X22.308 Y26.214
X22.273 Y26.068
X22.245 Y25.921
X22.224 Y25.772
X22.21 Y25.623
X22.203 Y25.473
Y25.323
X22.21 Y25.173
X22.224 Y25.024
X22.245 Y24.875
X22.273 Y24.728
X22.308 Y24.582
X22.35 Y24.438
X22.398 Y24.296
X22.453 Y24.156
X22.514 Y24.019
X22.582 Y23.886
X22.656 Y23.755
X22.736 Y23.628
X22.822 Y23.506
X22.914 Y23.387
X23.011 Y23.272
X23.113 Y23.163
X23.221 Y23.058
X23.333 Y22.958
X23.45 Y22.864
X23.571 Y22.775
X23.696 Y22.693
X23.824 Y22.616
X23.957 Y22.545
X24.092 Y22.48
X24.23 Y22.422
X24.371 Y22.371
X24.514 Y22.326
X24.659 Y22.288
X24.806 Y22.256
X24.954 Y22.232
X25.103 Y22.215
X25.253 Y22.204
X25.403 Y22.201
X25.553 Y22.205
X25.702 Y22.215
X25.851 Y22.233
X25.999 Y22.258
X26.146 Y22.289
X26.291 Y22.328
X26.434 Y22.373
X26.575 Y22.425
X26.713 Y22.483
X26.848 Y22.547
X26.981 Y22.618
X27.109 Y22.695
X27.234 Y22.778
X27.356 Y22.866
X27.473 Y22.96
X27.586 Y23.059
X27.694 Y23.162
X27.798 Y23.271
X27.897 Y23.383
X27.991 Y23.5
X28.08 Y23.621
X28.163 Y23.746
X28.241 Y23.874
X28.314 Y24.005
X28.381 Y24.139
X28.442 Y24.276
X28.497 Y24.416
X28.546 Y24.558
X28.588 Y24.701
X28.625 Y24.847
X28.655 Y24.994
X28.679 Y25.142
X28.696 Y25.291
X28.707 Y25.441
X28.711 Y25.591
X28.708 Y25.74
X28.699 Y25.89
X28.683 Y26.039
X28.66 Y26.188
X28.631 Y26.335
X28.595 Y26.48
X28.552 Y26.624
X28.503 Y26.766
X28.448 Y26.905
X28.386 Y27.042
X28.319 Y27.176
X28.245 Y27.307
X28.166 Y27.434
X28.081 Y27.557
X27.99 Y27.677
X27.894 Y27.792
X27.792 Y27.903
X27.686 Y28.009
X27.576 Y28.11
X27.46 Y28.206
X27.341 Y28.297
X27.218 Y28.382
X27.091 Y28.462
X26.96 Y28.536
X26.827 Y28.604
X26.69 Y28.666
X26.551 Y28.722
X26.41 Y28.772
X26.266 Y28.816
X26.121 Y28.853
X25.974 Y28.884
X25.826 Y28.908
X25.677 Y28.926
X25.527 Y28.937
X25.377 Y28.942
X25.227 Y28.94
X25.078 Y28.932
X24.928 Y28.917
X24.78 Y28.896
X24.632 Y28.869
X24.486 Y28.835
X24.342 Y28.795
X24.199 Y28.749
X24.058 Y28.696
X23.92 Y28.638
X23.785 Y28.574
X23.652 Y28.504
X23.522 Y28.428
X23.396 Y28.348
X23.273 Y28.262
X23.154 Y28.17
X23.039 Y28.074
X22.928 Y27.973
X22.822 Y27.867
X22.72 Y27.757
X22.623 Y27.642
X22.531 Y27.524
X22.443 Y27.401
X22.361 Y27.275
X22.285 Y27.146
X22.214 Y27.014
X22.149 Y26.879
X22.089 Y26.742
X22.036 Y26.601
X21.988 Y26.459
X21.946 Y26.314
X21.91 Y26.167
X21.881 Y26.019
X21.858 Y25.871
X21.841 Y25.722
X21.83 Y25.572
X21.826 Y25.423
X21.828 Y25.273
X21.836 Y25.123
X21.851 Y24.972
X21.872 Y24.823
X21.9 Y24.674
X21.933 Y24.527
X21.973 Y24.382
X22.018 Y24.239
X22.07 Y24.099
X22.128 Y23.96
X22.191 Y23.824
X22.26 Y23.69
X22.335 Y23.559
X22.416 Y23.431
X22.502 Y23.306
X22.592 Y23.186
X22.687 Y23.07
X22.787 Y22.959
X22.892 Y22.851
X23.001 Y22.748
X23.115 Y22.65
X23.233 Y22.556
X23.355 Y22.467
X23.481 Y22.383
X23.61 Y22.304
X23.742 Y22.232
X23.876 Y22.165
X24.013 Y22.104
X24.153 Y22.049
X24.294 Y21.999
X24.438 Y21.956
X24.585 Y21.919
X24.733 Y21.887
X24.882 Y21.862
X25.032 Y21.843
X25.182 Y21.831
X25.331 Y21.825
X25.481
X25.631 Y21.832
X25.781 Y21.845
X25.93 Y21.864
X26.079 Y21.89
X26.228 Y21.922
X26.375 Y21.96
X26.52 Y22.004
X26.663 Y22.055
X26.804 Y22.111
X26.942 Y22.173
X27.078 Y22.241
X27.213 Y22.316
X27.345 Y22.397
X27.474 Y22.484
X27.601 Y22.576
X27.724 Y22.675
X27.844 Y22.779
X27.959 Y22.888
X28.07 Y23.003
X28.176 Y23.122
X28.278 Y23.246
X28.375 Y23.375
X28.466 Y23.508
X28.552 Y23.645
X28.632 Y23.786
X28.706 Y23.93
X28.774 Y24.076
X28.836 Y24.225
X28.891 Y24.376
X28.939 Y24.529
X28.981 Y24.683
X29.016 Y24.839
X29.045 Y24.995
X29.067 Y25.153
X29.083 Y25.311
X29.092 Y25.469
X29.094 Y25.626
X29.089 Y25.784
X29.078 Y25.941
X29.06 Y26.097
X29.036 Y26.252
X29.006 Y26.406
X28.968 Y26.559
X28.925 Y26.709
X28.875 Y26.858
X28.82 Y27.003
X28.758 Y27.146
X28.691 Y27.285
X28.619 Y27.421
X28.54 Y27.554
X28.456 Y27.684
X28.366 Y27.811
X28.27 Y27.935
X28.169 Y28.054
X28.064 Y28.169
X27.953 Y28.28
X27.838 Y28.386
X27.718 Y28.487
X27.594 Y28.584
X27.466 Y28.675
X27.334 Y28.76
X27.198 Y28.841
X27.059 Y28.915
X26.916 Y28.984
X26.771 Y29.046
X26.624 Y29.103
X26.474 Y29.153
X26.321 Y29.197
X26.167 Y29.235
X26.01 Y29.266
X25.852 Y29.291
X25.692 Y29.309
X25.531 Y29.321
X25.37 Y29.325
X25.208 Y29.323
X25.047 Y29.315
X24.886 Y29.299
X24.726 Y29.277
X24.566 Y29.247
X24.408 Y29.212
X24.25 Y29.169
X24.095 Y29.12
X23.941 Y29.064
X23.79 Y29.001
X23.641 Y28.932
X23.495 Y28.858
X23.353 Y28.777
X23.214 Y28.69
X23.079 Y28.597
X22.947 Y28.498
X22.82 Y28.394
X22.697 Y28.285
X22.578 Y28.17
X22.464 Y28.05
X22.355 Y27.925
X22.252 Y27.797
X22.155 Y27.664
X22.063 Y27.527
X21.976 Y27.386
X21.896 Y27.241
X21.822 Y27.093
X21.753 Y26.942
X21.692 Y26.788
X21.636 Y26.631
X21.588 Y26.473
X21.546 Y26.312
X21.511 Y26.151
X21.483 Y25.987
X21.461 Y25.823
X21.447 Y25.657
X21.439 Y25.491
Y25.325
X21.445 Y25.158
X21.459 Y24.992
X21.479 Y24.828
X21.506 Y24.664
X21.541 Y24.502
X21.581 Y24.341
X21.629 Y24.181
X21.684 Y24.024
X21.745 Y23.869
X21.812 Y23.717
X21.886 Y23.567
X21.966 Y23.421
X22.052 Y23.279
X22.144 Y23.14
X22.241 Y23.006
X22.344 Y22.876
X22.453 Y22.75
X22.567 Y22.628
X22.686 Y22.511
X22.81 Y22.4
X22.938 Y22.293
X23.071 Y22.193
X23.208 Y22.098
X23.348 Y22.009
X23.492 Y21.926
X23.639 Y21.849
X23.79 Y21.778
X23.944 Y21.713
X24.1 Y21.655
X24.259 Y21.604
X24.42 Y21.559
X24.582 Y21.522
X24.745 Y21.491
X24.91 Y21.467
X25.075 Y21.45
X25.241 Y21.439
X25.408 Y21.436
X25.575 Y21.44
X25.741 Y21.451
X25.908 Y21.469
X26.073 Y21.494
X26.238 Y21.526
X26.401 Y21.564
X26.562 Y21.61
X26.722 Y21.663
X26.88 Y21.722
X27.036 Y21.788
X27.19 Y21.861
X27.341 Y21.941
X27.489 Y22.027
X27.634 Y22.12
X27.776 Y22.219
X27.914 Y22.325
X28.047 Y22.436
X28.177 Y22.554
X28.301 Y22.677
X28.421 Y22.806
X28.536 Y22.94
X28.645 Y23.079
X28.748 Y23.223
X28.845 Y23.371
X28.936 Y23.523
X29.02 Y23.678
X29.098 Y23.837
X29.169 Y23.999
X29.233 Y24.164
X29.29 Y24.331
X29.34 Y24.5
X29.383 Y24.67
X29.418 Y24.842
X29.446 Y25.015
X29.467 Y25.189
X29.48 Y25.363
X29.486 Y25.538
X29.485 Y25.712
X29.476 Y25.886
X29.46 Y26.06
X29.437 Y26.232
X29.407 Y26.403
X29.37 Y26.572
X29.325 Y26.739
X29.274 Y26.904
X29.216 Y27.066
X29.151 Y27.225
X29.08 Y27.382
X29.002 Y27.535
X28.918 Y27.685
X28.827 Y27.832
X28.73 Y27.975
X28.628 Y28.114
X28.519 Y28.248
X28.405 Y28.378
X28.285 Y28.503
X28.16 Y28.622
X28.03 Y28.737
X27.896 Y28.846
X27.756 Y28.95
X27.612 Y29.048
X27.465 Y29.139
X27.313 Y29.225
X27.158 Y29.304
X26.999 Y29.376
X26.837 Y29.442
X26.672 Y29.501
X26.504 Y29.554
X26.334 Y29.599
X26.162 Y29.637
X25.988 Y29.668
X25.813 Y29.692
X25.636 Y29.709
X25.459 Y29.717
X25.282 Y29.719
X25.104 Y29.713
X24.926 Y29.7
X24.749 Y29.679
X24.572 Y29.65
X24.397 Y29.614
X24.223 Y29.571
X24.051 Y29.52
X23.88 Y29.463
X23.713 Y29.398
X23.548 Y29.326
X23.386 Y29.247
X23.227 Y29.161
X23.072 Y29.068
X22.921 Y28.969
X22.774 Y28.864
X22.631 Y28.752
X22.493 Y28.635
X22.36 Y28.511
X22.233 Y28.382
X22.111 Y28.248
X21.994 Y28.109
X21.883 Y27.965
X21.779 Y27.816
X21.68 Y27.663
X21.589 Y27.506
X21.503 Y27.345
X21.425 Y27.18
X21.354 Y27.012
X21.289 Y26.842
X21.232 Y26.669
X21.182 Y26.493
X21.14 Y26.316
X21.105 Y26.137
X21.078 Y25.956
X21.058 Y25.774
X21.046 Y25.592
X21.041 Y25.409
X21.045 Y25.226
X21.056 Y25.044
X21.074 Y24.862
X21.1 Y24.681
X21.134 Y24.502
X21.176 Y24.323
X21.224 Y24.147
X21.281 Y23.973
X21.344 Y23.801
X21.415 Y23.632
X21.492 Y23.466
X21.577 Y23.304
X21.668 Y23.145
X21.766 Y22.991
X21.87 Y22.84
X21.981 Y22.694
X22.097 Y22.553
X22.22 Y22.417
X22.348 Y22.286
X22.481 Y22.16
X22.62 Y22.041
X22.763 Y21.927
X22.911 Y21.819
X23.064 Y21.718
X23.221 Y21.623
X23.381 Y21.535
X23.545 Y21.453
X23.713 Y21.379
X23.883 Y21.312
X24.056 Y21.251
X24.232 Y21.199
X24.409 Y21.153
X24.588 Y21.115
X24.769 Y21.085
X24.951 Y21.062
X25.134 Y21.047
X25.317 Y21.04
X25.501
X25.684 Y21.048
X25.868 Y21.064
X26.05 Y21.088
X26.232 Y21.119
X26.413 Y21.158
X26.592 Y21.204
X26.769 Y21.259
X26.945 Y21.32
X27.118 Y21.389
X27.289 Y21.466
X27.457 Y21.55
X27.621 Y21.642
X27.783 Y21.74
X27.94 Y21.845
X28.093 Y21.958
X28.242 Y22.077
X28.386 Y22.202
X28.525 Y22.334
X28.659 Y22.472
X28.787 Y22.616
X28.909 Y22.765
X29.025 Y22.919
X29.135 Y23.078
X29.237 Y23.242
X29.333 Y23.409
X29.422 Y23.581
X29.503 Y23.756
X29.576 Y23.935
X29.643 Y24.116
X29.701 Y24.299
X29.752 Y24.485
X29.794 Y24.673
X29.829 Y24.861
X29.856 Y25.051
X29.875 Y25.242
X29.885 Y25.434
X29.888 Y25.625
X29.883 Y25.816
X29.869 Y26.006
X29.848 Y26.196
X29.819 Y26.384
X29.782 Y26.57
X29.737 Y26.755
X29.684 Y26.937
X29.624 Y27.117
X29.557 Y27.294
X29.482 Y27.468
X29.4 Y27.638
X29.311 Y27.806
X29.214 Y27.969
X29.111 Y28.128
X29.002 Y28.283
X28.886 Y28.433
X28.763 Y28.578
X28.635 Y28.718
X28.5 Y28.852
X28.361 Y28.981
X28.215 Y29.104
X28.065 Y29.221
X27.909 Y29.331
X27.749 Y29.435
X27.585 Y29.533
X27.416 Y29.623
X27.244 Y29.706
X27.068 Y29.782
X26.888 Y29.851
X26.706 Y29.912
X26.52 Y29.966
X26.333 Y30.012
X26.143 Y30.05
X25.952 Y30.08
X25.759 Y30.102
X25.566 Y30.116
X25.371 Y30.122
X25.177 Y30.119
X24.982 Y30.109
X24.788 Y30.09
X24.594 Y30.063
X24.401 Y30.028
X24.21 Y29.984
X24.021 Y29.933
X23.834 Y29.874
X23.649 Y29.807
X23.467 Y29.732
X23.288 Y29.649
X23.113 Y29.559
X22.941 Y29.462
X22.773 Y29.357
X22.61 Y29.245
X22.452 Y29.127
X22.298 Y29.001
X22.15 Y28.87
X22.008 Y28.732
X21.871 Y28.588
X21.741 Y28.438
X21.616 Y28.283
X21.499 Y28.123
X21.388 Y27.958
X21.284 Y27.789
X21.187 Y27.615
X21.098 Y27.437
X21.016 Y27.255
X20.941 Y27.07
X20.875 Y26.882
X20.817 Y26.692
X20.766 Y26.499
X20.724 Y26.304
X20.69 Y26.107
X20.664 Y25.909
X20.646 Y25.71
X20.637 Y25.511
Y25.311
X20.644 Y25.111
X20.66 Y24.912
X20.685 Y24.714
X20.718 Y24.517
X20.759 Y24.321
X20.808 Y24.127
X20.865 Y23.935
X20.931 Y23.746
X21.004 Y23.56
X21.085 Y23.377
X21.173 Y23.198
X21.269 Y23.023
X21.373 Y22.851
X21.483 Y22.684
X21.601 Y22.522
X21.725 Y22.365
X21.856 Y22.214
X21.992 Y22.067
X22.135 Y21.927
X22.284 Y21.793
X22.438 Y21.666
X22.598 Y21.544
X22.762 Y21.43
X22.931 Y21.323
X23.104 Y21.223
X23.282 Y21.13
X23.463 Y21.045
X23.648 Y20.967
X23.835 Y20.898
X24.026 Y20.836
X24.219 Y20.782
X24.414 Y20.737
X24.611 Y20.699
X24.809 Y20.67
X25.009 Y20.649
X25.209 Y20.637
X25.41 Y20.633
X25.611 Y20.638
X25.812 Y20.651
X26.012 Y20.672
X26.212 Y20.702
X26.41 Y20.741
X26.607 Y20.787
X26.802 Y20.842
X26.996 Y20.906
X27.187 Y20.977
X27.375 Y21.057
X27.56 Y21.145
X27.742 Y21.241
X27.92 Y21.344
X28.094 Y21.456
X28.263 Y21.574
X28.428 Y21.701
X28.588 Y21.834
X28.742 Y21.974
X28.89 Y22.12
X29.033 Y22.273
X29.169 Y22.432
X29.298 Y22.597
X29.42 Y22.767
X29.535 Y22.943
X29.643 Y23.123
X29.743 Y23.307
X29.836 Y23.495
X29.92 Y23.688
X29.996 Y23.883
X30.064 Y24.081
X30.123 Y24.282
X30.174 Y24.485
X30.216 Y24.69
X30.25 Y24.897
X30.275 Y25.104
X30.291 Y25.312
X30.298 Y25.521
X30.297 Y25.729
X30.286 Y25.937
X30.267 Y26.144
X30.24 Y26.349
X30.204 Y26.554
X30.159 Y26.756
X30.106 Y26.956
X30.045 Y27.154
X29.975 Y27.349
X29.897 Y27.541
X29.812 Y27.729
X29.718 Y27.914
X29.617 Y28.094
X29.508 Y28.27
X29.392 Y28.442
X29.269 Y28.608
X29.138 Y28.77
X29.001 Y28.925
X28.858 Y29.075
X28.708 Y29.219
X28.553 Y29.356
X28.391 Y29.487
X28.224 Y29.611
X28.052 Y29.728
X27.875 Y29.838
X27.693 Y29.941
X27.507 Y30.035
X27.317 Y30.122
X27.123 Y30.201
X26.926 Y30.272
X26.726 Y30.335
X26.522 Y30.389
X26.317 Y30.435
X26.11 Y30.472
X25.9 Y30.5
X25.69 Y30.52
X25.479 Y30.531
X25.267 Y30.533
X25.055 Y30.526
X24.843 Y30.51
X24.632 Y30.485
X24.422 Y30.451
X24.213 Y30.409
X24.006 Y30.357
X23.801 Y30.297
X23.599 Y30.228
X23.399 Y30.151
X23.203 Y30.065
X23.01 Y29.972
X22.821 Y29.87
X22.637 Y29.76
X22.457 Y29.642
X22.282 Y29.517
X22.113 Y29.384
X21.949 Y29.245
X21.791 Y29.098
X21.639 Y28.945
X21.494 Y28.785
X21.355 Y28.62
X21.223 Y28.449
X21.099 Y28.272
X20.982 Y28.09
X20.873 Y27.903
X20.772 Y27.712
X20.679 Y27.517
X20.594 Y27.317
X20.517 Y27.115
X20.449 Y26.909
X20.39 Y26.7
X20.34 Y26.49
X20.298 Y26.277
X20.266 Y26.062
X20.242 Y25.846
X20.228 Y25.63
X20.222 Y25.413
X20.226 Y25.196
X20.239 Y24.979
X20.261 Y24.763
X20.292 Y24.548
X20.332 Y24.334
X20.381 Y24.122
X20.439 Y23.913
X20.505 Y23.706
X20.581 Y23.502
X20.664 Y23.302
X20.757 Y23.105
X20.857 Y22.912
X20.965 Y22.723
X21.082 Y22.539
X21.205 Y22.36
X21.337 Y22.187
X21.475 Y22.019
X21.62 Y21.857
X21.773 Y21.702
X21.931 Y21.553
X22.096 Y21.41
X22.266 Y21.275
X22.442 Y21.147
X22.623 Y21.026
X22.809 Y20.914
X23 Y20.809
X23.195 Y20.712
X23.394 Y20.624
X23.596 Y20.544
X23.802 Y20.472
X24.01 Y20.409
X24.221 Y20.355
X24.435 Y20.31
X24.649 Y20.274
X24.866 Y20.247
X25.083 Y20.229
X25.302 Y20.22
X25.52
X25.739 Y20.23
X25.957 Y20.249
X26.174 Y20.277
X26.391 Y20.314
X26.606 Y20.36
X26.819 Y20.415
X27.031 Y20.479
X27.239 Y20.553
X27.445 Y20.635
X27.648 Y20.726
X27.847 Y20.826
X28.043 Y20.934
X28.234 Y21.05
X28.42 Y21.175
X28.601 Y21.308
X28.777 Y21.448
X28.947 Y21.596
X29.111 Y21.751
X29.268 Y21.914
X29.419 Y22.082
X29.563 Y22.258
X29.699 Y22.439
X29.828 Y22.626
X29.948 Y22.818
X30.061 Y23.015
X30.165 Y23.217
X30.261 Y23.423
X30.348 Y23.633
X30.425 Y23.846
X30.494 Y24.062
X30.554 Y24.281
X30.604 Y24.502
X30.646 Y24.725
X30.677 Y24.949
X30.699 Y25.174
X30.712 Y25.399
X30.715 Y25.625
X30.709 Y25.851
X30.693 Y26.076
X30.668 Y26.3
X30.634 Y26.522
X30.59 Y26.743
X30.537 Y26.961
X30.475 Y27.177
X30.404 Y27.39
X30.324 Y27.6
X30.235 Y27.807
X30.138 Y28.009
X30.032 Y28.207
X29.918 Y28.401
X29.796 Y28.59
X29.666 Y28.773
X29.529 Y28.951
X29.384 Y29.123
X29.232 Y29.288
X29.073 Y29.448
X28.907 Y29.6
X28.735 Y29.746
X28.557 Y29.884
X28.373 Y30.015
X28.184 Y30.138
X27.989 Y30.254
X27.79 Y30.361
X27.586 Y30.459
X27.377 Y30.549
X27.165 Y30.631
X26.95 Y30.703
X26.731 Y30.767
X26.51 Y30.821
X26.286 Y30.866
X26.06 Y30.901
X25.833 Y30.927
X25.605 Y30.944
X25.375 Y30.951
X25.146 Y30.948
X24.917 Y30.936
X24.688 Y30.914
X24.46 Y30.882
X24.233 Y30.841
X24.008 Y30.79
X23.785 Y30.729
X23.564 Y30.66
X23.347 Y30.581
X23.133 Y30.493
X22.922 Y30.396
X22.716 Y30.29
X22.514 Y30.175
X22.317 Y30.052
X22.125 Y29.921
X21.939 Y29.781
X21.758 Y29.634
X21.584 Y29.479
X21.416 Y29.317
X21.256 Y29.148
X21.102 Y28.973
X20.956 Y28.79
X20.817 Y28.602
X20.687 Y28.408
X20.565 Y28.209
X20.451 Y28.005
X20.346 Y27.796
X20.249 Y27.582
X20.162 Y27.365
X20.084 Y27.144
X20.015 Y26.92
X19.956 Y26.693
X19.906 Y26.464
X19.866 Y26.233
X19.835 Y26.001
X19.815 Y25.767
X19.804 Y25.532
X19.803 Y25.298
X19.812 Y25.063
X19.831 Y24.829
X19.86 Y24.596
X19.898 Y24.364
X19.946 Y24.134
X20.004 Y23.906
X20.071 Y23.681
X20.148 Y23.459
X20.234 Y23.24
X20.329 Y23.025
X20.433 Y22.815
X20.546 Y22.608
X20.667 Y22.407
X20.797 Y22.211
X20.935 Y22.02
X21.08 Y21.836
X21.234 Y21.658
X21.395 Y21.486
X21.562 Y21.321
X21.737 Y21.163
X21.918 Y21.013
X22.105 Y20.871
X22.299 Y20.737
X22.497 Y20.61
X22.701 Y20.493
X22.909 Y20.384
X23.122 Y20.283
X23.339 Y20.192
X23.56 Y20.11
X23.784 Y20.038
X24.011 Y19.974
X24.24 Y19.921
X24.472 Y19.877
X24.705 Y19.842
X24.94 Y19.818
X25.175 Y19.803
X25.412 Y19.799
X25.648 Y19.804
X25.884 Y19.819
X26.12 Y19.844
X26.355 Y19.88
X26.588 Y19.925
X26.82 Y19.979
X27.05 Y20.044
X27.277 Y20.119
X27.501 Y20.203
X27.722 Y20.296
X27.939 Y20.399
X28.152 Y20.511
X28.36 Y20.632
X28.564 Y20.763
X28.762 Y20.901
X28.955 Y21.049
X29.141 Y21.204
X29.322 Y21.367
X29.495 Y21.538
X29.661 Y21.717
X29.82 Y21.902
X29.97 Y22.094
X30.113 Y22.292
X30.247 Y22.497
X30.373 Y22.706
X30.49 Y22.921
X30.597 Y23.141
X30.696 Y23.365
X30.785 Y23.593
X30.864 Y23.824
X30.933 Y24.058
X30.993 Y24.295
X31.042 Y24.535
X31.081 Y24.775
X31.11 Y25.018
X31.129 Y25.261
X31.138 Y25.504
X31.136 Y25.747
X31.124 Y25.99
X31.102 Y26.233
X31.07 Y26.473
X31.028 Y26.713
X30.976 Y26.95
X30.914 Y27.184
X30.842 Y27.416
X30.76 Y27.645
X30.669 Y27.869
X30.569 Y28.09
X30.459 Y28.306
X30.341 Y28.518
X30.213 Y28.724
X30.077 Y28.925
X29.933 Y29.12
X29.781 Y29.309
X29.62 Y29.491
X29.453 Y29.667
X29.277 Y29.836
X29.095 Y29.997
X28.906 Y30.15
X28.711 Y30.295
X28.509 Y30.432
X28.302 Y30.561
X28.089 Y30.681
X27.872 Y30.792
X27.649 Y30.894
X27.423 Y30.986
X27.192 Y31.069
X26.958 Y31.143
X26.721 Y31.206
X26.481 Y31.26
X26.238 Y31.303
X25.994 Y31.336
X25.749 Y31.359
X25.502 Y31.372
X25.255 Y31.374
X25.007 Y31.366
X24.76 Y31.348
X24.514 Y31.319
X24.269 Y31.28
X24.026 Y31.23
X23.784 Y31.17
X23.546 Y31.1
X23.31 Y31.02
X23.077 Y30.93
X22.848 Y30.831
X22.624 Y30.721
X22.404 Y30.603
X22.189 Y30.475
X21.98 Y30.338
X21.776 Y30.192
X21.579 Y30.038
X21.388 Y29.875
X21.204 Y29.705
X21.027 Y29.527
X20.858 Y29.341
X20.696 Y29.148
X20.543 Y28.949
X20.398 Y28.744
X20.262 Y28.532
X20.135 Y28.315
X20.017 Y28.092
X19.909 Y27.865
X19.81 Y27.633
X19.721 Y27.397
X19.642 Y27.158
X19.573 Y26.915
X19.514 Y26.67
X19.465 Y26.422
X19.427 Y26.173
X19.4 Y25.922
X19.383 Y25.67
X19.377 Y25.417
X19.381 Y25.165
X19.396 Y24.913
X19.421 Y24.661
X19.457 Y24.411
X19.504 Y24.162
X19.561 Y23.916
X19.628 Y23.672
X19.705 Y23.432
X19.793 Y23.194
X19.89 Y22.961
X19.997 Y22.732
X20.114 Y22.507
X20.24 Y22.288
X20.375 Y22.074
X20.519 Y21.866
X20.672 Y21.664
X20.833 Y21.469
X21.002 Y21.28
X21.179 Y21.099
X21.363 Y20.926
X21.554 Y20.76
X21.752 Y20.603
X21.957 Y20.454
X22.168 Y20.314
X22.384 Y20.182
X22.606 Y20.06
X22.833 Y19.947
X23.064 Y19.844
X23.3 Y19.751
X23.539 Y19.668
X23.782 Y19.595
X24.027 Y19.532
X24.276 Y19.479
X24.526 Y19.437
X24.778 Y19.405
X25.031 Y19.384
X25.285 Y19.374
X25.54
X25.794 Y19.385
X26.048 Y19.407
X26.302 Y19.439
X26.554 Y19.482
X26.804 Y19.536
X27.052 Y19.6
X27.298 Y19.675
X27.541 Y19.76
X27.78 Y19.856
X28.016 Y19.961
X28.247 Y20.077
X28.474 Y20.202
X28.695 Y20.337
X28.911 Y20.482
X29.121 Y20.635
X29.325 Y20.798
X29.521 Y20.969
X29.711 Y21.148
X29.893 Y21.336
X30.067 Y21.531
X30.234 Y21.733
X30.391 Y21.943
X30.54 Y22.158
X30.679 Y22.381
X30.809 Y22.608
X30.93 Y22.841
X31.04 Y23.079
X31.141 Y23.322
X31.231 Y23.568
X31.311 Y23.818
X31.38 Y24.071
X31.438 Y24.326
X31.486 Y24.584
X31.523 Y24.843
X31.548 Y25.104
X31.563 Y25.365
X31.567 Y25.626
X31.56 Y25.888
X31.542 Y26.148
X31.513 Y26.408
X31.473 Y26.666
X31.422 Y26.922
X31.361 Y27.175
X31.289 Y27.426
X31.206 Y27.673
X31.114 Y27.917
X31.011 Y28.156
X30.898 Y28.391
X30.776 Y28.621
X30.643 Y28.846
X30.502 Y29.065
X30.351 Y29.277
X30.192 Y29.484
X30.024 Y29.683
X29.847 Y29.876
X29.663 Y30.061
X29.471 Y30.238
X29.272 Y30.407
X29.065 Y30.567
X28.852 Y30.719
X28.632 Y30.862
X28.407 Y30.996
X28.176 Y31.12
X27.939 Y31.234
X27.698 Y31.339
X27.452 Y31.433
X27.203 Y31.517
X26.95 Y31.59
X26.694 Y31.653
X26.435 Y31.705
X26.174 Y31.747
X25.911 Y31.777
X25.647 Y31.796
X25.382 Y31.804
X25.116 Y31.801
X24.851 Y31.787
X24.586 Y31.761
X24.323 Y31.725
X24.061 Y31.677
X23.801 Y31.619
X23.543 Y31.549
X23.288 Y31.469
X23.037 Y31.378
X22.79 Y31.276
X22.547 Y31.164
X22.308 Y31.042
X22.075 Y30.91
X21.848 Y30.768
X21.626 Y30.616
X21.411 Y30.455
X21.203 Y30.286
X21.002 Y30.107
X20.809 Y29.92
X20.623 Y29.725
X20.446 Y29.523
X20.277 Y29.313
X20.117 Y29.096
X19.967 Y28.872
X19.825 Y28.642
X19.694 Y28.406
X19.573 Y28.165
X19.461 Y27.919
X19.361 Y27.669
X19.27 Y27.414
X19.191 Y27.156
X19.122 Y26.894
X19.065 Y26.63
X19.019 Y26.363
X18.983 Y26.095
X18.959 Y25.826
X18.947 Y25.555
X18.946 Y25.284
X18.956 Y25.014
X18.978 Y24.744
X19.011 Y24.475
X19.055 Y24.208
X19.11 Y23.943
X19.177 Y23.68
X19.254 Y23.42
X19.342 Y23.164
X19.441 Y22.912
X19.551 Y22.664
X19.671 Y22.421
X19.801 Y22.183
X19.941 Y21.951
X20.09 Y21.724
X20.249 Y21.505
X20.417 Y21.292
X20.594 Y21.086
X20.779 Y20.888
X20.973 Y20.698
X21.174 Y20.516
X21.383 Y20.343
X21.599 Y20.179
X21.822 Y20.024
X22.051 Y19.878
X22.285 Y19.742
X22.526 Y19.616
X22.771 Y19.501
X23.022 Y19.395
X23.276 Y19.301
X23.535 Y19.217
X23.796 Y19.143
X24.061 Y19.081
X24.328 Y19.031
X24.597 Y18.991
X24.868 Y18.963
X25.14 Y18.946
X25.413 Y18.94
X25.686 Y18.946
X25.959 Y18.964
X26.231 Y18.993
X26.502 Y19.033
X26.771 Y19.085
X27.038 Y19.148
X27.303 Y19.223
X27.565 Y19.308
X27.823 Y19.405
X28.077 Y19.513
X28.327 Y19.631
X28.572 Y19.76
X28.812 Y19.899
X29.046 Y20.049
X29.274 Y20.208
X29.496 Y20.377
X29.71 Y20.556
X29.917 Y20.743
X30.115 Y20.939
X30.306 Y21.144
X30.488 Y21.356
X30.661 Y21.576
X30.825 Y21.803
X30.979 Y22.037
X31.123 Y22.278
X31.257 Y22.524
X31.38 Y22.776
X31.493 Y23.033
X31.595 Y23.294
X31.686 Y23.559
X31.766 Y23.828
X31.834 Y24.1
X31.891 Y24.374
X31.936 Y24.651
X31.969 Y24.929
X31.991 Y25.208
X32.001 Y25.487
X31.999 Y25.767
X31.986 Y26.046
X31.961 Y26.324
X31.924 Y26.601
X31.876 Y26.876
X31.816 Y27.149
X31.744 Y27.419
X31.662 Y27.685
X31.568 Y27.948
X31.463 Y28.207
X31.348 Y28.461
X31.222 Y28.71
X31.086 Y28.953
X30.939 Y29.191
X30.783 Y29.422
X30.617 Y29.646
X30.442 Y29.864
X30.257 Y30.074
X30.064 Y30.276
X29.863 Y30.47
X29.653 Y30.655
X29.436 Y30.831
X29.212 Y30.998
X28.98 Y31.156
X28.742 Y31.304
X28.497 Y31.442
X28.247 Y31.57
X27.992 Y31.687
X27.731 Y31.793
X27.466 Y31.889
X27.198 Y31.973
X26.925 Y32.046
X26.65 Y32.108
X26.372 Y32.158
X26.091 Y32.196
X25.81 Y32.222
X25.527 Y32.237
X25.243 Y32.24
X24.96 Y32.231
X24.676 Y32.209
X24.394 Y32.176
X24.113 Y32.132
X23.834 Y32.075
X23.557 Y32.006
X23.284 Y31.926
X23.013 Y31.835
X22.747 Y31.732
X22.485 Y31.618
X22.228 Y31.493
X21.976 Y31.357
X21.73 Y31.21
X21.49 Y31.054
X21.257 Y30.887
X21.03 Y30.71
X20.812 Y30.524
X20.601 Y30.329
X20.398 Y30.125
X20.205 Y29.913
X20.02 Y29.692
X19.844 Y29.464
X19.678 Y29.229
X19.523 Y28.987
X19.377 Y28.738
X19.242 Y28.484
X19.118 Y28.223
X19.004 Y27.958
X18.902 Y27.688
X18.812 Y27.414
X18.732 Y27.137
X18.665 Y26.856
X18.61 Y26.573
X18.566 Y26.287
X18.534 Y26
X18.515 Y25.712
X18.508 Y25.423
X18.512 Y25.134
X18.529 Y24.845
X18.558 Y24.557
X18.599 Y24.271
X18.653 Y23.987
X18.718 Y23.705
X18.794 Y23.426
X18.883 Y23.15
X18.983 Y22.879
X19.094 Y22.611
X19.217 Y22.349
X19.35 Y22.092
X19.494 Y21.841
X19.649 Y21.596
X19.813 Y21.358
X19.988 Y21.127
X20.172 Y20.904
X20.365 Y20.688
X20.568 Y20.481
X20.778 Y20.282
X20.997 Y20.092
X21.224 Y19.912
X21.458 Y19.742
X21.699 Y19.581
X21.947 Y19.431
X22.201 Y19.291
X22.461 Y19.162
X22.725 Y19.044
X22.995 Y18.937
X23.269 Y18.841
X23.547 Y18.757
X23.828 Y18.685
X24.112 Y18.625
X24.398 Y18.576
X24.687 Y18.54
X24.977 Y18.516
X25.268 Y18.504
X25.559
X25.85 Y18.516
X26.141 Y18.541
X26.431 Y18.578
X26.72 Y18.627
X27.006 Y18.689
X27.29 Y18.762
X27.571 Y18.847
X27.849 Y18.945
X28.122 Y19.054
X28.391 Y19.174
X28.655 Y19.306
X28.914 Y19.449
X29.167 Y19.603
X29.413 Y19.768
X29.653 Y19.943
X29.885 Y20.128
X30.109 Y20.323
X30.326 Y20.527
X30.533 Y20.741
X30.732 Y20.963
X30.921 Y21.193
X31.1 Y21.432
X31.27 Y21.677
X31.429 Y21.93
X31.577 Y22.19
X31.714 Y22.455
X31.84 Y22.726
X31.955 Y23.002
X32.058 Y23.282
X32.149 Y23.567
X32.227 Y23.855
X32.294 Y24.146
X32.348 Y24.44
X32.39 Y24.735
X32.42 Y25.032
X32.437 Y25.33
X32.441 Y25.628
X32.433 Y25.926
X32.413 Y26.223
X32.38 Y26.519
X32.334 Y26.814
X32.277 Y27.106
X32.207 Y27.395
X32.125 Y27.681
X32.031 Y27.963
X31.925 Y28.241
X31.808 Y28.515
X31.679 Y28.783
X31.539 Y29.046
X31.389 Y29.302
X31.227 Y29.552
X31.055 Y29.795
X30.873 Y30.031
X30.682 Y30.259
X30.48 Y30.479
X30.27 Y30.69
X30.051 Y30.892
X29.823 Y31.085
X29.588 Y31.268
X29.345 Y31.442
X29.094 Y31.605
X28.837 Y31.757
X28.573 Y31.899
X28.304 Y32.029
X28.029 Y32.149
X27.749 Y32.256
X27.464 Y32.352
X27.176 Y32.436
X26.884 Y32.508
X26.589 Y32.567
X26.292 Y32.614
X25.992 Y32.649
X25.691 Y32.671
X25.39 Y32.68
X25.087 Y32.677
X24.785 Y32.661
X24.484 Y32.632
X24.184 Y32.59
X23.886 Y32.536
X23.59 Y32.47
X23.297 Y32.391
X23.007 Y32.299
X22.721 Y32.196
X22.44 Y32.08
X22.163 Y31.953
X21.892 Y31.814
X21.627 Y31.664
X21.368 Y31.502
X21.116 Y31.33
X20.872 Y31.148
X20.635 Y30.955
X20.406 Y30.752
X20.186 Y30.539
X19.975 Y30.318
X19.774 Y30.088
X19.582 Y29.849
X19.4 Y29.602
X19.229 Y29.348
X19.068 Y29.087
X18.919 Y28.819
X18.781 Y28.545
X18.654 Y28.266
X18.54 Y27.981
X18.437 Y27.691
X18.347 Y27.398
X18.269 Y27.101
X18.203 Y26.801
X18.15 Y26.498
X18.11 Y26.193
X18.083 Y25.887
X18.069 Y25.579
X18.067 Y25.272
X18.079 Y24.964
X18.103 Y24.658
X18.14 Y24.352
X18.191 Y24.049
X18.253 Y23.747
X18.329 Y23.449
X18.417 Y23.154
X18.517 Y22.863
X18.629 Y22.576
X18.754 Y22.294
X18.89 Y22.018
X19.037 Y21.747
X19.196 Y21.483
X19.366 Y21.226
X19.547 Y20.977
X19.737 Y20.735
X19.938 Y20.501
X20.149 Y20.276
X20.368 Y20.06
X20.597 Y19.853
X20.834 Y19.656
X21.079 Y19.47
X21.332 Y19.293
X21.592 Y19.128
X21.859 Y18.973
X22.132 Y18.83
X22.411 Y18.699
X22.696 Y18.579
X22.985 Y18.471
X23.279 Y18.375
X23.576 Y18.292
X23.877 Y18.222
X24.18 Y18.164
X24.486 Y18.119
X24.794 Y18.086
X25.103 Y18.067
X25.413 Y18.061
X25.723 Y18.067
X26.033 Y18.087
X26.342 Y18.12
X26.65 Y18.166
X26.956 Y18.224
X27.259 Y18.296
X27.56 Y18.38
X27.857 Y18.477
X28.15 Y18.587
X28.438 Y18.709
X28.722 Y18.843
X29 Y18.989
X29.272 Y19.147
X29.537 Y19.316
X29.795 Y19.497
X30.046 Y19.688
X30.288 Y19.89
X30.522 Y20.102
X30.748 Y20.324
X30.964 Y20.555
X31.17 Y20.796
X31.365 Y21.045
X31.551 Y21.302
X31.725 Y21.567
X31.888 Y21.838
X32.04 Y22.117
X32.18 Y22.402
X32.308 Y22.692
X32.423 Y22.988
X32.526 Y23.288
X32.616 Y23.592
X32.694 Y23.9
X32.758 Y24.21
X32.809 Y24.523
X32.847 Y24.838
X32.872 Y25.154
X32.884 Y25.47
X32.882 Y25.787
X32.867 Y26.103
X32.838 Y26.419
X32.797 Y26.732
X32.742 Y27.044
X32.674 Y27.353
X32.593 Y27.659
X32.5 Y27.961
X32.394 Y28.259
X32.275 Y28.552
X32.145 Y28.84
X32.002 Y29.122
X31.848 Y29.398
X31.682 Y29.667
X31.505 Y29.929
X31.317 Y30.184
X31.118 Y30.43
X30.91 Y30.668
X30.691 Y30.897
X30.463 Y31.117
X30.225 Y31.327
X29.979 Y31.527
X29.725 Y31.716
X29.463 Y31.895
X29.193 Y32.063
X28.916 Y32.219
X28.633 Y32.364
X28.344 Y32.497
X28.049 Y32.617
X27.749 Y32.725
X27.445 Y32.821
X27.137 Y32.904
X26.825 Y32.973
X26.51 Y33.03
X26.193 Y33.074
X25.875 Y33.104
X25.555 Y33.12
X25.234 Y33.123
X24.913 Y33.113
X24.593 Y33.089
X24.274 Y33.052
X23.956 Y33.002
X23.641 Y32.938
X23.328 Y32.86
X23.019 Y32.77
X22.713 Y32.667
X22.412 Y32.55
X22.116 Y32.422
X21.825 Y32.28
X21.54 Y32.127
X21.262 Y31.962
X20.991 Y31.785
X20.728 Y31.596
X20.472 Y31.397
X20.225 Y31.187
X19.987 Y30.967
X19.758 Y30.737
X19.539 Y30.497
X19.331 Y30.248
X19.132 Y29.991
X18.945 Y29.725
X18.769 Y29.452
X18.605 Y29.171
X18.452 Y28.884
X18.311 Y28.59
X18.183 Y28.291
X18.068 Y27.986
X17.966 Y27.677
X17.876 Y27.364
X17.8 Y27.047
X17.737 Y26.727
X17.688 Y26.405
X17.652 Y26.081
X17.63 Y25.755
X17.622 Y25.429
X17.627 Y25.103
X17.646 Y24.777
X17.679 Y24.452
X17.725 Y24.129
X17.785 Y23.808
X17.858 Y23.49
X17.945 Y23.175
X18.044 Y22.864
X18.157 Y22.557
X18.283 Y22.256
X18.421 Y21.96
X18.571 Y21.67
X18.734 Y21.386
X18.908 Y21.11
X19.094 Y20.841
X19.291 Y20.58
X19.498 Y20.328
X19.716 Y20.085
X19.945 Y19.851
X20.182 Y19.626
X20.429 Y19.412
X20.685 Y19.209
X20.949 Y19.016
X21.222 Y18.835
X21.501 Y18.665
X21.788 Y18.507
X22.08 Y18.361
X22.379 Y18.228
X22.683 Y18.107
X22.993 Y17.999
X23.306 Y17.904
X23.623 Y17.823
X23.944 Y17.754
X24.267 Y17.7
X24.593 Y17.658
X24.92 Y17.631
X25.249 Y17.617
X25.577
X25.906 Y17.631
X26.234 Y17.659
X26.562 Y17.701
X26.887 Y17.756
X27.21 Y17.825
X27.53 Y17.908
X27.847 Y18.004
X28.16 Y18.113
X28.468 Y18.236
X28.771 Y18.372
X29.069 Y18.52
X29.36 Y18.681
X29.645 Y18.854
X29.922 Y19.04
X30.192 Y19.236
X30.453 Y19.445
X30.706 Y19.664
X30.949 Y19.894
X31.183 Y20.134
X31.406 Y20.384
X31.619 Y20.643
X31.821 Y20.911
X32.012 Y21.187
X32.191 Y21.471
X32.357 Y21.763
X32.512 Y22.061
X32.654 Y22.366
X32.782 Y22.676
X32.898 Y22.991
X33 Y23.311
X33.089 Y23.635
X33.164 Y23.963
X33.226 Y24.293
X33.273 Y24.625
X33.306 Y24.959
X33.326 Y25.294
X33.331 Y25.63
X33.322 Y25.965
X33.299 Y26.299
X33.262 Y26.633
X33.211 Y26.964
X33.146 Y27.293
X33.067 Y27.618
X32.975 Y27.941
X32.87 Y28.259
X32.751 Y28.572
X32.619 Y28.88
X32.474 Y29.182
X32.317 Y29.477
X32.147 Y29.766
X31.965 Y30.048
X31.772 Y30.322
X31.567 Y30.587
X31.351 Y30.844
X31.125 Y31.091
X30.888 Y31.329
X30.642 Y31.557
X30.386 Y31.774
X30.121 Y31.98
X29.847 Y32.176
X29.565 Y32.359
X29.276 Y32.531
X28.979 Y32.691
X28.676 Y32.838
X28.367 Y32.972
X28.052 Y33.093
X27.732 Y33.201
X27.407 Y33.295
X27.079 Y33.376
X26.748 Y33.443
X26.413 Y33.496
X26.077 Y33.535
X25.738 Y33.56
X25.399 Y33.571
X25.06 Y33.567
X24.72 Y33.549
X24.382 Y33.517
X24.045 Y33.47
X23.71 Y33.41
X23.377 Y33.335
X23.048 Y33.246
X22.722 Y33.144
X22.401 Y33.028
X22.085 Y32.898
X21.775 Y32.755
X21.47 Y32.6
X21.172 Y32.431
X20.882 Y32.25
X20.599 Y32.057
X20.324 Y31.852
X20.058 Y31.635
X19.802 Y31.408
X19.555 Y31.169
X19.318 Y30.921
X19.091 Y30.662
X18.876 Y30.395
X18.672 Y30.118
X18.48 Y29.833
X18.299 Y29.54
X18.132 Y29.239
X17.976 Y28.932
X17.834 Y28.618
X17.706 Y28.299
X17.59 Y27.974
X17.489 Y27.645
X17.401 Y27.312
X17.328 Y26.975
X17.268 Y26.635
X17.223 Y26.293
X17.192 Y25.95
X17.176 Y25.605
X17.174 Y25.26
X17.187 Y24.915
X17.214 Y24.571
X17.256 Y24.228
X17.312 Y23.887
X17.383 Y23.549
X17.467 Y23.214
X17.566 Y22.883
X17.678 Y22.557
X17.804 Y22.235
X17.943 Y21.919
X18.096 Y21.609
X18.261 Y21.306
X18.439 Y21.009
X18.63 Y20.721
X18.832 Y20.441
X19.046 Y20.169
X19.271 Y19.907
X19.507 Y19.654
X19.754 Y19.412
X20.01 Y19.18
X20.276 Y18.959
X20.551 Y18.75
X20.835 Y18.552
X21.126 Y18.366
X21.426 Y18.192
X21.732 Y18.032
X22.045 Y17.884
X22.364 Y17.749
X22.689 Y17.628
X23.018 Y17.521
X23.352 Y17.428
X23.689 Y17.348
X24.03 Y17.283
X24.373 Y17.232
X24.718 Y17.196
X25.065 Y17.174
X25.413 Y17.167
X25.76 Y17.174
X26.108 Y17.196
X26.454 Y17.233
X26.8 Y17.284
X27.142 Y17.35
X27.483 Y17.43
X27.819 Y17.525
X28.152 Y17.633
X28.481 Y17.756
X28.804 Y17.892
X29.121 Y18.042
X29.433 Y18.206
X29.737 Y18.382
X30.034 Y18.572
X30.323 Y18.774
X30.604 Y18.988
X30.875 Y19.213
X31.137 Y19.45
X31.389 Y19.699
X31.631 Y19.957
X31.861 Y20.226
X32.08 Y20.504
X32.288 Y20.792
X32.483 Y21.088
X32.665 Y21.392
X32.835 Y21.703
X32.992 Y22.021
X33.135 Y22.346
X33.264 Y22.677
X33.379 Y23.012
X33.48 Y23.352
X33.567 Y23.696
X33.639 Y24.043
X33.696 Y24.393
X33.739 Y24.745
X33.767 Y25.099
X33.78 Y25.453
X33.778 Y25.807
X33.761 Y26.161
X33.729 Y26.514
X33.683 Y26.865
X33.622 Y27.214
X33.546 Y27.56
X33.456 Y27.902
X33.351 Y28.24
X33.233 Y28.574
X33.1 Y28.902
X32.954 Y29.224
X32.795 Y29.54
X32.622 Y29.849
X32.436 Y30.151
X32.238 Y30.444
X32.028 Y30.729
X31.806 Y31.005
X31.572 Y31.271
X31.328 Y31.528
X31.072 Y31.774
X30.807 Y32.009
X30.531 Y32.233
X30.247 Y32.445
X29.953 Y32.645
X29.652 Y32.833
X29.342 Y33.008
X29.025 Y33.17
X28.702 Y33.319
X28.372 Y33.454
X28.037 Y33.575
X27.697 Y33.682
X27.352 Y33.775
X27.003 Y33.853
X26.652 Y33.916
X26.297 Y33.965
X25.941 Y33.999
X25.583 Y34.017
X25.225 Y34.021
X24.867 Y34.01
X24.509 Y33.983
X24.152 Y33.942
X23.797 Y33.885
X23.445 Y33.814
X23.095 Y33.728
X22.75 Y33.627
X22.409 Y33.512
X22.072 Y33.382
X21.741 Y33.238
X21.417 Y33.081
X21.099 Y32.91
X20.788 Y32.725
X20.486 Y32.528
X20.191 Y32.318
X19.906 Y32.095
X19.63 Y31.861
X19.364 Y31.615
X19.109 Y31.358
X18.864 Y31.091
X18.631 Y30.813
X18.41 Y30.526
X18.201 Y30.23
X18.004 Y29.925
X17.82 Y29.612
X17.65 Y29.291
X17.493 Y28.963
X17.35 Y28.629
X17.221 Y28.289
X17.107 Y27.944
X17.007 Y27.595
X16.922 Y27.241
X16.851 Y26.884
X16.796 Y26.525
X16.756 Y26.163
X16.731 Y25.8
X16.722 Y25.436
X16.728 Y25.072
X16.749 Y24.708
X16.785 Y24.346
X16.836 Y23.986
X16.903 Y23.627
X16.985 Y23.272
X17.081 Y22.921
X17.192 Y22.574
X17.318 Y22.232
X17.458 Y21.895
X17.612 Y21.565
X17.78 Y21.241
X17.961 Y20.925
X18.155 Y20.617
X18.362 Y20.317
X18.582 Y20.025
X18.813 Y19.744
X19.057 Y19.472
X19.311 Y19.211
X19.576 Y18.961
X19.852 Y18.722
X20.137 Y18.494
X20.432 Y18.279
X20.736 Y18.077
X21.047 Y17.887
X21.367 Y17.711
X21.694 Y17.548
X22.027 Y17.399
X22.367 Y17.264
X22.711 Y17.144
X23.061 Y17.038
X23.415 Y16.947
X23.773 Y16.87
X24.134 Y16.809
X24.497 Y16.763
X24.862 Y16.732
X25.229 Y16.717
X25.595
X25.962 Y16.732
X26.328 Y16.763
X26.693 Y16.809
X27.056 Y16.871
X27.416 Y16.948
X27.773 Y17.04
X28.127 Y17.147
X28.475 Y17.269
X28.819 Y17.405
X29.157 Y17.556
X29.488 Y17.721
X29.813 Y17.901
X30.13 Y18.093
X30.439 Y18.3
X30.739 Y18.519
X31.03 Y18.75
X31.311 Y18.994
X31.582 Y19.25
X31.842 Y19.517
X32.091 Y19.795
X32.328 Y20.083
X32.553 Y20.381
X32.765 Y20.688
X32.964 Y21.004
X33.15 Y21.328
X33.321 Y21.66
X33.479 Y21.999
X33.623 Y22.344
X33.752 Y22.695
X33.866 Y23.051
X33.965 Y23.411
X34.048 Y23.776
X34.117 Y24.143
X34.169 Y24.513
X34.207 Y24.884
X34.228 Y25.257
X34.234 Y25.631
X34.224 Y26.004
X34.199 Y26.376
X34.158 Y26.747
X34.101 Y27.116
X34.029 Y27.482
X33.942 Y27.845
X33.839 Y28.204
X33.722 Y28.558
X33.589 Y28.907
X33.443 Y29.25
X33.282 Y29.586
X33.106 Y29.915
X32.918 Y30.237
X32.715 Y30.551
X32.5 Y30.856
X32.272 Y31.151
X32.032 Y31.437
X31.78 Y31.713
X31.517 Y31.978
X31.242 Y32.232
X30.957 Y32.474
X30.662 Y32.704
X30.358 Y32.921
X30.044 Y33.125
X29.722 Y33.317
X29.392 Y33.494
X29.055 Y33.658
X28.71 Y33.808
X28.36 Y33.943
X28.004 Y34.063
X27.643 Y34.168
X27.278 Y34.258
X26.909 Y34.333
X26.537 Y34.392
X26.163 Y34.435
X25.787 Y34.463
X25.41 Y34.475
X25.032 Y34.471
X24.655 Y34.451
X24.278 Y34.416
X23.904 Y34.364
X23.531 Y34.297
X23.162 Y34.214
X22.796 Y34.116
X22.434 Y34.002
X22.077 Y33.873
X21.726 Y33.729
X21.381 Y33.571
X21.042 Y33.398
X20.711 Y33.21
X20.388 Y33.009
X20.074 Y32.795
X19.769 Y32.567
X19.473 Y32.327
X19.188 Y32.074
X18.913 Y31.81
X18.65 Y31.534
X18.399 Y31.247
X18.159 Y30.949
X17.933 Y30.642
X17.719 Y30.326
X17.519 Y30
X17.332 Y29.667
X17.16 Y29.325
X17.002 Y28.977
X16.859 Y28.623
X16.731 Y28.262
X16.618 Y27.896
X16.52 Y27.526
X16.438 Y27.152
X16.372 Y26.775
X16.322 Y26.396
X16.288 Y26.014
X16.27 Y25.631
X16.268 Y25.248
X16.282 Y24.865
X16.312 Y24.483
X16.358 Y24.103
X16.42 Y23.724
X16.498 Y23.349
X16.592 Y22.977
X16.701 Y22.61
X16.826 Y22.247
X16.965 Y21.89
X17.12 Y21.539
X17.289 Y21.194
X17.473 Y20.857
X17.67 Y20.529
X17.882 Y20.208
X18.106 Y19.897
X18.343 Y19.596
X18.593 Y19.304
X18.855 Y19.024
X19.129 Y18.754
X19.413 Y18.497
X19.709 Y18.251
X20.014 Y18.018
X20.329 Y17.799
X20.653 Y17.592
X20.985 Y17.399
X21.325 Y17.221
X21.673 Y17.057
X22.027 Y16.907
X22.387 Y16.773
X22.753 Y16.653
X23.123 Y16.55
X23.498 Y16.461
X23.876 Y16.389
X24.257 Y16.332
X24.64 Y16.292
X25.025 Y16.267
X25.411 Y16.259
X25.797 Y16.267
X26.183 Y16.292
X26.568 Y16.332
X26.951 Y16.389
X27.331 Y16.462
X27.709 Y16.55
X28.082 Y16.655
X28.452 Y16.775
X28.816 Y16.911
X29.174 Y17.062
X29.527 Y17.229
X29.872 Y17.41
X30.209 Y17.605
X30.538 Y17.815
X30.859 Y18.039
X31.17 Y18.276
X31.471 Y18.526
X31.761 Y18.788
X32.04 Y19.063
X32.308 Y19.349
X32.563 Y19.647
X32.806 Y19.955
X33.036 Y20.273
X33.252 Y20.601
X33.454 Y20.937
X33.642 Y21.282
X33.816 Y21.635
X33.974 Y21.994
X34.117 Y22.36
X34.245 Y22.731
X34.357 Y23.108
X34.453 Y23.489
X34.533 Y23.873
X34.597 Y24.261
X34.645 Y24.651
X34.675 Y25.042
X34.69 Y25.435
X34.688 Y25.827
X34.67 Y26.219
X34.635 Y26.61
X34.583 Y26.999
X34.516 Y27.386
X34.432 Y27.769
X34.332 Y28.149
X34.217 Y28.523
X34.085 Y28.893
X33.939 Y29.257
X33.777 Y29.614
X33.6 Y29.965
X33.409 Y30.307
X33.203 Y30.641
X32.984 Y30.967
X32.751 Y31.283
X32.505 Y31.588
X32.246 Y31.884
X31.975 Y32.168
X31.692 Y32.441
X31.398 Y32.702
X31.093 Y32.95
X30.777 Y33.185
X30.452 Y33.407
X30.118 Y33.615
X29.775 Y33.809
X29.425 Y33.989
X29.066 Y34.154
X28.701 Y34.303
X28.33 Y34.438
X27.953 Y34.556
X27.571 Y34.659
X27.186 Y34.746
X26.796 Y34.816
X26.404 Y34.87
X26.009 Y34.908
X25.614 Y34.928
X25.217 Y34.933
X24.82 Y34.92
X24.424 Y34.891
X24.029 Y34.846
X23.637 Y34.783
X23.247 Y34.704
X22.86 Y34.609
X22.478 Y34.498
X22.1 Y34.37
X21.728 Y34.227
X21.362 Y34.068
X21.003 Y33.894
X20.651 Y33.705
X20.307 Y33.501
X19.973 Y33.283
X19.647 Y33.051
X19.331 Y32.805
X19.026 Y32.546
X18.732 Y32.274
X18.449 Y31.99
X18.179 Y31.695
X17.921 Y31.388
X17.676 Y31.07
X17.445 Y30.743
X17.227 Y30.405
X17.024 Y30.059
X16.835 Y29.705
X16.662 Y29.343
X16.504 Y28.974
X16.361 Y28.598
X16.234 Y28.217
X16.124 Y27.83
X16.03 Y27.439
X15.952 Y27.045
X15.891 Y26.647
X15.846 Y26.247
X15.819 Y25.846
X15.808 Y25.444
X15.814 Y25.041
X15.837 Y24.64
X15.877 Y24.239
X15.934 Y23.84
X16.008 Y23.445
X16.098 Y23.052
X16.204 Y22.664
X16.327 Y22.28
X16.466 Y21.902
X16.62 Y21.53
X16.79 Y21.165
X16.975 Y20.807
X17.176 Y20.457
X17.39 Y20.116
X17.619 Y19.784
X17.862 Y19.462
X18.118 Y19.151
X18.386 Y18.851
X18.668 Y18.562
X18.961 Y18.285
X19.265 Y18.021
X19.58 Y17.769
X19.906 Y17.532
X20.242 Y17.308
X20.586 Y17.098
X20.939 Y16.903
X21.301 Y16.723
X21.669 Y16.558
X22.044 Y16.409
X22.425 Y16.275
X22.812 Y16.158
X23.203 Y16.057
X23.599 Y15.972
X23.998 Y15.905
X24.399 Y15.854
X24.803 Y15.819
X25.208 Y15.802
X25.613
X26.018 Y15.819
X26.423 Y15.853
X26.826 Y15.904
X27.227 Y15.972
X27.625 Y16.057
X28.019 Y16.158
X28.41 Y16.276
X28.795 Y16.411
X29.174 Y16.561
X29.547 Y16.728
X29.913 Y16.91
X30.272 Y17.108
X30.622 Y17.32
X30.963 Y17.548
X31.294 Y17.789
X31.615 Y18.045
X31.925 Y18.314
X32.224 Y18.595
X32.511 Y18.89
X32.786 Y19.196
X33.047 Y19.514
X33.295 Y19.842
X33.529 Y20.181
X33.749 Y20.53
X33.954 Y20.887
X34.143 Y21.253
X34.318 Y21.626
X34.476 Y22.007
X34.618 Y22.394
X34.744 Y22.786
X34.853 Y23.183
X34.946 Y23.585
X35.021 Y23.99
X35.08 Y24.398
X35.121 Y24.808
X35.145 Y25.219
X35.152 Y25.631
X35.141 Y26.043
X35.113 Y26.454
X35.068 Y26.863
X35.006 Y27.27
X34.926 Y27.674
X34.83 Y28.075
X34.717 Y28.471
X34.587 Y28.861
X34.442 Y29.246
X34.28 Y29.625
X34.102 Y29.996
X33.909 Y30.36
X33.701 Y30.715
X33.478 Y31.061
X33.24 Y31.398
X32.989 Y31.724
X32.724 Y32.04
X32.446 Y32.344
X32.155 Y32.636
X31.853 Y32.917
X31.538 Y33.184
X31.213 Y33.438
X30.877 Y33.678
X30.531 Y33.903
X30.176 Y34.114
X29.812 Y34.311
X29.44 Y34.491
X29.06 Y34.656
X28.674 Y34.805
X28.281 Y34.938
X27.884 Y35.054
X27.481 Y35.154
X27.074 Y35.236
X26.664 Y35.302
X26.251 Y35.35
X25.837 Y35.38
X25.421 Y35.394
X25.005 Y35.39
X24.589 Y35.368
X24.174 Y35.329
X23.761 Y35.272
X23.351 Y35.198
X22.943 Y35.107
X22.54 Y34.999
X22.142 Y34.874
X21.748 Y34.732
X21.361 Y34.573
X20.981 Y34.399
X20.608 Y34.208
X20.244 Y34.002
X19.888 Y33.781
X19.541 Y33.545
X19.205 Y33.294
X18.88 Y33.03
X18.565 Y32.752
X18.263 Y32.46
X17.973 Y32.157
X17.696 Y31.841
X17.432 Y31.513
X17.182 Y31.175
X16.947 Y30.827
X16.726 Y30.469
X16.521 Y30.101
X16.331 Y29.726
X16.157 Y29.342
X15.999 Y28.952
X15.858 Y28.555
X15.733 Y28.153
X15.626 Y27.745
X15.536 Y27.333
X15.463 Y26.918
X15.407 Y26.5
X15.37 Y26.08
X15.349 Y25.659
X15.347 Y25.237
X15.362 Y24.816
X15.395 Y24.395
X15.446 Y23.976
X15.514 Y23.559
X15.6 Y23.146
X15.703 Y22.737
X15.823 Y22.332
X15.96 Y21.933
X16.114 Y21.539
X16.284 Y21.153
X16.47 Y20.774
X16.672 Y20.403
X16.889 Y20.041
X17.121 Y19.688
X17.369 Y19.345
X17.63 Y19.013
X17.905 Y18.693
X18.193 Y18.384
X18.494 Y18.087
X18.807 Y17.803
X19.132 Y17.533
X19.468 Y17.277
X19.815 Y17.034
X20.171 Y16.807
X20.537 Y16.595
X20.911 Y16.398
X21.294 Y16.217
X21.684 Y16.052
X22.08 Y15.904
X22.483 Y15.773
X22.89 Y15.658
X23.303 Y15.561
X23.719 Y15.481
X24.139 Y15.418
X24.561 Y15.374
X24.984 Y15.347
X25.409 Y15.338
X25.834 Y15.346
X26.258 Y15.373
X26.682 Y15.417
X27.103 Y15.479
X27.522 Y15.559
X27.937 Y15.657
X28.348 Y15.772
X28.754 Y15.904
X29.155 Y16.053
X29.549 Y16.219
X29.937 Y16.402
X30.316 Y16.601
X30.687 Y16.816
X31.049 Y17.046
X31.401 Y17.292
X31.743 Y17.552
X32.074 Y17.827
X32.393 Y18.115
X32.7 Y18.417
X32.994 Y18.731
X33.275 Y19.058
X33.542 Y19.397
X33.794 Y19.746
X34.032 Y20.106
X34.254 Y20.475
X34.461 Y20.854
X34.652 Y21.241
X34.826 Y21.636
X34.983 Y22.038
X35.124 Y22.446
X35.247 Y22.86
X35.353 Y23.278
X35.441 Y23.7
X35.511 Y24.126
X35.563 Y24.555
X35.597 Y24.985
X35.614 Y25.416
X35.612 Y25.847
X35.591 Y26.278
X35.553 Y26.708
X35.497 Y27.135
X35.423 Y27.56
X35.331 Y27.981
X35.221 Y28.398
X35.095 Y28.81
X34.95 Y29.217
X34.789 Y29.617
X34.612 Y30.01
X34.417 Y30.395
X34.207 Y30.771
X33.982 Y31.139
X33.74 Y31.496
X33.485 Y31.844
X33.214 Y32.18
X32.93 Y32.505
X32.632 Y32.817
X32.321 Y33.117
X31.998 Y33.404
X31.663 Y33.677
X31.317 Y33.935
X30.96 Y34.179
X30.593 Y34.408
X30.216 Y34.622
X29.831 Y34.819
X29.437 Y35
X29.036 Y35.165
X28.628 Y35.312
X28.214 Y35.443
X27.795 Y35.556
X27.372 Y35.651
X26.944 Y35.729
X26.513 Y35.788
X26.08 Y35.829
X25.645 Y35.853
X25.21 Y35.857
X24.774 Y35.844
X24.339 Y35.812
X23.906 Y35.762
X23.475 Y35.694
X23.047 Y35.608
X22.623 Y35.503
X22.203 Y35.381
X21.788 Y35.242
X21.38 Y35.085
X20.978 Y34.91
X20.584 Y34.719
X20.198 Y34.512
X19.821 Y34.288
X19.453 Y34.049
X19.096 Y33.794
X18.75 Y33.525
X18.415 Y33.241
X18.092 Y32.943
X17.782 Y32.632
X17.485 Y32.307
X17.202 Y31.971
X16.933 Y31.623
X16.679 Y31.263
X16.441 Y30.894
X16.217 Y30.514
X16.011 Y30.125
X15.82 Y29.728
X15.646 Y29.323
X15.49 Y28.912
X15.351 Y28.493
X15.229 Y28.07
X15.126 Y27.641
X15.04 Y27.208
X14.973 Y26.772
X14.924 Y26.334
X14.894 Y25.894
X14.882 Y25.453
X14.888 Y25.011
X14.914 Y24.571
X14.957 Y24.131
X15.019 Y23.694
X15.1 Y23.26
X15.199 Y22.83
X15.315 Y22.404
X15.45 Y21.983
X15.602 Y21.568
X15.771 Y21.16
X15.957 Y20.759
X16.16 Y20.367
X16.38 Y19.983
X16.615 Y19.609
X16.866 Y19.246
X17.131 Y18.893
X17.412 Y18.551
X17.707 Y18.221
X18.015 Y17.905
X18.336 Y17.601
X18.67 Y17.311
X19.016 Y17.035
X19.373 Y16.774
X19.74 Y16.529
X20.118 Y16.298
X20.505 Y16.084
X20.901 Y15.887
X21.305 Y15.706
X21.717 Y15.542
X22.135 Y15.395
X22.559 Y15.267
X22.988 Y15.156
X23.421 Y15.063
X23.859 Y14.988
X24.299 Y14.932
X24.741 Y14.895
X25.185 Y14.876
X25.629 Y14.875
X26.074 Y14.894
X26.517 Y14.931
X26.959 Y14.987
X27.399 Y15.061
X27.835 Y15.153
X28.267 Y15.264
X28.694 Y15.394
X29.116 Y15.541
X29.532 Y15.706
X29.941 Y15.888
X30.342 Y16.087
X30.734 Y16.304
X31.118 Y16.536
X31.491 Y16.785
X31.854 Y17.05
X32.206 Y17.329
X32.546 Y17.623
X32.873 Y17.932
X33.187 Y18.254
X33.488 Y18.589
X33.774 Y18.937
X34.045 Y19.296
X34.302 Y19.667
X34.542 Y20.048
X34.767 Y20.439
X34.974 Y20.84
X35.165 Y21.248
X35.339 Y21.665
X35.495 Y22.088
X35.633 Y22.517
X35.752 Y22.952
X35.854 Y23.392
X35.937 Y23.835
X36.001 Y24.282
X36.046 Y24.731
X36.072 Y25.181
X36.08 Y25.632
X36.068 Y26.082
X36.038 Y26.532
X35.989 Y26.98
X35.921 Y27.426
X35.834 Y27.868
X35.729 Y28.307
X35.605 Y28.74
X35.463 Y29.168
X35.304 Y29.589
X35.127 Y30.004
X34.933 Y30.411
X34.721 Y30.809
X34.493 Y31.198
X34.249 Y31.577
X33.99 Y31.945
X33.715 Y32.303
X33.425 Y32.649
X33.121 Y32.982
X32.802 Y33.302
X32.471 Y33.609
X32.127 Y33.901
X31.771 Y34.179
X31.403 Y34.442
X31.025 Y34.689
X30.636 Y34.921
X30.238 Y35.135
X29.831 Y35.333
X29.416 Y35.514
X28.993 Y35.677
X28.563 Y35.823
X28.128 Y35.95
X27.688 Y36.059
X27.243 Y36.15
X26.794 Y36.221
X26.343 Y36.274
X25.889 Y36.308
X25.434 Y36.322
X24.979 Y36.318
X24.524 Y36.295
X24.071 Y36.252
X23.619 Y36.19
X23.17 Y36.11
X22.725 Y36.01
X22.284 Y35.892
X21.848 Y35.755
X21.418 Y35.6
X20.995 Y35.427
X20.579 Y35.237
X20.171 Y35.028
X19.772 Y34.803
X19.383 Y34.562
X19.005 Y34.304
X18.637 Y34.03
X18.281 Y33.741
X17.937 Y33.437
X17.607 Y33.119
X17.29 Y32.787
X16.987 Y32.442
X16.698 Y32.084
X16.425 Y31.715
X16.168 Y31.334
X16.063 Y31.163
X15.937 Y30.945
X15.601 Y30.289
X15.428 Y29.945
X15.26 Y29.575
X15.102 Y29.185
X14.959 Y28.781
X14.83 Y28.365
X14.747 Y28.047
X14.744 Y28.033
G3 X15.349 Y27.853 I0.312 J-0.06
G1 X16.5 Y30.656
G3 X15.937 Y30.945 I-0.294 J0.121
G1 X15.588 Y30.341
X15.503 Y30.173
X15.344 Y29.838
X15.081 Y29.168
X15.02 Y29.001
X14.902 Y28.666
X14.85 Y28.498
X14.735 Y27.996
X14.607 Y27.269
X14.54 Y26.896
X14.486 Y26.498
X14.447 Y26.091
X14.425 Y25.669
X14.421 Y25.231
X14.436 Y24.778
X14.437 Y24.76
G3 X15.069 Y24.766 I0.316 J0.035
G1 X15.358 Y27.885
G3 X14.735 Y27.996 I-0.316 J0.029
G1 X14.621 Y27.494
X14.597 Y27.386
X14.525 Y26.991
X14.496 Y26.824
X14.421 Y25.819
X14.411 Y25.651
Y25.149
X14.421 Y24.981
X14.446 Y24.646
X14.538 Y23.914
X14.591 Y23.526
X14.665 Y23.119
X14.73 Y22.825
G3 X15.351 Y22.956 I0.307 J0.081
G1 X15.077 Y24.708
G3 X14.446 Y24.646 I-0.314 J-0.049
G1 X14.496 Y23.976
X14.525 Y23.809
X14.597 Y23.414
X14.621 Y23.306
X14.735 Y22.804
X14.935 Y22.094
X15.066 Y21.694
X15.218 Y21.287
X15.391 Y20.877
X15.584 Y20.471
X15.62 Y20.405
G3 X16.187 Y20.683 I0.269 J0.168
G1 X15.345 Y22.973
G3 X14.735 Y22.804 I-0.298 J-0.11
G1 X14.85 Y22.302
X14.902 Y22.134
X15.02 Y21.799
X15.081 Y21.632
X15.344 Y20.962
X15.503 Y20.627
X15.588 Y20.459
X15.937 Y19.855
X16.338 Y19.235
X16.548 Y18.923
X16.788 Y18.598
X17.051 Y18.27
X17.337 Y17.944
X17.611 Y17.657
X17.648 Y17.621
G3 X18.108 Y18.054 I0.208 J0.24
G1 X16.47 Y20.197
G3 X15.937 Y19.855 I-0.252 J-0.193
G1 X16.168 Y19.454
X16.273 Y19.287
X16.495 Y18.952
X17.029 Y18.282
X17.165 Y18.115
X17.301 Y17.947
X17.445 Y17.81
X17.947 Y17.344
X18.512 Y16.869
X18.811 Y16.628
X19.139 Y16.384
X19.491 Y16.145
X19.863 Y15.915
X20.251 Y15.697
X20.393 Y15.624
G3 X20.704 Y16.175 I0.128 J0.291
G1 X18.354 Y17.828
G3 X17.947 Y17.344 I-0.183 J-0.26
G1 X18.199 Y17.11
X18.282 Y17.037
X18.784 Y16.623
X18.805 Y16.607
X19.789 Y15.936
X19.957 Y15.834
X20.627 Y15.512
X20.962 Y15.35
X21.129 Y15.274
X21.632 Y15.08
X21.799 Y15.025
X22.804 Y14.716
X23.139 Y14.647
X23.386 Y14.597
X23.976 Y14.508
X24.479 Y14.441
X24.646 Y14.432
X25.484
X26.221 Y14.469
X26.589 Y14.493
X26.983 Y14.535
X27.395 Y14.597
X27.774 Y14.67
G3 X27.667 Y15.295 I-0.074 J0.309
G1 X25.462 Y15.066
G3 X25.177 Y14.75 I0.033 J-0.316
X25.484 Y14.432 I0.318 J0
G1 X26.154
X26.321 Y14.441
X26.824 Y14.508
X27.414 Y14.597
X27.828 Y14.681
X27.996 Y14.716
X29.001 Y15.025
X29.168 Y15.08
X29.671 Y15.274
X29.838 Y15.35
X30.843 Y15.834
X31.012 Y15.937
X31.995 Y16.607
X32.016 Y16.623
X32.518 Y17.037
X32.601 Y17.11
X33.355 Y17.81
X33.499 Y17.947
X33.69 Y18.182
X34.038 Y18.617
X34.305 Y18.952
X34.528 Y19.288
X34.632 Y19.454
X35.212 Y20.459
X35.297 Y20.627
X35.456 Y20.962
X35.719 Y21.632
X35.78 Y21.799
X35.898 Y22.134
X35.95 Y22.302
X36.179 Y23.306
X36.203 Y23.414
X36.275 Y23.809
X36.304 Y23.976
X36.379 Y24.981
X36.389 Y25.149
Y25.651
X36.379 Y25.819
X36.304 Y26.824
X36.275 Y26.991
X36.203 Y27.386
X36.179 Y27.494
X35.95 Y28.498
X35.898 Y28.666
X35.78 Y29.001
X35.719 Y29.168
X35.456 Y29.838
X35.297 Y30.173
X35.212 Y30.341
X34.632 Y31.346
X34.527 Y31.513
X34.305 Y31.848
X33.771 Y32.518
X33.635 Y32.685
X33.499 Y32.853
X33.355 Y32.99
X32.601 Y33.69
X32.518 Y33.763
X32.016 Y34.177
X31.995 Y34.193
X31.011 Y34.864
X30.843 Y34.966
X29.838 Y35.45
X29.671 Y35.526
X29.168 Y35.72
X29.001 Y35.775
X27.996 Y36.084
X27.661 Y36.153
X27.414 Y36.203
X26.824 Y36.292
X26.321 Y36.359
X26.154 Y36.368
X24.646
X24.479 Y36.359
X23.976 Y36.292
X23.386 Y36.203
X22.972 Y36.119
X22.804 Y36.084
X21.799 Y35.775
X21.632 Y35.72
X21.129 Y35.526
X20.962 Y35.45
X19.957 Y34.966
X19.788 Y34.863
X18.805 Y34.193
X18.784 Y34.177
X18.282 Y33.763
X18.199 Y33.69
X17.445 Y32.99
X17.301 Y32.853
X17.11 Y32.618
X16.762 Y32.183
X16.495 Y31.848
X16.272 Y31.512
X16.168 Y31.346
X16.063 Y31.163
G3 X16.168 Y30.749 I0.28 J-0.149
G1 X16.219 Y30.731 Z-9.995
X16.269 Y30.714 Z-9.981
X16.316 Y30.698 Z-9.958
X16.343 Y30.696 Z-9.94
X16.387 Y30.706 Z-9.9
X16.423 Y30.713 Z-9.853
X16.449 Y30.719 Z-9.8
X16.466 Y30.722 Z-9.742
X16.471 Y30.723 Z-9.683
G0 Z3.01
X17.556 Y29.551
Z-8.365
G1 Z-8.682 F500
X17.55 Y29.557 Z-8.753
X17.533 Y29.573 Z-8.82
X17.506 Y29.599 Z-8.88
X17.47 Y29.635 Z-8.931
X17.427 Y29.677 Z-8.969
X17.379 Y29.724 Z-8.992
X17.329 Y29.773 Z-9
G3 X15.956 Y30.853 I-5.668 J-5.795
G1 X15.87 Y30.903
X15.734 Y30.838
X15.613 Y30.749
X15.503 Y30.647
X15.401 Y30.537
X15.307 Y30.421
X15.219 Y30.299
X15.116 Y30.143
X15.01 Y29.966
X14.884 Y29.733
X14.77 Y29.502
X14.684 Y29.305
X14.579 Y29.037
X14.442 Y28.637
X14.312 Y28.198
X14.206 Y27.778
X14.138 Y27.448
X14.054 Y26.934
X13.998 Y26.466
X13.963 Y26.023
X13.949 Y25.617
X13.952 Y24.978
X13.969 Y24.626
X14.008 Y24.202
X14.073 Y23.715
X14.186 Y23.071
X14.267 Y22.702
X14.38 Y22.274
X14.548 Y21.73
X14.689 Y21.335
X14.83 Y20.987
X15.022 Y20.565
X15.331 Y19.955
X15.581 Y19.508
X15.773 Y19.196
X16.092 Y18.724
X16.392 Y18.319
X16.586 Y18.078
X16.875 Y17.749
X17.274 Y17.331
X17.691 Y16.93
X17.965 Y16.687
X18.389 Y16.343
X18.884 Y15.974
X19.123 Y15.811
X19.476 Y15.592
X20.003 Y15.294
X20.387 Y15.099
X20.773 Y14.921
X21.247 Y14.728
X21.823 Y14.52
X22.232 Y14.392
X22.635 Y14.284
X23.188 Y14.16
X23.641 Y14.079
X23.956 Y14.036
X24.436 Y13.991
X25.173 Y13.953
X25.553 Y13.948
X25.964 Y13.96
X26.498 Y13.999
X27.019 Y14.058
X27.356 Y14.111
X27.791 Y14.199
X28.383 Y14.344
X28.872 Y14.485
X29.236 Y14.607
X29.752 Y14.805
X30.295 Y15.04
X30.576 Y15.176
X30.947 Y15.374
X31.465 Y15.681
X31.792 Y15.893
X32.179 Y16.169
X32.589 Y16.487
X33.127 Y16.942
X33.348 Y17.146
X33.633 Y17.432
X34.039 Y17.874
X34.29 Y18.172
X34.527 Y18.478
X34.809 Y18.876
X35.185 Y19.458
X35.429 Y19.872
X35.608 Y20.207
X35.835 Y20.679
X36.051 Y21.18
X36.165 Y21.48
X36.311 Y21.917
X36.478 Y22.497
X36.6 Y23.001
X36.671 Y23.357
X36.757 Y23.914
X36.811 Y24.39
X36.842 Y24.83
X36.854 Y25.266
X36.845 Y25.892
X36.825 Y26.252
X36.783 Y26.675
X36.707 Y27.212
X36.597 Y27.809
X36.513 Y28.178
X36.394 Y28.616
X36.226 Y29.142
X36.078 Y29.548
X35.94 Y29.881
X35.726 Y30.343
X35.422 Y30.932
X35.184 Y31.35
X34.974 Y31.684
X34.625 Y32.191
X34.375 Y32.524
X34.171 Y32.774
X33.851 Y33.131
X33.461 Y33.534
X33.05 Y33.923
X32.767 Y34.169
X32.293 Y34.548
X31.873 Y34.856
X31.621 Y35.025
X31.234 Y35.261
X30.729 Y35.541
X30.314 Y35.748
X29.956 Y35.909
X29.429 Y36.12
X28.91 Y36.302
X28.489 Y36.431
X28.072 Y36.539
X27.478 Y36.666
X27.114 Y36.729
X26.776 Y36.772
X26.246 Y36.818
X25.509 Y36.85
X25.176 Y36.851
X24.741 Y36.835
X24.209 Y36.792
X23.687 Y36.728
X23.367 Y36.674
X22.889 Y36.574
X22.326 Y36.431
X21.849 Y36.289
X21.471 Y36.158
X20.891 Y35.93
X20.44 Y35.73
X20.162 Y35.593
X19.758 Y35.372
X19.273 Y35.079
X18.918 Y34.844
X18.549 Y34.577
X18.094 Y34.217
X17.628 Y33.816
X17.396 Y33.598
X17.089 Y33.286
X16.709 Y32.864
X16.455 Y32.558
X16.009 Y31.97
X15.523 Y31.415
X15.303 Y31.159
X15.121 Y30.927
X14.949 Y30.69
X14.791 Y30.449
X14.649 Y30.214
X14.514 Y29.966
X14.372 Y29.677
X14.234 Y29.363
X14.1 Y29.022
X13.972 Y28.648
X13.863 Y28.282
X13.757 Y27.861
X13.665 Y27.418
X13.591 Y26.967
X13.537 Y26.524
X13.496 Y26.009
X13.479 Y25.54
X13.482 Y25.079
X13.504 Y24.602
X13.552 Y24.068
X13.618 Y23.57
X13.701 Y23.093
X13.812 Y22.587
X13.938 Y22.111
X14.073 Y21.672
X14.23 Y21.231
X14.431 Y20.733
X14.657 Y20.233
X14.88 Y19.792
X15.135 Y19.336
X15.409 Y18.891
X15.665 Y18.511
X15.937 Y18.143
X16.253 Y17.75
X16.605 Y17.349
X16.942 Y16.995
X17.311 Y16.64
X17.713 Y16.283
X18.096 Y15.972
X18.464 Y15.698
X18.888 Y15.408
X19.306 Y15.148
X19.721 Y14.913
X20.162 Y14.687
X20.649 Y14.464
X21.127 Y14.268
X21.583 Y14.103
X22.078 Y13.948
X22.566 Y13.816
X23.005 Y13.718
X23.465 Y13.635
X23.998 Y13.561
X24.547 Y13.509
X25.033 Y13.484
X25.543 Y13.478
X26.065 Y13.495
X26.531 Y13.529
X26.993 Y13.583
X27.508 Y13.665
X28.021 Y13.769
X28.49 Y13.884
X28.983 Y14.028
X29.501 Y14.203
X29.944 Y14.373
X30.368 Y14.557
X30.832 Y14.783
X31.255 Y15.01
X31.672 Y15.258
X32.094 Y15.533
X32.546 Y15.856
X32.957 Y16.176
X33.312 Y16.477
X33.692 Y16.829
X34.032 Y17.17
X34.339 Y17.506
X34.643 Y17.868
X34.98 Y18.305
X35.292 Y18.746
X35.557 Y19.158
X35.814 Y19.596
X36.061 Y20.061
X36.262 Y20.48
X36.447 Y20.912
X36.632 Y21.399
X36.798 Y21.9
X36.929 Y22.36
X37.05 Y22.86
X37.148 Y23.359
X37.223 Y23.846
X37.276 Y24.323
X37.312 Y24.858
X37.325 Y25.341
X37.318 Y25.811
X37.289 Y26.312
X37.235 Y26.852
X37.165 Y27.343
X37.075 Y27.822
X36.96 Y28.325
X36.829 Y28.801
X36.69 Y29.235
X36.525 Y29.686
X36.314 Y30.192
X36.089 Y30.677
X35.862 Y31.114
X35.593 Y31.583
X35.324 Y32.011
X35.068 Y32.381
X34.787 Y32.754
X34.466 Y33.144
X34.111 Y33.541
X33.772 Y33.889
X33.384 Y34.255
X32.98 Y34.606
X32.617 Y34.895
X32.24 Y35.171
X31.815 Y35.454
X31.386 Y35.715
X30.973 Y35.943
X30.516 Y36.171
X30.032 Y36.387
X29.561 Y36.574
X29.1 Y36.735
X28.588 Y36.89
X28.118 Y37.012
X27.684 Y37.104
X27.211 Y37.185
X26.661 Y37.254
X26.133 Y37.299
X25.646 Y37.319
X25.137 Y37.32
X24.615 Y37.298
X24.156 Y37.259
X23.682 Y37.199
X23.17 Y37.112
X22.663 Y37.004
X22.193 Y36.883
X21.678 Y36.727
X21.177 Y36.552
X20.748 Y36.382
X20.321 Y36.191
X19.866 Y35.964
X19.44 Y35.729
X19.027 Y35.478
X18.592 Y35.188
X18.14 Y34.858
X17.759 Y34.555
X17.4 Y34.244
X17.026 Y33.891
X16.691 Y33.546
X16.199 Y32.997
X15.729 Y32.428
X15.25 Y31.867
X15.021 Y31.581
X14.984 Y31.53
X14.948 Y31.479
X14.915 Y31.425
X14.58 Y30.843
X14.342 Y30.341
X14.271 Y30.173
X13.876 Y29.168
X13.827 Y29.001
X13.74 Y28.666
X13.698 Y28.498
X13.469 Y27.494
X13.438 Y27.326
X13.371 Y26.824
X13.296 Y25.819
X13.286 Y25.651
Y25.149
X13.296 Y24.981
X13.371 Y23.976
X13.438 Y23.474
X13.469 Y23.306
X13.698 Y22.302
X13.76 Y22.057
X13.827 Y21.799
X13.876 Y21.632
X14.271 Y20.627
X14.342 Y20.459
X14.58 Y19.957
X15.353 Y18.617
X15.435 Y18.5
X15.602 Y18.276
X15.77 Y18.063
X16.105 Y17.644
X16.44 Y17.234
X16.548 Y17.11
X17.78 Y15.967
X17.815 Y15.937
X18.115 Y15.724
X18.287 Y15.602
X18.784 Y15.263
X19.287 Y14.93
X19.454 Y14.831
X20.635 Y14.262
X20.794 Y14.193
X21.031 Y14.095
X21.129 Y14.057
X22.302 Y13.695
X22.469 Y13.645
X22.804 Y13.553
X22.972 Y13.526
X23.976 Y13.375
X24.479 Y13.315
X24.646 Y13.308
X26.154
X26.321 Y13.315
X26.824 Y13.375
X27.828 Y13.526
X27.996 Y13.553
X28.331 Y13.645
X28.498 Y13.695
X29.671 Y14.057
X29.769 Y14.095
X30.006 Y14.193
X30.173 Y14.267
X31.346 Y14.831
X31.517 Y14.932
X32.021 Y15.267
X32.518 Y15.606
X32.853 Y15.843
X32.985 Y15.937
X33.02 Y15.967
X34.252 Y17.11
X34.36 Y17.234
X34.695 Y17.644
X35.071 Y18.115
X35.202 Y18.282
X35.365 Y18.5
X35.447 Y18.617
X36.22 Y19.957
X36.458 Y20.459
X36.529 Y20.627
X36.924 Y21.632
X36.973 Y21.799
X37.06 Y22.134
X37.102 Y22.302
X37.331 Y23.306
X37.362 Y23.474
X37.429 Y23.976
X37.504 Y24.981
X37.514 Y25.149
Y25.651
X37.504 Y25.819
X37.429 Y26.824
X37.362 Y27.326
X37.331 Y27.494
X37.102 Y28.498
X37.04 Y28.743
X36.973 Y29.001
X36.924 Y29.168
X36.529 Y30.173
X36.458 Y30.341
X36.22 Y30.843
X35.447 Y32.183
X35.365 Y32.3
X35.198 Y32.524
X35.03 Y32.737
X34.695 Y33.156
X34.36 Y33.566
X34.252 Y33.69
X33.02 Y34.833
X32.985 Y34.863
X32.685 Y35.076
X32.513 Y35.198
X32.016 Y35.537
X31.513 Y35.87
X31.346 Y35.969
X30.165 Y36.538
X30.006 Y36.607
X29.769 Y36.705
X29.671 Y36.743
X28.498 Y37.105
X28.331 Y37.155
X27.996 Y37.247
X27.828 Y37.274
X26.824 Y37.425
X26.321 Y37.485
X26.154 Y37.492
X24.646
X24.479 Y37.485
X23.976 Y37.425
X22.972 Y37.274
X22.804 Y37.247
X22.469 Y37.155
X22.302 Y37.105
X21.129 Y36.743
X21.031 Y36.705
X20.794 Y36.607
X20.627 Y36.533
X19.454 Y35.969
X19.283 Y35.868
X18.779 Y35.533
X18.282 Y35.194
X17.947 Y34.957
X17.815 Y34.863
X17.78 Y34.833
X16.548 Y33.69
X16.44 Y33.566
X16.105 Y33.156
X15.729 Y32.685
X15.598 Y32.518
X15.435 Y32.3
X15.353 Y32.183
X14.915 Y31.425
G3 X15.02 Y31.011 I0.28 J-0.149
G1 X15.071 Y30.993 Z-8.995
X15.121 Y30.976 Z-8.981
X15.168 Y30.96 Z-8.958
X15.196 Y30.958 Z-8.94
X15.239 Y30.968 Z-8.9
X15.275 Y30.975 Z-8.853
X15.302 Y30.981 Z-8.8
X15.318 Y30.984 Z-8.742
X15.323 Y30.985 Z-8.683
G0 Z3.01
X25.073 Y35.37
Z-7.365
G1 Z-7.682 F500
X25.075 Y35.378 Z-7.753
X25.081 Y35.4 Z-7.82
X25.09 Y35.437 Z-7.88
X25.102 Y35.486 Z-7.931
X25.117 Y35.544 Z-7.969
X25.134 Y35.609 Z-7.992
X25.152 Y35.677 Z-8
G3 X25.4 Y37.406 I-7.852 J2.011
G1 Y37.514
X25.281 Y37.605
X25.145 Y37.668
X25.003 Y37.717
X24.857 Y37.751
X24.709 Y37.776
X24.56 Y37.793
X24.381 Y37.805
X24.146 Y37.811
X23.834 Y37.806
X23.569 Y37.791
X23.324 Y37.766
X23.047 Y37.727
X22.669 Y37.656
X22.053 Y37.514
X21.648 Y37.403
X21.282 Y37.286
X20.844 Y37.125
X20.163 Y36.841
X19.828 Y36.686
X19.469 Y36.501
X18.965 Y36.213
X18.349 Y35.826
X18.088 Y35.646
X17.742 Y35.386
X17.171 Y34.918
X16.774 Y34.565
X16.5 Y34.3
X16.126 Y33.905
X15.674 Y33.387
X15.443 Y33.099
X15.203 Y32.772
X14.82 Y32.202
X14.513 Y31.7
X14.268 Y31.259
X14.045 Y30.814
X13.767 Y30.198
X13.629 Y29.853
X13.483 Y29.438
X13.296 Y28.829
X13.149 Y28.262
X13.049 Y27.803
X12.969 Y27.34
X12.882 Y26.669
X12.839 Y26.172
X12.821 Y25.777
X12.82 Y25.185
X12.843 Y24.595
X12.88 Y24.14
X12.934 Y23.7
X13.047 Y23.026
X13.172 Y22.427
X13.259 Y22.088
X13.418 Y21.558
X13.598 Y21.038
X13.781 Y20.572
X13.952 Y20.188
X14.274 Y19.537
X14.557 Y19.02
X14.763 Y18.679
X15.048 Y18.25
X15.473 Y17.663
X15.689 Y17.39
X15.95 Y17.088
X16.409 Y16.599
X16.861 Y16.157
X17.143 Y15.903
X17.525 Y15.586
X18.113 Y15.14
X18.464 Y14.895
X18.781 Y14.694
X19.308 Y14.389
X19.881 Y14.089
X20.227 Y13.926
X20.646 Y13.75
X21.337 Y13.493
X21.851 Y13.325
X22.199 Y13.228
X22.744 Y13.1
X23.389 Y12.976
X23.752 Y12.923
X24.176 Y12.878
X24.912 Y12.832
X25.48 Y12.82
X25.915 Y12.829
X26.442 Y12.862
X27.137 Y12.935
X27.485 Y12.987
X27.893 Y13.065
X28.556 Y13.221
X29.126 Y13.381
X29.517 Y13.508
X29.98 Y13.681
X30.66 Y13.968
X30.993 Y14.124
X31.364 Y14.317
X31.884 Y14.616
X32.48 Y14.993
X32.737 Y15.171
X33.096 Y15.443
X33.665 Y15.913
X34.032 Y16.241
X34.309 Y16.51
X34.687 Y16.909
X35.135 Y17.424
X35.362 Y17.708
X35.604 Y18.039
X35.993 Y18.619
X36.293 Y19.11
X36.537 Y19.55
X36.762 Y20
X37.037 Y20.612
X37.175 Y20.958
X37.321 Y21.374
X37.51 Y21.993
X37.654 Y22.548
X37.753 Y23.007
X37.833 Y23.475
X37.919 Y24.143
X37.962 Y24.639
X37.979 Y25.036
X37.98 Y25.638
X37.956 Y26.221
X37.919 Y26.669
X37.864 Y27.114
X37.75 Y27.792
X37.626 Y28.381
X37.538 Y28.724
X37.376 Y29.262
X37.198 Y29.775
X37.015 Y30.237
X36.842 Y30.625
X36.514 Y31.286
X36.239 Y31.786
X36.032 Y32.128
X35.744 Y32.562
X35.317 Y33.149
X35.107 Y33.415
X34.843 Y33.72
X34.377 Y34.216
X33.934 Y34.648
X33.65 Y34.904
X33.264 Y35.222
X32.676 Y35.668
X32.33 Y35.908
X32.012 Y36.111
X31.477 Y36.419
X30.91 Y36.715
X30.566 Y36.877
X30.144 Y37.054
X29.453 Y37.311
X28.944 Y37.476
X28.595 Y37.574
X28.046 Y37.703
X27.405 Y37.825
X27.043 Y37.878
X26.309 Y37.955
X25.587 Y38.105
X25.259 Y38.163
X24.952 Y38.205
X24.637 Y38.234
X24.33 Y38.25
X24.034 Y38.252
X23.738 Y38.243
X23.414 Y38.218
X23.008 Y38.17
X22.593 Y38.104
X22.175 Y38.018
X21.769 Y37.918
X21.342 Y37.792
X20.804 Y37.61
X20.334 Y37.428
X19.901 Y37.239
X19.432 Y37.01
X18.895 Y36.72
X18.462 Y36.462
X18.058 Y36.197
X17.575 Y35.852
X17.117 Y35.493
X16.729 Y35.163
X16.339 Y34.801
X15.916 Y34.374
X15.567 Y33.992
X15.259 Y33.624
X14.912 Y33.172
X14.575 Y32.693
X14.271 Y32.22
X13.997 Y31.751
X13.714 Y31.217
X13.49 Y30.748
X13.296 Y30.292
X13.098 Y29.768
X12.917 Y29.219
X12.769 Y28.697
X12.647 Y28.19
X12.534 Y27.609
X12.45 Y27.053
X12.395 Y26.552
X12.359 Y26.006
X12.344 Y25.434
X12.354 Y24.9
X12.384 Y24.395
X12.443 Y23.814
X12.529 Y23.218
X12.623 Y22.716
X12.744 Y22.194
X12.89 Y21.665
X13.055 Y21.153
X13.228 Y20.685
X13.458 Y20.133
X13.713 Y19.588
X13.957 Y19.119
X14.222 Y18.659
X14.551 Y18.138
X14.846 Y17.712
X15.135 Y17.331
X15.493 Y16.897
X15.892 Y16.452
X16.255 Y16.081
X16.632 Y15.726
X17.098 Y15.323
X17.532 Y14.979
X17.928 Y14.691
X18.383 Y14.388
X18.891 Y14.08
X19.344 Y13.831
X19.792 Y13.609
X20.345 Y13.363
X20.893 Y13.146
X21.37 Y12.98
X21.882 Y12.826
X22.457 Y12.679
X22.955 Y12.573
X23.432 Y12.493
X24.022 Y12.419
X24.614 Y12.37
X25.15 Y12.349
X25.692 Y12.35
X26.304 Y12.376
X26.818 Y12.42
X27.297 Y12.482
X27.86 Y12.578
X28.435 Y12.702
X28.942 Y12.833
X29.439 Y12.985
X30.026 Y13.191
X30.525 Y13.39
X30.977 Y13.593
X31.466 Y13.838
X32.01 Y14.139
X32.438 Y14.4
X32.843 Y14.671
X33.336 Y15.032
X33.79 Y15.395
X34.171 Y15.726
X34.558 Y16.093
X34.981 Y16.528
X35.32 Y16.908
X35.621 Y17.276
X35.97 Y17.74
X36.303 Y18.223
X36.6 Y18.697
X36.87 Y19.169
X37.148 Y19.709
X37.365 Y20.175
X37.552 Y20.629
X37.747 Y21.162
X37.923 Y21.713
X38.065 Y22.234
X38.181 Y22.741
X38.289 Y23.327
X38.367 Y23.883
X38.416 Y24.379
X38.447 Y24.931
X38.456 Y25.505
X38.441 Y26.034
X38.406 Y26.535
X38.34 Y27.123
X38.247 Y27.721
X38.149 Y28.215
X38.022 Y28.738
X37.871 Y29.265
X37.701 Y29.773
X37.525 Y30.236
X37.284 Y30.796
X37.023 Y31.339
X36.777 Y31.8
X36.508 Y32.257
X36.169 Y32.782
X35.876 Y33.195
X35.586 Y33.57
X35.218 Y34.007
X34.812 Y34.449
X34.449 Y34.813
X34.069 Y35.163
X33.591 Y35.568
X33.158 Y35.904
X32.764 Y36.185
X32.303 Y36.485
X31.787 Y36.79
X31.337 Y37.031
X30.891 Y37.247
X30.326 Y37.491
X29.774 Y37.703
X29.303 Y37.861
X28.788 Y38.011
X28.207 Y38.153
X27.715 Y38.252
X26.986 Y38.366
X25.644 Y38.597
X25.566 Y38.607
X25.513 Y38.613
X25.459 Y38.616
X25.406 Y38.617
X24.646
X24.479 Y38.61
X23.976 Y38.559
X22.972 Y38.408
X22.797 Y38.38
X22.302 Y38.275
X22.134 Y38.228
X20.627 Y37.763
X20.485 Y37.71
X18.952 Y36.972
X18.784 Y36.884
X18.261 Y36.538
X17.445 Y35.981
X17.11 Y35.743
X16.882 Y35.533
X15.98 Y34.695
X15.602 Y34.313
X15.497 Y34.193
X14.695 Y33.188
X14.597 Y33.054
X14.262 Y32.544
X13.667 Y31.513
X13.593 Y31.379
X13.331 Y30.843
X13.258 Y30.661
X12.923 Y29.807
X12.87 Y29.671
X12.705 Y29.168
X12.661 Y29.001
X12.317 Y27.494
X12.289 Y27.326
X12.246 Y26.824
X12.171 Y25.819
X12.161 Y25.651
Y25.149
X12.171 Y24.981
X12.246 Y23.976
X12.289 Y23.474
X12.317 Y23.306
X12.661 Y21.799
X12.705 Y21.632
X12.87 Y21.129
X12.935 Y20.962
X13.264 Y20.124
X13.331 Y19.957
X13.593 Y19.421
X13.667 Y19.287
X14.262 Y18.256
X14.597 Y17.746
X14.695 Y17.612
X15.497 Y16.607
X15.602 Y16.487
X15.98 Y16.105
X17.063 Y15.1
X17.11 Y15.057
X17.445 Y14.819
X18.282 Y14.249
X18.784 Y13.916
X18.952 Y13.828
X20.485 Y13.09
X20.627 Y13.037
X22.134 Y12.572
X22.302 Y12.525
X22.804 Y12.419
X22.972 Y12.392
X23.976 Y12.241
X24.479 Y12.19
X24.646 Y12.183
X26.154
X26.321 Y12.19
X26.824 Y12.241
X27.828 Y12.392
X28.003 Y12.42
X28.498 Y12.525
X28.666 Y12.572
X30.173 Y13.037
X30.315 Y13.09
X31.848 Y13.828
X32.016 Y13.916
X32.539 Y14.262
X33.355 Y14.819
X33.69 Y15.057
X33.918 Y15.267
X34.82 Y16.105
X35.198 Y16.487
X35.303 Y16.607
X36.105 Y17.612
X36.203 Y17.746
X36.538 Y18.256
X37.133 Y19.287
X37.207 Y19.42
X37.469 Y19.957
X37.542 Y20.139
X37.877 Y20.993
X37.93 Y21.129
X38.095 Y21.632
X38.139 Y21.799
X38.483 Y23.306
X38.511 Y23.474
X38.554 Y23.976
X38.629 Y24.981
X38.639 Y25.149
Y25.651
X38.629 Y25.819
X38.554 Y26.824
X38.511 Y27.326
X38.483 Y27.494
X38.139 Y29.001
X38.095 Y29.168
X37.93 Y29.671
X37.865 Y29.838
X37.536 Y30.676
X37.469 Y30.843
X37.207 Y31.38
X37.133 Y31.513
X36.538 Y32.544
X36.203 Y33.054
X36.105 Y33.188
X35.303 Y34.193
X35.198 Y34.313
X34.82 Y34.695
X33.737 Y35.7
X33.69 Y35.743
X33.355 Y35.981
X32.518 Y36.551
X32.016 Y36.884
X31.848 Y36.972
X30.315 Y37.71
X30.173 Y37.763
X28.666 Y38.228
X28.498 Y38.275
X27.996 Y38.381
X27.828 Y38.408
X26.824 Y38.559
X26.321 Y38.61
X26.154 Y38.617
X25.406
G3 X25.1 Y38.32 I0.011 J-0.317
G1 X25.099 Y38.3 Z-7.999
X25.113 Y38.247 Z-7.991
X25.126 Y38.196 Z-7.973
X25.138 Y38.148 Z-7.946
X25.169 Y38.113 Z-7.906
X25.194 Y38.084 Z-7.858
X25.213 Y38.062 Z-7.803
X25.225 Y38.049 Z-7.744
X25.229 Y38.044 Z-7.683
G0 Z3.01
X34.859 Y31.239
Z-6.365
G1 Z-6.682 F500
X34.867 Y31.241 Z-6.753
X34.889 Y31.247 Z-6.82
X34.926 Y31.258 Z-6.88
X34.974 Y31.271 Z-6.931
X35.032 Y31.287 Z-6.969
X35.097 Y31.305 Z-6.992
X35.165 Y31.324 Z-7
G3 X36.786 Y31.973 I-2.184 J7.806
G1 X36.875 Y32.025
X36.888 Y32.174
X36.873 Y32.323
X36.84 Y32.47
X36.798 Y32.613
X36.747 Y32.754
X36.688 Y32.892
X36.612 Y33.049
X36.505 Y33.249
X36.346 Y33.516
X36.156 Y33.809
X35.999 Y34.03
X35.788 Y34.301
X35.551 Y34.58
X35.152 Y35.013
X34.669 Y35.496
X34.414 Y35.729
X34.076 Y36.014
X33.505 Y36.455
X32.964 Y36.838
X32.665 Y37.031
X32.191 Y37.31
X31.54 Y37.657
X31.174 Y37.84
X30.844 Y37.988
X30.306 Y38.201
X29.61 Y38.445
X29.155 Y38.587
X28.733 Y38.7
X28.078 Y38.845
X27.424 Y38.962
X27.03 Y39.015
X26.543 Y39.06
X25.806 Y39.098
X25.263 Y39.107
X24.791 Y39.095
X24.24 Y39.058
X23.539 Y38.982
X23.019 Y38.903
X22.607 Y38.822
X21.903 Y38.654
X21.203 Y38.455
X20.884 Y38.349
X20.399 Y38.166
X19.72 Y37.877
X19.302 Y37.683
X18.936 Y37.495
X18.438 Y37.211
X17.813 Y36.819
X17.468 Y36.587
X17.158 Y36.359
X16.662 Y35.963
X16.106 Y35.478
X15.762 Y35.153
X15.445 Y34.828
X14.953 Y34.278
X14.648 Y33.908
X14.345 Y33.506
X14.025 Y33.043
X13.631 Y32.419
X13.346 Y31.926
X13.15 Y31.553
X12.857 Y30.93
X12.614 Y30.352
X12.47 Y29.966
X12.314 Y29.485
X12.115 Y28.774
X11.993 Y28.275
X11.916 Y27.893
X11.829 Y27.341
X11.744 Y26.608
X11.706 Y26.092
X11.692 Y25.662
X11.698 Y24.966
X11.735 Y24.245
X11.767 Y23.911
X11.836 Y23.405
X11.966 Y22.679
X12.07 Y22.192
X12.19 Y21.731
X12.36 Y21.172
X12.58 Y20.545
X12.771 Y20.066
X12.954 Y19.657
X13.284 Y18.997
X13.586 Y18.449
X13.829 Y18.049
X14.125 Y17.605
X14.559 Y17.009
X14.818 Y16.68
X15.117 Y16.332
X15.561 Y15.857
X16.087 Y15.339
X16.34 Y15.106
X16.671 Y14.826
X17.23 Y14.391
X17.809 Y13.979
X18.109 Y13.784
X18.567 Y13.513
X19.217 Y13.164
X19.619 Y12.964
X19.947 Y12.817
X20.476 Y12.605
X21.173 Y12.361
X21.62 Y12.22
X22.048 Y12.105
X22.686 Y11.962
X23.355 Y11.842
X23.756 Y11.787
X24.233 Y11.742
X24.969 Y11.703
X25.531 Y11.693
X26.003 Y11.704
X26.55 Y11.741
X27.253 Y11.817
X27.775 Y11.896
X28.186 Y11.976
X28.884 Y12.143
X29.594 Y12.344
X29.911 Y12.449
X30.393 Y12.63
X31.072 Y12.919
X31.495 Y13.115
X31.858 Y13.303
X32.354 Y13.585
X32.98 Y13.976
X33.33 Y14.212
X33.639 Y14.439
X34.133 Y14.833
X34.689 Y15.318
X35.036 Y15.645
X35.351 Y15.969
X35.844 Y16.519
X36.149 Y16.889
X36.453 Y17.291
X36.772 Y17.753
X37.166 Y18.376
X37.452 Y18.87
X37.647 Y19.242
X37.939 Y19.861
X38.184 Y20.442
X38.329 Y20.831
X38.484 Y21.309
X38.683 Y22.02
X38.807 Y22.524
X38.884 Y22.905
X38.971 Y23.457
X39.056 Y24.19
X39.094 Y24.706
X39.108 Y25.135
X39.102 Y25.829
X39.065 Y26.553
X39.034 Y26.886
X38.965 Y27.392
X38.835 Y28.118
X38.73 Y28.606
X38.611 Y29.067
X38.441 Y29.624
X38.221 Y30.253
X38.03 Y30.732
X37.728 Y31.406
X37.488 Y32.103
X37.375 Y32.426
X37.258 Y32.718
X37.128 Y33.008
X36.979 Y33.304
X36.824 Y33.584
X36.651 Y33.867
X36.458 Y34.154
X36.223 Y34.474
X35.957 Y34.807
X35.609 Y35.206
X35.287 Y35.546
X34.952 Y35.87
X34.527 Y36.248
X34.054 Y36.636
X33.635 Y36.95
X33.189 Y37.256
X32.655 Y37.59
X32.11 Y37.901
X31.647 Y38.14
X31.144 Y38.372
X30.528 Y38.626
X29.946 Y38.839
X29.429 Y39.003
X28.838 Y39.164
X28.207 Y39.307
X27.678 Y39.404
X27.158 Y39.477
X26.483 Y39.543
X25.85 Y39.578
X25.282 Y39.585
X24.707 Y39.569
X24.06 Y39.523
X23.509 Y39.461
X22.943 Y39.372
X22.331 Y39.25
X21.699 Y39.096
X21.184 Y38.948
X20.641 Y38.766
X20.019 Y38.528
X19.516 Y38.311
X19.007 Y38.066
X18.441 Y37.764
X17.908 Y37.449
X17.464 Y37.161
X16.989 Y36.825
X16.467 Y36.42
X16.008 Y36.032
X15.606 Y35.663
X15.153 Y35.21
X14.759 Y34.782
X14.4 Y34.357
X14.052 Y33.908
X13.67 Y33.37
X13.32 Y32.831
X13.04 Y32.356
X12.746 Y31.807
X12.471 Y31.237
X12.256 Y30.738
X12.065 Y30.239
X11.85 Y29.596
X11.677 Y29
X11.548 Y28.468
X11.439 Y27.922
X11.336 Y27.266
X11.271 Y26.698
X11.231 Y26.131
X11.213 Y25.516
X11.221 Y24.872
X11.251 Y24.342
X11.306 Y23.775
X11.398 Y23.117
X11.5 Y22.556
X11.629 Y21.988
X11.792 Y21.389
X11.97 Y20.827
X12.156 Y20.315
X12.394 Y19.739
X12.664 Y19.156
X12.931 Y18.636
X13.214 Y18.139
X13.555 Y17.595
X13.887 Y17.111
X14.214 Y16.675
X14.59 Y16.215
X15.03 Y15.721
X15.441 Y15.296
X15.828 Y14.929
X16.292 Y14.524
X16.811 Y14.108
X17.248 Y13.787
X17.702 Y13.482
X18.276 Y13.131
X18.814 Y12.832
X19.29 Y12.593
X19.787 Y12.37
X20.434 Y12.11
X20.965 Y11.923
X21.533 Y11.749
X22.117 Y11.597
X22.706 Y11.47
X23.231 Y11.379
X23.827 Y11.302
X24.48 Y11.245
X25.063 Y11.218
X25.642 Y11.217
X26.276 Y11.242
X26.876 Y11.29
X27.412 Y11.357
X28.018 Y11.458
X28.67 Y11.595
X29.207 Y11.732
X29.728 Y11.888
X30.323 Y12.094
X30.91 Y12.325
X31.409 Y12.547
X31.915 Y12.797
X32.503 Y13.119
X33.028 Y13.436
X33.458 Y13.722
X33.927 Y14.062
X34.456 Y14.48
X34.908 Y14.87
X35.3 Y15.238
X35.753 Y15.701
X36.14 Y16.13
X36.491 Y16.555
X36.833 Y17.005
X37.22 Y17.562
X37.558 Y18.096
X37.836 Y18.578
X38.124 Y19.129
X38.387 Y19.69
X38.594 Y20.184
X38.787 Y20.705
X39.002 Y21.37
X39.15 Y21.901
X39.277 Y22.447
X39.394 Y23.068
X39.482 Y23.672
X39.539 Y24.218
X39.576 Y24.827
X39.588 Y25.485
X39.575 Y26.036
X39.54 Y26.574
X39.473 Y27.196
X39.38 Y27.815
X39.271 Y28.378
X39.135 Y28.947
X38.965 Y29.55
X38.781 Y30.11
X38.521 Y30.801
X38.25 Y31.487
X37.997 Y32.18
X37.917 Y32.38
X37.893 Y32.434
X37.867 Y32.488
X37.839 Y32.54
X37.542 Y33.053
X37.46 Y33.188
X37.207 Y33.585
X37.138 Y33.69
X36.035 Y35.074
X35.93 Y35.198
X34.528 Y36.499
X34.483 Y36.538
X34.277 Y36.705
X34.193 Y36.768
X33.02 Y37.567
X32.853 Y37.68
X32.547 Y37.877
X32.518 Y37.894
X30.843 Y38.701
X30.676 Y38.774
X30.508 Y38.836
X28.833 Y39.352
X28.723 Y39.385
X28.666 Y39.4
X28.498 Y39.441
X26.824 Y39.693
X26.321 Y39.736
X26.154 Y39.742
X24.646
X24.479 Y39.736
X23.976 Y39.693
X22.302 Y39.441
X22.134 Y39.4
X22.077 Y39.385
X21.967 Y39.352
X20.292 Y38.836
X20.124 Y38.774
X19.957 Y38.701
X18.282 Y37.894
X18.253 Y37.877
X17.947 Y37.68
X17.612 Y37.453
X16.607 Y36.768
X16.523 Y36.705
X16.317 Y36.538
X16.272 Y36.499
X14.87 Y35.198
X14.765 Y35.074
X13.662 Y33.69
X13.593 Y33.585
X13.34 Y33.188
X13.258 Y33.053
X12.588 Y31.893
X12.562 Y31.848
X12.4 Y31.513
X12.322 Y31.346
X11.73 Y29.838
X11.666 Y29.671
X11.547 Y29.168
X11.279 Y27.996
X11.215 Y27.661
X11.183 Y27.494
X11.159 Y27.326
X11.046 Y25.819
X11.036 Y25.651
Y25.149
X11.046 Y24.981
X11.159 Y23.474
X11.183 Y23.306
X11.248 Y22.965
X11.279 Y22.804
X11.547 Y21.632
X11.666 Y21.129
X11.75 Y20.911
X12.322 Y19.454
X12.4 Y19.287
X12.562 Y18.952
X12.588 Y18.907
X13.258 Y17.747
X13.34 Y17.612
X13.593 Y17.215
X13.662 Y17.11
X14.765 Y15.726
X14.87 Y15.602
X16.272 Y14.301
X16.317 Y14.262
X16.523 Y14.095
X16.607 Y14.032
X17.78 Y13.233
X17.947 Y13.12
X18.253 Y12.923
X18.282 Y12.906
X19.957 Y12.099
X20.124 Y12.026
X20.292 Y11.964
X21.967 Y11.448
X22.077 Y11.415
X22.134 Y11.4
X22.302 Y11.359
X23.976 Y11.107
X24.479 Y11.064
X24.646 Y11.058
X26.154
X26.321 Y11.064
X26.824 Y11.107
X28.498 Y11.359
X28.666 Y11.4
X28.723 Y11.415
X28.833 Y11.448
X30.508 Y11.964
X30.676 Y12.026
X30.843 Y12.099
X32.518 Y12.906
X32.547 Y12.923
X32.853 Y13.12
X33.188 Y13.347
X34.193 Y14.032
X34.277 Y14.095
X34.483 Y14.262
X34.528 Y14.301
X35.93 Y15.602
X36.035 Y15.726
X37.138 Y17.11
X37.207 Y17.215
X37.46 Y17.612
X37.542 Y17.747
X38.212 Y18.907
X38.238 Y18.952
X38.4 Y19.287
X38.478 Y19.454
X39.07 Y20.962
X39.134 Y21.129
X39.253 Y21.632
X39.521 Y22.804
X39.585 Y23.139
X39.617 Y23.306
X39.641 Y23.474
X39.754 Y24.981
X39.764 Y25.149
Y25.651
X39.754 Y25.819
X39.641 Y27.326
X39.617 Y27.494
X39.552 Y27.835
X39.521 Y27.996
X39.253 Y29.168
X39.134 Y29.671
X39.05 Y29.889
X38.478 Y31.346
X38.4 Y31.513
X38.238 Y31.848
X38.212 Y31.893
X37.839 Y32.54
G3 X37.428 Y32.656 I-0.269 J-0.168
G1 X37.387 Y32.621 Z-6.995
X37.347 Y32.586 Z-6.981
X37.31 Y32.554 Z-6.958
X37.292 Y32.508 Z-6.922
X37.277 Y32.469 Z-6.878
X37.266 Y32.439 Z-6.827
X37.258 Y32.418 Z-6.771
X37.254 Y32.408 Z-6.711
Y32.406 Z-6.682
G0 Z3.01
X26.91 Y37.616
Z-5.365
G1 Z-5.682 F500
X26.913 Y37.624 Z-5.753
X26.923 Y37.645 Z-5.82
X26.937 Y37.68 Z-5.88
X26.957 Y37.726 Z-5.931
X26.98 Y37.782 Z-5.969
X27.006 Y37.844 Z-5.992
X27.034 Y37.909 Z-6
G3 X27.537 Y39.581 I-7.465 J3.159
G1 X27.545 Y39.629
X27.433 Y39.729
X27.306 Y39.809
X27.171 Y39.875
X27.032 Y39.931
X26.89 Y39.978
X26.745 Y40.017
X26.571 Y40.056
X26.343 Y40.097
X26.026 Y40.14
X25.59 Y40.18
X25.236 Y40.198
X24.848 Y40.202
X24.467 Y40.189
X23.849 Y40.143
X23.117 Y40.057
X22.764 Y40.002
X22.341 Y39.918
X21.623 Y39.745
X20.914 Y39.542
X20.567 Y39.431
X20.132 Y39.271
X19.451 Y38.988
X18.781 Y38.681
X18.428 Y38.501
X17.956 Y38.234
X17.329 Y37.845
X16.833 Y37.517
X16.528 Y37.297
X16.079 Y36.942
X15.519 Y36.461
X15.093 Y36.076
X14.833 Y35.821
X14.435 Y35.395
X13.954 Y34.835
X13.691 Y34.513
X13.389 Y34.11
X13.052 Y33.617
X12.661 Y32.992
X12.39 Y32.531
X12.196 Y32.169
X11.926 Y31.605
X11.634 Y30.928
X11.486 Y30.56
X11.353 Y30.185
X11.172 Y29.6
X10.984 Y28.887
X10.852 Y28.316
X10.778 Y27.918
X10.68 Y27.24
X10.606 Y26.506
X10.574 Y25.991
X10.564 Y25.517
X10.58 Y24.78
X10.617 Y24.135
X10.662 Y23.68
X10.738 Y23.139
X10.873 Y22.413
X11.004 Y21.802
X11.097 Y21.446
X11.268 Y20.882
X11.513 Y20.186
X11.708 Y19.68
X11.868 Y19.314
X12.15 Y18.731
X12.5 Y18.082
X12.796 Y17.575
X13.031 Y17.209
X13.455 Y16.605
X13.903 Y16.019
X14.103 Y15.774
X14.422 Y15.417
X14.935 Y14.888
X15.467 Y14.376
X15.746 Y14.129
X16.16 Y13.791
X16.751 Y13.35
X17.273 Y12.983
X17.578 Y12.788
X18.077 Y12.497
X18.729 Y12.152
X19.212 Y11.912
X19.545 Y11.763
X20.089 Y11.547
X20.785 Y11.304
X21.316 Y11.133
X21.67 Y11.036
X22.247 Y10.902
X22.972 Y10.766
X23.53 Y10.681
X23.948 Y10.634
X24.624 Y10.588
X25.362 Y10.568
X25.878 Y10.571
X26.323 Y10.593
X27.058 Y10.659
X27.79 Y10.755
X28.142 Y10.814
X28.642 Y10.921
X29.356 Y11.105
X30.021 Y11.299
X30.367 Y11.415
X30.891 Y11.617
X31.567 Y11.91
X32.061 Y12.14
X32.421 Y12.326
X32.924 Y12.613
X33.548 Y13.006
X33.983 Y13.294
X34.288 Y13.515
X34.749 Y13.881
X35.308 Y14.363
X35.711 Y14.727
X35.971 Y14.984
X36.373 Y15.414
X36.854 Y15.974
X37.114 Y16.294
X37.416 Y16.697
X37.756 Y17.195
X38.147 Y17.821
X38.419 Y18.285
X38.61 Y18.643
X38.885 Y19.217
X39.175 Y19.895
X39.316 Y20.244
X39.449 Y20.621
X39.631 Y21.211
X39.819 Y21.924
X39.949 Y22.489
X40.024 Y22.889
X40.121 Y23.573
X40.195 Y24.307
X40.226 Y24.819
X40.236 Y25.299
X40.219 Y26.036
X40.183 Y26.669
X40.138 Y27.124
X40.061 Y27.667
X39.926 Y28.393
X39.796 Y29
X39.703 Y29.356
X39.531 Y29.92
X39.286 Y30.616
X39.091 Y31.122
X38.931 Y31.489
X38.647 Y32.073
X38.297 Y32.723
X38.003 Y33.227
X37.767 Y33.594
X37.343 Y34.198
X36.895 Y34.784
X36.693 Y35.03
X36.373 Y35.388
X35.859 Y35.918
X35.327 Y36.429
X35.048 Y36.676
X34.629 Y37.017
X34.038 Y37.458
X33.523 Y37.819
X33.217 Y38.016
X32.714 Y38.308
X32.062 Y38.653
X31.586 Y38.889
X31.252 Y39.038
X30.706 Y39.255
X30.009 Y39.498
X29.483 Y39.667
X28.771 Y39.863
X28.066 Y40.081
X27.667 Y40.225
X27.36 Y40.322
X27.048 Y40.407
X26.718 Y40.481
X26.362 Y40.546
X26 Y40.596
X25.623 Y40.632
X25.237 Y40.652
X24.768 Y40.658
X24.242 Y40.642
X23.674 Y40.6
X23.18 Y40.544
X22.62 Y40.455
X22.029 Y40.336
X21.355 Y40.171
X20.82 Y40.015
X20.218 Y39.812
X19.551 Y39.556
X19.005 Y39.32
X18.481 Y39.066
X17.892 Y38.749
X17.266 Y38.379
X16.785 Y38.066
X16.31 Y37.728
X15.728 Y37.275
X15.215 Y36.84
X14.789 Y36.447
X14.349 Y36.006
X13.888 Y35.503
X13.499 Y35.042
X13.127 Y34.559
X12.719 Y33.984
X12.331 Y33.382
X12.04 Y32.888
X11.753 Y32.35
X11.434 Y31.685
X11.21 Y31.166
X10.998 Y30.613
X10.787 Y29.984
X10.592 Y29.309
X10.453 Y28.743
X10.329 Y28.12
X10.221 Y27.431
X10.148 Y26.791
X10.107 Y26.216
X10.087 Y25.534
X10.095 Y24.833
X10.128 Y24.242
X10.184 Y23.665
X10.286 Y22.934
X10.405 Y22.28
X10.534 Y21.711
X10.699 Y21.103
X10.911 Y20.433
X11.108 Y19.891
X11.342 Y19.324
X11.627 Y18.705
X11.945 Y18.087
X12.236 Y17.575
X12.59 Y17.009
X13.006 Y16.402
X13.358 Y15.933
X13.702 Y15.511
X14.161 Y14.996
X14.667 Y14.472
X15.08 Y14.08
X15.537 Y13.681
X16.113 Y13.22
X16.582 Y12.874
X17.07 Y12.545
X17.641 Y12.194
X18.276 Y11.84
X18.781 Y11.585
X19.314 Y11.344
X19.998 Y11.069
X20.612 Y10.85
X21.17 Y10.678
X21.785 Y10.516
X22.46 Y10.368
X23.034 Y10.267
X23.658 Y10.184
X24.341 Y10.123
X25.021 Y10.09
X25.607 Y10.087
X26.275 Y10.111
X27.001 Y10.168
X27.578 Y10.238
X28.129 Y10.328
X28.817 Y10.471
X29.522 Y10.648
X30.068 Y10.81
X30.621 Y11
X31.308 Y11.269
X31.845 Y11.504
X32.377 Y11.764
X32.97 Y12.085
X33.588 Y12.455
X34.062 Y12.766
X34.538 Y13.109
X35.119 Y13.564
X35.608 Y13.98
X36.036 Y14.377
X36.486 Y14.831
X36.936 Y15.324
X37.323 Y15.787
X37.696 Y16.272
X38.106 Y16.855
X38.493 Y17.456
X38.779 Y17.946
X39.066 Y18.487
X39.384 Y19.153
X39.606 Y19.674
X39.817 Y20.23
X40.028 Y20.866
X40.221 Y21.541
X40.357 Y22.104
X40.48 Y22.73
X40.586 Y23.423
X40.657 Y24.058
X40.696 Y24.632
X40.714 Y25.321
X40.703 Y26.021
X40.669 Y26.608
X40.611 Y27.183
X40.507 Y27.914
X40.39 Y28.545
X40.259 Y29.116
X40.089 Y29.74
X39.879 Y30.397
X39.681 Y30.938
X39.445 Y31.507
X39.156 Y32.129
X38.837 Y32.745
X38.546 Y33.255
X38.19 Y33.821
X37.771 Y34.429
X37.425 Y34.889
X37.077 Y35.313
X36.614 Y35.832
X36.115 Y36.346
X35.7 Y36.738
X35.235 Y37.143
X34.658 Y37.603
X34.188 Y37.947
X33.697 Y38.276
X33.116 Y38.631
X32.481 Y38.982
X31.98 Y39.233
X31.448 Y39.472
X30.763 Y39.746
X30.09 Y39.984
X29.022 Y40.311
X28.965 Y40.327
X28.936 Y40.334
X28.666 Y40.396
X28.498 Y40.432
X26.824 Y40.684
X26.271 Y40.725
X26.154 Y40.726
X24.646
X24.529 Y40.725
X23.976 Y40.684
X22.302 Y40.432
X22.105 Y40.39
X21.799 Y40.319
X21.632 Y40.276
X20.124 Y39.811
X19.957 Y39.756
X19.454 Y39.545
X19.287 Y39.467
X17.947 Y38.822
X17.728 Y38.715
X17.612 Y38.64
X16.003 Y37.542
X15.602 Y37.204
X15.435 Y37.061
X14.262 Y35.973
X14.163 Y35.868
X14.016 Y35.7
X13.928 Y35.595
X12.923 Y34.335
X12.814 Y34.193
X12.587 Y33.858
X12.42 Y33.571
X11.813 Y32.518
X11.542 Y32.016
X11.466 Y31.848
X10.875 Y30.341
X10.815 Y30.173
X10.655 Y29.671
X10.272 Y27.996
X10.243 Y27.813
X10.196 Y27.494
X10.175 Y27.326
X10.062 Y25.819
X10.053 Y25.651
Y25.149
X10.062 Y24.981
X10.175 Y23.474
X10.196 Y23.306
X10.245 Y22.972
X10.272 Y22.804
X10.655 Y21.129
X10.815 Y20.627
X10.875 Y20.459
X11.466 Y18.952
X11.542 Y18.784
X11.813 Y18.282
X12.489 Y17.11
X12.588 Y16.942
X12.814 Y16.607
X12.923 Y16.465
X13.928 Y15.205
X14.016 Y15.1
X14.163 Y14.932
X14.262 Y14.827
X15.435 Y13.739
X15.805 Y13.425
X16.003 Y13.258
X17.612 Y12.16
X17.728 Y12.085
X18.115 Y11.898
X19.287 Y11.333
X19.454 Y11.255
X19.957 Y11.044
X20.124 Y10.989
X21.632 Y10.524
X21.799 Y10.481
X22.134 Y10.404
X22.302 Y10.368
X23.976 Y10.116
X24.529 Y10.075
X24.646 Y10.074
X26.154
X26.271 Y10.075
X26.824 Y10.116
X28.498 Y10.368
X28.695 Y10.41
X29.001 Y10.481
X29.168 Y10.524
X30.676 Y10.989
X30.843 Y11.044
X31.346 Y11.255
X31.513 Y11.333
X32.853 Y11.978
X33.072 Y12.085
X33.188 Y12.16
X34.797 Y13.258
X35.198 Y13.596
X35.365 Y13.739
X36.538 Y14.827
X36.637 Y14.932
X36.784 Y15.1
X36.872 Y15.205
X37.877 Y16.465
X37.986 Y16.607
X38.213 Y16.942
X38.38 Y17.229
X38.987 Y18.282
X39.258 Y18.784
X39.334 Y18.952
X39.925 Y20.459
X39.985 Y20.627
X40.145 Y21.129
X40.528 Y22.804
X40.557 Y22.987
X40.604 Y23.306
X40.625 Y23.474
X40.738 Y24.981
X40.747 Y25.149
Y25.651
X40.738 Y25.819
X40.625 Y27.326
X40.604 Y27.494
X40.555 Y27.828
X40.528 Y27.996
X40.145 Y29.671
X39.985 Y30.173
X39.925 Y30.341
X39.334 Y31.848
X39.258 Y32.016
X38.987 Y32.518
X38.311 Y33.69
X38.212 Y33.858
X37.986 Y34.193
X37.877 Y34.335
X36.872 Y35.595
X36.784 Y35.7
X36.637 Y35.868
X36.538 Y35.973
X35.365 Y37.061
X34.995 Y37.375
X34.797 Y37.542
X33.188 Y38.64
X33.072 Y38.715
X32.685 Y38.902
X31.513 Y39.467
X31.346 Y39.545
X30.843 Y39.756
X30.676 Y39.811
X29.168 Y40.276
X29.001 Y40.319
X28.936 Y40.334
X28.876 Y40.34
G3 X28.571 Y40.113 I0 J-0.317
G1 X28.565 Y40.067 Z-5.997
X28.558 Y40.023 Z-5.987
X28.573 Y39.965 Z-5.962
X28.586 Y39.914 Z-5.925
X28.597 Y39.871 Z-5.879
X28.618 Y39.84 Z-5.819
X28.631 Y39.821 Z-5.753
X28.635 Y39.815 Z-5.683
G0 Z3.01
X25.223 Y26.898
Z-7.5
G3 X25.576 Y23.903 Z-7.665 I0.177 J-1.498 F150
X25.223 Y26.898 Z-7.831 I-0.177 J1.498
X25.576 Y23.903 Z-7.996 I0.177 J-1.498
X25.223 Y26.898 Z-8.162 I-0.177 J1.498
X25.576 Y23.903 Z-8.327 I0.177 J-1.498
X25.223 Y26.898 Z-8.493 I-0.177 J1.498
X25.576 Y23.903 Z-8.658 I0.177 J-1.498
X25.223 Y26.898 Z-8.824 I-0.177 J1.498
X25.576 Y23.903 Z-8.989 I0.177 J-1.498
X25.223 Y26.898 Z-9.155 I-0.177 J1.498
X25.576 Y23.903 Z-9.32 I0.177 J-1.498
X25.223 Y26.898 Z-9.485 I-0.177 J1.498
X25.576 Y23.903 Z-9.651 I0.177 J-1.498
X25.223 Y26.898 Z-9.816 I-0.177 J1.498
X25.576 Y23.903 Z-9.982 I0.177 J-1.498
X25.223 Y26.898 Z-10.147 I-0.177 J1.498
X25.576 Y23.903 Z-10.313 I0.177 J-1.498
X25.223 Y26.898 Z-10.478 I-0.177 J1.498
X25.576 Y23.903 Z-10.644 I0.177 J-1.498
X25.223 Y26.898 Z-10.809 I-0.177 J1.498
X25.576 Y23.903 Z-10.974 I0.177 J-1.498
X25.223 Y26.898 Z-11.14 I-0.177 J1.498
X25.576 Y23.903 Z-11.305 I0.177 J-1.498
X25.223 Y26.898 Z-11.471 I-0.177 J1.498
X25.576 Y23.903 Z-11.636 I0.177 J-1.498
X25.223 Y26.898 Z-11.802 I-0.177 J1.498
X25.576 Y23.903 Z-11.967 I0.177 J-1.498
X25.223 Y26.898 Z-12.133 I-0.177 J1.498
X25.576 Y23.903 Z-12.298 I0.177 J-1.498
X25.223 Y26.898 Z-12.464 I-0.177 J1.498
X25.576 Y23.903 Z-12.629 I0.177 J-1.498
X25.223 Y26.898 Z-12.794 I-0.177 J1.498
X25.576 Y23.903 Z-12.96 I0.177 J-1.498
X25.223 Y26.898 Z-13.125 I-0.177 J1.498
X25.576 Y23.903 Z-13.291 I0.177 J-1.498
X25.223 Y26.898 Z-13.456 I-0.177 J1.498
X25.576 Y23.903 Z-13.622 I0.177 J-1.498
X25.223 Y26.898 Z-13.787 I-0.177 J1.498
X25.576 Y23.903 Z-13.953 I0.177 J-1.498
X25.223 Y26.898 Z-14.118 I-0.177 J1.498
X25.576 Y23.903 Z-14.284 I0.177 J-1.498
X25.223 Y26.898 Z-14.449 I-0.177 J1.498
X25.576 Y23.903 Z-14.614 I0.177 J-1.498
X25.223 Y26.898 Z-14.78 I-0.177 J1.498
X25.576 Y23.903 Z-14.945 I0.177 J-1.498
X25.223 Y26.898 Z-15.111 I-0.177 J1.498
X25.576 Y23.903 Z-15.276 I0.177 J-1.498
X25.223 Y26.898 Z-15.442 I-0.177 J1.498
X25.576 Y23.903 Z-15.607 I0.177 J-1.498
X25.223 Y26.898 Z-15.773 I-0.177 J1.498
X25.576 Y23.903 Z-15.938 I0.177 J-1.498
X25.223 Y26.898 Z-16.103 I-0.177 J1.498
X25.576 Y23.903 Z-16.269 I0.177 J-1.498
X25.223 Y26.898 Z-16.434 I-0.177 J1.498
X25.576 Y23.903 Z-16.6 I0.177 J-1.498
X25.223 Y26.898 Z-16.765 I-0.177 J1.498
X25.576 Y23.903 Z-16.931 I0.177 J-1.498
X25.223 Y26.898 Z-17.096 I-0.177 J1.498
X25.576 Y23.903 Z-17.262 I0.177 J-1.498
X25.223 Y26.898 Z-17.427 I-0.177 J1.498
X25.576 Y23.903 Z-17.593 I0.177 J-1.498
X25.223 Y26.898 Z-17.758 I-0.177 J1.498
X25.576 Y23.903 Z-17.923 I0.177 J-1.498
X26.908 Y25.4 Z-18 I-0.177 J1.498
X23.892 Y25.4 I-1.508 J0
X26.908 Y25.4 I1.508 J0
G1 X26.922 Y25.921 F500
X26.919 Y26.071
X26.887 Y26.218
X26.833 Y26.357
X26.761 Y26.489
X26.675 Y26.612
X26.575 Y26.724
X26.465 Y26.826
X26.346 Y26.916
X26.218 Y26.995
X26.084 Y27.062
X25.944 Y27.117
X25.8 Y27.159
X25.653 Y27.188
X25.504 Y27.205
X25.354 Y27.209
X25.204 Y27.2
X25.056 Y27.178
X24.91 Y27.144
X24.767 Y27.098
X24.628 Y27.041
X24.495 Y26.972
X24.368 Y26.892
X24.248 Y26.802
X24.136 Y26.702
X24.033 Y26.593
X23.939 Y26.476
X23.855 Y26.352
X23.782 Y26.221
X23.719 Y26.085
X23.669 Y25.943
X23.63 Y25.799
X23.603 Y25.651
X23.588 Y25.502
X23.586 Y25.352
X23.596 Y25.202
X23.619 Y25.054
X23.653 Y24.908
X23.7 Y24.765
X23.758 Y24.627
X23.828 Y24.494
X23.908 Y24.367
X23.998 Y24.248
X24.098 Y24.136
X24.207 Y24.033
X24.324 Y23.939
X24.449 Y23.855
X24.579 Y23.782
X24.716 Y23.719
X24.857 Y23.669
X25.002 Y23.63
X25.15 Y23.603
X25.299 Y23.588
X25.449 Y23.586
X25.598 Y23.597
X25.747 Y23.619
X25.893 Y23.654
X26.035 Y23.701
X26.173 Y23.759
X26.306 Y23.828
X26.433 Y23.909
X26.553 Y23.999
X26.665 Y24.099
X26.768 Y24.208
X26.861 Y24.325
X26.945 Y24.449
X27.019 Y24.58
X27.081 Y24.717
X27.132 Y24.858
X27.174 Y25.002
X27.211 Y25.148
X27.241 Y25.295
X27.264 Y25.443
X27.277 Y25.593
X27.281 Y25.743
X27.273 Y25.892
X27.269 Y25.916
X27.237 Y26.073
X27.185 Y26.224
X27.114 Y26.368
X26.991 Y26.58
X26.946 Y26.656
X26.918 Y26.691
X26.885 Y26.725
X26.489 Y27.058
X26.409 Y27.121
X26.369 Y27.143
X26.321 Y27.161
X25.819 Y27.344
X25.777 Y27.358
X25.735 Y27.366
X25.651 Y27.368
X25.149
X25.065 Y27.366
X25.023 Y27.358
X24.981 Y27.344
X24.471 Y27.159
X24.431 Y27.143
X24.391 Y27.121
X24.311 Y27.058
X23.915 Y26.725
X23.882 Y26.691
X23.854 Y26.656
X23.809 Y26.58
X23.563 Y26.154
X23.54 Y26.112
X23.523 Y26.07
X23.503 Y25.986
X23.414 Y25.484
X23.404 Y25.4
X23.414 Y25.316
X23.503 Y24.814
X23.523 Y24.73
X23.54 Y24.688
X23.563 Y24.646
X23.809 Y24.22
X23.854 Y24.144
X23.882 Y24.109
X23.915 Y24.075
X24.311 Y23.742
X24.391 Y23.679
X24.431 Y23.657
X24.479 Y23.639
X24.981 Y23.456
X25.023 Y23.442
X25.065 Y23.434
X25.149 Y23.432
X25.651
X25.735 Y23.434
X25.777 Y23.442
X25.819 Y23.456
X26.329 Y23.641
X26.369 Y23.657
X26.409 Y23.679
X26.489 Y23.742
X26.885 Y24.075
X26.918 Y24.109
X26.946 Y24.144
X26.991 Y24.22
X27.237 Y24.646
X27.26 Y24.688
X27.277 Y24.73
X27.297 Y24.814
X27.386 Y25.316
X27.396 Y25.4
X27.386 Y25.484
X27.297 Y25.986
X27.277 Y26.07
X27.26 Y26.112
X27.237 Y26.154
X27.114 Y26.368
G3 X26.703 Y26.484 I-0.269 J-0.168
G1 X26.662 Y26.448 Z-17.995
X26.622 Y26.414 Z-17.981
X26.584 Y26.382 Z-17.958
X26.567 Y26.336 Z-17.922
X26.552 Y26.297 Z-17.878
X26.541 Y26.267 Z-17.827
X26.533 Y26.246 Z-17.771
X26.529 Y26.236 Z-17.711
Y26.234 Z-17.683
G0 Z3.01
X25.701 Y25.196
Z-16.365
G1 Z-16.683 F500
X25.693 Y25.193 Z-16.753
X25.67 Y25.187 Z-16.82
X25.634 Y25.177 Z-16.88
X25.586 Y25.163 Z-16.931
X25.528 Y25.147 Z-16.969
X25.463 Y25.129 Z-16.992
X25.395 Y25.11 Z-17
G3 X23.774 Y24.461 I2.184 J-7.806
G1 X23.676 Y24.404
X23.658 Y24.255
X23.694 Y24.11
X23.758 Y23.974
X23.835 Y23.845
X23.925 Y23.726
X24.03 Y23.619
X24.145 Y23.523
X24.267 Y23.434
X24.393 Y23.354
X24.526 Y23.285
X24.665 Y23.229
X24.809 Y23.184
X24.954 Y23.147
X25.101 Y23.117
X25.25 Y23.098
X25.4 Y23.092
X25.55 Y23.098
X25.699 Y23.112
X25.847 Y23.133
X25.994 Y23.164
X26.138 Y23.206
X26.278 Y23.26
X26.414 Y23.323
X26.547 Y23.392
X26.676 Y23.468
X26.8 Y23.554
X26.915 Y23.65
X27.023 Y23.753
X27.127 Y23.862
X27.224 Y23.976
X27.315 Y24.096
X27.395 Y24.223
X27.465 Y24.355
X27.527 Y24.492
X27.583 Y24.631
X27.631 Y24.773
X27.667 Y24.919
X27.691 Y25.067
X27.706 Y25.216
X27.714 Y25.366
X27.713 Y25.516
X27.702 Y25.666
X27.679 Y25.814
X27.644 Y25.96
X27.603 Y26.104
X27.554 Y26.246
X27.497 Y26.384
X27.429 Y26.518
X27.351 Y26.646
X27.264 Y26.769
X27.173 Y26.887
X27.075 Y27.001
X26.969 Y27.107
X26.854 Y27.203
X26.732 Y27.292
X26.607 Y27.374
X26.478 Y27.45
X26.344 Y27.517
X26.204 Y27.573
X26.061 Y27.618
X25.916 Y27.654
X25.769 Y27.684
X25.62 Y27.706
X25.471 Y27.716
X25.321 Y27.714
X25.171 Y27.702
X25.022 Y27.683
X24.875 Y27.656
X24.729 Y27.619
X24.588 Y27.57
X24.45 Y27.51
X24.316 Y27.444
X24.185 Y27.371
X24.058 Y27.29
X23.939 Y27.198
X23.828 Y27.098
X23.722 Y26.991
X23.622 Y26.88
X23.528 Y26.763
X23.443 Y26.64
X23.368 Y26.509
X23.303 Y26.375
X23.243 Y26.237
X23.191 Y26.096
X23.149 Y25.952
X23.119 Y25.805
X23.1 Y25.656
X23.089 Y25.507
X23.086 Y25.357
X23.091 Y25.2
X23.112 Y24.94
X23.131 Y24.777
X23.156 Y24.629
X23.187 Y24.483
X23.226 Y24.338
X23.274 Y24.196
X23.33 Y24.057
X23.397 Y23.922
X23.473 Y23.793
X23.558 Y23.669
X23.651 Y23.552
X23.752 Y23.441
X23.86 Y23.337
X23.976 Y23.242
X24.098 Y23.154
X24.226 Y23.076
X24.358 Y23.005
X24.494 Y22.943
X24.634 Y22.889
X24.777 Y22.844
X24.923 Y22.808
X25.071 Y22.782
X25.22 Y22.764
X25.369 Y22.755
X25.519 Y22.754
X25.669 Y22.763
X25.818 Y22.781
X25.966 Y22.807
X26.112 Y22.842
X26.255 Y22.885
X26.396 Y22.936
X26.534 Y22.995
X26.668 Y23.063
X26.798 Y23.138
X26.923 Y23.22
X27.044 Y23.309
X27.16 Y23.405
X27.27 Y23.507
X27.374 Y23.615
X27.471 Y23.729
X27.562 Y23.848
X27.646 Y23.973
X27.723 Y24.101
X27.794 Y24.234
X27.856 Y24.37
X27.909 Y24.51
X27.955 Y24.653
X27.993 Y24.798
X28.023 Y24.945
X28.045 Y25.094
X28.058 Y25.243
X28.063 Y25.393
X28.058 Y25.543
X28.046 Y25.692
X28.026 Y25.841
X27.997 Y25.988
X27.96 Y26.133
X27.914 Y26.276
X27.861 Y26.416
X27.799 Y26.553
X27.731 Y26.687
X27.655 Y26.816
X27.572 Y26.941
X27.482 Y27.061
X27.385 Y27.175
X27.281 Y27.284
X27.172 Y27.387
X27.058 Y27.484
X26.938 Y27.575
X26.813 Y27.658
X26.684 Y27.733
X26.55 Y27.801
X26.413 Y27.862
X26.273 Y27.916
X26.13 Y27.961
X25.985 Y27.998
X25.837 Y28.027
X25.689 Y28.047
X25.539 Y28.059
X25.389 Y28.063
X25.239 Y28.059
X25.09 Y28.046
X24.941 Y28.024
X24.795 Y27.993
X24.65 Y27.955
X24.507 Y27.909
X24.367 Y27.855
X24.23 Y27.793
X24.098 Y27.723
X23.969 Y27.645
X23.845 Y27.561
X23.726 Y27.47
X23.612 Y27.373
X23.503 Y27.269
X23.401 Y27.159
X23.306 Y27.043
X23.217 Y26.923
X23.134 Y26.798
X23.058 Y26.668
X22.99 Y26.534
X22.931 Y26.397
X22.879 Y26.256
X22.835 Y26.113
X22.799 Y25.967
X22.77 Y25.82
X22.749 Y25.671
X22.733 Y25.521
X22.724 Y25.369
X22.722 Y25.218
X22.726 Y25.068
X22.736 Y24.919
X22.752 Y24.77
X22.776 Y24.621
X22.807 Y24.475
X22.845 Y24.33
X22.891 Y24.187
X22.944 Y24.047
X23.005 Y23.91
X23.074 Y23.776
X23.15 Y23.647
X23.233 Y23.522
X23.324 Y23.402
X23.421 Y23.288
X23.524 Y23.179
X23.634 Y23.077
X23.749 Y22.981
X23.87 Y22.892
X23.995 Y22.81
X24.125 Y22.735
X24.259 Y22.667
X24.396 Y22.606
X24.537 Y22.554
X24.68 Y22.508
X24.825 Y22.471
X24.972 Y22.441
X25.12 Y22.42
X25.27 Y22.406
X25.42 Y22.4
X25.57 Y22.402
X25.719 Y22.412
X25.868 Y22.429
X26.016 Y22.454
X26.163 Y22.487
X26.307 Y22.527
X26.449 Y22.575
X26.589 Y22.63
X26.726 Y22.691
X26.859 Y22.76
X26.989 Y22.835
X27.115 Y22.916
X27.237 Y23.004
X27.354 Y23.098
X27.466 Y23.198
X27.573 Y23.303
X27.675 Y23.413
X27.771 Y23.528
X27.861 Y23.648
X27.945 Y23.772
X28.023 Y23.9
X28.095 Y24.032
X28.159 Y24.167
X28.217 Y24.306
X28.268 Y24.447
X28.312 Y24.59
X28.349 Y24.736
X28.378 Y24.883
X28.4 Y25.031
X28.415 Y25.18
X28.422 Y25.33
Y25.48
X28.414 Y25.63
X28.399 Y25.779
X28.376 Y25.927
X28.347 Y26.074
X28.31 Y26.22
X28.266 Y26.363
X28.214 Y26.504
X28.156 Y26.643
X28.091 Y26.778
X28.019 Y26.909
X27.941 Y27.037
X27.857 Y27.162
X27.767 Y27.281
X27.671 Y27.397
X27.569 Y27.507
X27.462 Y27.612
X27.349 Y27.711
X27.232 Y27.805
X27.111 Y27.893
X26.985 Y27.974
X26.855 Y28.05
X26.722 Y28.119
X26.586 Y28.181
X26.446 Y28.237
X26.304 Y28.285
X26.16 Y28.326
X26.014 Y28.36
X25.866 Y28.387
X25.718 Y28.407
X25.568 Y28.419
X25.418 Y28.424
X25.268 Y28.421
X25.119 Y28.411
X24.97 Y28.393
X24.822 Y28.368
X24.675 Y28.335
X24.531 Y28.296
X24.388 Y28.249
X24.248 Y28.195
X24.111 Y28.135
X23.977 Y28.068
X23.846 Y27.994
X23.72 Y27.913
X23.597 Y27.827
X23.479 Y27.734
X23.366 Y27.636
X23.257 Y27.532
X23.154 Y27.423
X23.056 Y27.31
X22.964 Y27.191
X22.879 Y27.068
X22.799 Y26.941
X22.726 Y26.81
X22.659 Y26.676
X22.599 Y26.538
X22.546 Y26.398
X22.499 Y26.255
X22.458 Y26.111
X22.424 Y25.965
X22.395 Y25.817
X22.373 Y25.666
X22.357 Y25.514
X22.348 Y25.363
X22.345 Y25.212
X22.348 Y25.062
X22.357 Y24.912
X22.373 Y24.763
X22.396 Y24.615
X22.425 Y24.467
X22.457 Y24.357
X22.499 Y24.251
X22.551 Y24.148
X22.844 Y23.641
X22.972 Y23.423
X22.991 Y23.394
X23.017 Y23.365
X23.139 Y23.255
X23.275 Y23.139
X23.809 Y22.704
X23.842 Y22.681
X23.876 Y22.663
X23.976 Y22.623
X24.144 Y22.56
X24.479 Y22.438
X24.646 Y22.379
X24.814 Y22.323
X24.856 Y22.313
X24.898 Y22.308
X24.981 Y22.307
X25.819
X25.902 Y22.308
X25.944 Y22.313
X25.986 Y22.323
X26.154 Y22.379
X26.407 Y22.469
X26.656 Y22.56
X26.857 Y22.637
X26.924 Y22.663
X26.958 Y22.681
X26.991 Y22.704
X27.525 Y23.139
X27.661 Y23.255
X27.783 Y23.365
X27.809 Y23.394
X27.828 Y23.423
X27.996 Y23.711
X28.246 Y24.144
X28.331 Y24.294
X28.339 Y24.311
X28.354 Y24.353
X28.383 Y24.479
X28.413 Y24.646
X28.473 Y24.981
X28.5 Y25.149
X28.526 Y25.316
X28.535 Y25.4
X28.526 Y25.484
X28.498 Y25.663
X28.473 Y25.819
X28.413 Y26.154
X28.383 Y26.321
X28.354 Y26.447
X28.339 Y26.489
X28.331 Y26.506
X28.246 Y26.656
X27.956 Y27.159
X27.828 Y27.377
X27.809 Y27.406
X27.783 Y27.435
X27.661 Y27.545
X27.525 Y27.661
X26.991 Y28.096
X26.958 Y28.119
X26.924 Y28.137
X26.824 Y28.177
X26.656 Y28.24
X26.321 Y28.362
X26.154 Y28.421
X25.986 Y28.477
X25.944 Y28.487
X25.902 Y28.492
X25.819 Y28.493
X24.981
X24.898 Y28.492
X24.856 Y28.487
X24.814 Y28.477
X24.646 Y28.421
X24.393 Y28.331
X24.144 Y28.24
X23.943 Y28.163
X23.876 Y28.137
X23.842 Y28.119
X23.809 Y28.096
X23.275 Y27.661
X23.139 Y27.545
X23.017 Y27.435
X22.991 Y27.406
X22.972 Y27.377
X22.804 Y27.089
X22.554 Y26.656
X22.469 Y26.506
X22.461 Y26.489
X22.446 Y26.447
X22.417 Y26.321
X22.387 Y26.154
X22.327 Y25.819
X22.3 Y25.651
X22.274 Y25.484
X22.265 Y25.4
X22.274 Y25.316
X22.302 Y25.137
X22.327 Y24.981
X22.387 Y24.646
X22.417 Y24.479
X22.446 Y24.353
X22.461 Y24.311
X22.469 Y24.294
X22.551 Y24.148
G3 X22.961 Y24.029 I0.271 J0.166
G1 X23.003 Y24.064 Z-16.995
X23.043 Y24.098 Z-16.981
X23.081 Y24.13 Z-16.958
X23.098 Y24.176 Z-16.922
X23.113 Y24.215 Z-16.878
X23.125 Y24.245 Z-16.827
X23.133 Y24.266 Z-16.771
X23.137 Y24.276 Z-16.711
Y24.277 Z-16.683
G0 Z3.01
X24.354 Y25.64
Z-15.365
