(Nozzle_OP_A)
(Machine)
(  vendor: Banggood)
(  model: 3018)
(  description: Generic 3-axis)
(T1  D=3.175 CR=0 - ZMIN=-18.548 - flat end mill)
(T3  D=2 CR=1 - ZMIN=-17.75 - ball end mill)
G90 G94
G17
G21

(Adaptive1)
T1 M6
S9000 M3
G54
G0 X25.4 Y25.4
Z5
Z2
Z0.317
G1 Z0 F300
Z-9 F60
X25.367 Y25.419 F300
X25.364 Y25.381
X25.394 Y25.359
X25.429 Y25.37
X25.441 Y25.406
X25.42 Y25.437
X25.385 Y25.451
X25.35 Y25.438
X25.333 Y25.404
X25.341 Y25.368
X25.365 Y25.339
X25.402 Y25.33
X25.438 Y25.34
X25.464 Y25.367
X25.471 Y25.404
X25.46 Y25.44
X25.435 Y25.468
X25.4 Y25.482
X25.363 Y25.481
X25.33 Y25.463
X25.307 Y25.434
X25.299 Y25.397
X25.304 Y25.36
X25.323 Y25.328
X25.353 Y25.304
X25.388 Y25.293
X25.426 Y25.295
X25.461 Y25.309
X25.488 Y25.335
X25.504 Y25.369
X25.51 Y25.406
X25.503 Y25.443
X25.484 Y25.475
X25.458 Y25.502
X25.424 Y25.519
X25.387 Y25.525
X25.35 Y25.52
X25.316 Y25.505
X25.288 Y25.48
X25.267 Y25.449
X25.256 Y25.413
X25.255 Y25.376
X25.265 Y25.339
X25.283 Y25.306
X25.308 Y25.279
X25.34 Y25.259
X25.376 Y25.248
X25.413 Y25.246
X25.45 Y25.253
X25.518 Y25.285
X25.561 Y25.346
X25.572 Y25.42
X25.552 Y25.493
X25.505 Y25.551
X25.438 Y25.586
X25.364 Y25.593
X25.292 Y25.571
X25.233 Y25.524
X25.195 Y25.46
X25.183 Y25.386
X25.198 Y25.312
X25.236 Y25.248
X25.294 Y25.2
X25.365 Y25.175
X25.44 Y25.172
X25.512 Y25.193
X25.574 Y25.234
X25.62 Y25.293
X25.644 Y25.364
X25.648 Y25.439
X25.63 Y25.512
X25.591 Y25.576
X25.536 Y25.627
X25.469 Y25.661
X25.396 Y25.676
X25.321 Y25.669
X25.251 Y25.643
X25.189 Y25.6
X25.142 Y25.542
X25.112 Y25.473
X25.098 Y25.399
X25.104 Y25.324
X25.129 Y25.254
X25.212 Y25.129
X25.346 Y25.061
X25.496 Y25.063
X25.632 Y25.126
X25.729 Y25.241
X25.771 Y25.384
X25.755 Y25.534
X25.681 Y25.664
X25.564 Y25.758
X25.42 Y25.801
X25.271 Y25.788
X25.136 Y25.722
X25.034 Y25.612
X24.977 Y25.473
X24.971 Y25.323
X25.01 Y25.179
X25.098 Y25.057
X25.219 Y24.968
X25.362 Y24.923
X25.512 Y24.927
X25.652 Y24.98
X25.772 Y25.07
X25.86 Y25.192
X25.906 Y25.334
X25.907 Y25.484
X25.867 Y25.629
X25.789 Y25.757
X25.677 Y25.857
X25.541 Y25.92
X25.393 Y25.946
X25.244 Y25.932
X25.105 Y25.875
X24.987 Y25.783
X24.895 Y25.665
X24.837 Y25.526
X24.816 Y25.378
X24.835 Y25.229
X24.888 Y25.089
X24.974 Y24.965
X25.088 Y24.868
X25.223 Y24.802
X25.369 Y24.77
X25.519 Y24.773
X25.664 Y24.812
X25.795 Y24.884
X25.906 Y24.985
X25.993 Y25.108
X26.048 Y25.247
X26.071 Y25.395
X26.059 Y25.545
X26.017 Y25.689
X25.944 Y25.82
X25.844 Y25.931
X25.721 Y26.018
X25.583 Y26.077
X25.436 Y26.107
X25.286 Y26.105
X25.14 Y26.07
X25.005 Y26.005
X24.885 Y25.915
X24.786 Y25.803
X24.711 Y25.673
X24.666 Y25.53
X24.65 Y25.381
X24.661 Y25.231
X24.701 Y25.087
X24.769 Y24.953
X24.863 Y24.836
X24.977 Y24.739
X25.107 Y24.664
X25.249 Y24.615
X25.398 Y24.594
X25.547 Y24.603
X25.693 Y24.639
X25.83 Y24.7
X25.953 Y24.785
X26.059 Y24.892
X26.143 Y25.016
X26.203 Y25.154
X26.239 Y25.299
X26.249 Y25.449
X26.232 Y25.598
X26.188 Y25.742
X26.121 Y25.876
X26.032 Y25.996
X25.923 Y26.1
X25.798 Y26.183
X25.661 Y26.243
X25.515 Y26.28
X25.366 Y26.292
X25.216 Y26.278
X25.072 Y26.239
X24.935 Y26.177
X24.811 Y26.093
X24.701 Y25.991
X24.609 Y25.872
X24.539 Y25.74
X24.491 Y25.597
X24.467 Y25.45
X24.464 Y25.3
X24.486 Y25.151
X24.531 Y25.008
X24.598 Y24.874
X24.686 Y24.752
X24.791 Y24.645
X24.91 Y24.555
X25.043 Y24.484
X25.185 Y24.435
X25.332 Y24.41
X25.482 Y24.406
X25.631 Y24.424
X25.776 Y24.464
X25.913 Y24.526
X26.038 Y24.608
X26.15 Y24.707
X26.247 Y24.822
X26.327 Y24.949
X26.387 Y25.086
X26.425 Y25.231
X26.443 Y25.38
X26.438 Y25.53
X26.414 Y25.678
X26.368 Y25.821
X26.303 Y25.956
X26.218 Y26.08
X26.117 Y26.191
X26.002 Y26.287
X25.874 Y26.366
X25.737 Y26.427
X25.593 Y26.468
X25.444 Y26.488
X25.294 Y26.487
X25.146 Y26.467
X25.001 Y26.427
X24.864 Y26.367
X24.736 Y26.289
X24.619 Y26.194
X24.517 Y26.085
X24.429 Y25.963
X24.358 Y25.831
X24.306 Y25.69
X24.273 Y25.544
X24.259 Y25.395
X24.264 Y25.245
X24.289 Y25.097
X24.333 Y24.953
X24.395 Y24.817
X24.474 Y24.69
X24.569 Y24.573
X24.678 Y24.47
X24.799 Y24.381
X24.93 Y24.309
X25.07 Y24.254
X25.215 Y24.218
X25.364 Y24.199
X25.514
X25.663 Y24.218
X25.809 Y24.255
X25.948 Y24.31
X26.079 Y24.383
X26.201 Y24.47
X26.311 Y24.572
X26.409 Y24.686
X26.491 Y24.811
X26.558 Y24.946
X26.607 Y25.087
X26.639 Y25.234
X26.654 Y25.383
X26.651 Y25.533
X26.631 Y25.682
X26.592 Y25.827
X26.537 Y25.966
X26.465 Y26.098
X26.378 Y26.22
X26.278 Y26.332
X26.166 Y26.432
X26.043 Y26.517
X25.91 Y26.587
X25.77 Y26.642
X25.625 Y26.679
X25.477 Y26.701
X25.327 Y26.705
X25.177 Y26.692
X25.03 Y26.662
X24.888 Y26.615
X24.752 Y26.552
X24.623 Y26.474
X24.504 Y26.383
X24.396 Y26.279
X24.301 Y26.163
X24.219 Y26.037
X24.152 Y25.903
X24.1 Y25.762
X24.064 Y25.617
X24.043 Y25.468
X24.039 Y25.318
X24.052 Y25.169
X24.081 Y25.022
X24.127 Y24.879
X24.187 Y24.741
X24.261 Y24.611
X24.349 Y24.489
X24.45 Y24.378
X24.562 Y24.279
X24.685 Y24.192
X24.815 Y24.119
X24.953 Y24.06
X25.097 Y24.016
X25.244 Y23.987
X25.393 Y23.974
X25.543 Y23.978
X25.692 Y23.997
X25.838 Y24.031
X25.98 Y24.081
X26.116 Y24.144
X26.244 Y24.222
X26.363 Y24.313
X26.473 Y24.416
X26.571 Y24.529
X26.657 Y24.651
X26.731 Y24.782
X26.79 Y24.92
X26.835 Y25.063
X26.865 Y25.21
X26.88 Y25.359
Y25.509
X26.865 Y25.659
X26.835 Y25.806
X26.79 Y25.949
X26.731 Y26.087
X26.658 Y26.218
X26.573 Y26.341
X26.476 Y26.456
X26.369 Y26.56
X26.251 Y26.653
X26.125 Y26.734
X25.991 Y26.802
X25.851 Y26.856
X25.706 Y26.897
X25.559 Y26.923
X25.409 Y26.935
X25.259 Y26.932
X25.11 Y26.914
X24.964 Y26.882
X24.821 Y26.836
X24.684 Y26.776
X24.552 Y26.704
X24.428 Y26.619
X24.313 Y26.523
X24.208 Y26.416
X24.114 Y26.299
X24.031 Y26.174
X23.96 Y26.042
X23.902 Y25.904
X23.857 Y25.76
X23.826 Y25.614
X23.809 Y25.465
X23.806 Y25.315
X23.817 Y25.165
X23.843 Y25.017
X23.881 Y24.872
X23.933 Y24.731
X23.997 Y24.596
X24.074 Y24.467
X24.163 Y24.346
X24.263 Y24.234
X24.372 Y24.132
X24.49 Y24.039
X24.616 Y23.958
X24.749 Y23.889
X24.888 Y23.832
X25.032 Y23.789
X25.179 Y23.759
X25.328 Y23.742
X25.478 Y23.738
X25.627 Y23.748
X25.776 Y23.771
X25.921 Y23.808
X26.063 Y23.858
X26.199 Y23.92
X26.329 Y23.994
X26.453 Y24.08
X26.568 Y24.176
X26.674 Y24.282
X26.771 Y24.396
X26.857 Y24.519
X26.931 Y24.65
X26.994 Y24.786
X27.044 Y24.927
X27.083 Y25.072
X27.108 Y25.22
X27.121 Y25.369
X27.12 Y25.519
X27.106 Y25.669
X27.079 Y25.816
X27.04 Y25.961
X26.988 Y26.102
X26.924 Y26.238
X26.85 Y26.368
X26.764 Y26.491
X26.667 Y26.605
X26.561 Y26.712
X26.447 Y26.808
X26.324 Y26.895
X26.195 Y26.971
X26.06 Y27.036
X25.919 Y27.089
X25.775 Y27.13
X25.628 Y27.159
X25.479 Y27.174
X25.329 Y27.178
X25.179 Y27.169
X25.031 Y27.147
X24.885 Y27.113
X24.742 Y27.067
X24.603 Y27.009
X24.471 Y26.939
X24.344 Y26.859
X24.224 Y26.769
X24.112 Y26.669
X24.009 Y26.56
X23.915 Y26.443
X23.831 Y26.318
X23.758 Y26.188
X23.696 Y26.051
X23.645 Y25.91
X23.605 Y25.765
X23.578 Y25.618
X23.563 Y25.469
X23.559 Y25.319
X23.569 Y25.169
X23.59 Y25.02
X23.623 Y24.874
X23.668 Y24.731
X23.724 Y24.592
X23.791 Y24.458
X23.869 Y24.329
X23.957 Y24.208
X24.054 Y24.094
X24.161 Y23.988
X24.275 Y23.891
X24.396 Y23.803
X24.525 Y23.725
X24.659 Y23.658
X24.797 Y23.601
X24.94 Y23.556
X25.087 Y23.522
X25.235 Y23.5
X25.385 Y23.489
X25.535 Y23.491
X25.684 Y23.503
X25.832 Y23.528
X25.978 Y23.564
X26.12 Y23.612
X26.258 Y23.671
X26.391 Y23.74
X26.518 Y23.819
X26.639 Y23.908
X26.753 Y24.005
X26.859 Y24.112
X26.956 Y24.226
X27.044 Y24.348
X27.122 Y24.475
X27.191 Y24.609
X27.249 Y24.747
X27.296 Y24.89
X27.333 Y25.035
X27.358 Y25.183
X27.372 Y25.332
X27.374 Y25.482
X27.364 Y25.632
X27.344 Y25.781
X27.312 Y25.927
X27.27 Y26.071
X27.217 Y26.211
X27.153 Y26.347
X27.079 Y26.478
X26.996 Y26.603
X26.903 Y26.72
X26.802 Y26.831
X26.693 Y26.934
X26.576 Y27.029
X26.453 Y27.114
X26.324 Y27.191
X26.19 Y27.257
X26.05 Y27.313
X25.907 Y27.359
X25.762 Y27.393
X25.613 Y27.417
X25.464 Y27.43
X25.314 Y27.433
X25.164 Y27.424
X25.016 Y27.404
X24.869 Y27.373
X24.725 Y27.331
X24.584 Y27.279
X24.448 Y27.217
X24.316 Y27.145
X24.19 Y27.064
X24.07 Y26.974
X23.957 Y26.875
X23.851 Y26.768
X23.754 Y26.654
X23.665 Y26.533
X23.585 Y26.407
X23.515 Y26.274
X23.453 Y26.137
X23.402 Y25.996
X23.361 Y25.852
X23.331 Y25.705
X23.311 Y25.556
X23.302 Y25.407
X23.304 Y25.257
X23.316 Y25.107
X23.339 Y24.959
X23.372 Y24.813
X23.416 Y24.669
X23.469 Y24.529
X23.533 Y24.393
X23.606 Y24.262
X23.688 Y24.137
X23.779 Y24.017
X23.877 Y23.904
X23.984 Y23.798
X24.097 Y23.7
X24.217 Y23.611
X24.344 Y23.529
X24.475 Y23.458
X24.612 Y23.395
X24.752 Y23.342
X24.896 Y23.299
X25.042 Y23.266
X25.19 Y23.243
X25.34 Y23.23
X25.49 Y23.228
X25.639 Y23.236
X25.788 Y23.255
X25.935 Y23.284
X26.08 Y23.323
X26.222 Y23.372
X26.36 Y23.43
X26.494 Y23.498
X26.623 Y23.574
X26.747 Y23.66
X26.864 Y23.753
X26.974 Y23.855
X27.077 Y23.964
X27.173 Y24.079
X27.261 Y24.201
X27.34 Y24.328
X27.411 Y24.46
X27.472 Y24.597
X27.524 Y24.738
X27.567 Y24.882
X27.599 Y25.028
X27.621 Y25.177
X27.634 Y25.326
X27.637 Y25.476
X27.629 Y25.626
X27.612 Y25.775
X27.585 Y25.922
X27.547 Y26.068
X27.5 Y26.21
X27.444 Y26.349
X27.379 Y26.484
X27.304 Y26.615
X27.222 Y26.74
X27.131 Y26.859
X27.033 Y26.972
X26.927 Y27.079
X26.815 Y27.178
X26.696 Y27.269
X26.571 Y27.353
X26.441 Y27.428
X26.307 Y27.494
X26.168 Y27.552
X26.026 Y27.6
X25.881 Y27.639
X25.734 Y27.668
X25.585 Y27.688
X25.436 Y27.697
X25.286
X25.136 Y27.688
X24.987 Y27.668
X24.84 Y27.639
X24.695 Y27.601
X24.553 Y27.553
X24.414 Y27.496
X24.279 Y27.43
X24.149 Y27.356
X24.024 Y27.273
X23.904 Y27.182
X23.791 Y27.084
X23.684 Y26.979
X23.584 Y26.868
X23.491 Y26.75
X23.406 Y26.626
X23.329 Y26.497
X23.261 Y26.364
X23.201 Y26.226
X23.15 Y26.085
X23.108 Y25.941
X23.075 Y25.795
X23.052 Y25.647
X23.038 Y25.497
X23.033 Y25.347
X23.038 Y25.198
X23.053 Y25.048
X23.077 Y24.9
X23.11 Y24.754
X23.152 Y24.61
X23.204 Y24.469
X23.264 Y24.331
X23.332 Y24.198
X23.409 Y24.069
X23.494 Y23.946
X23.586 Y23.827
X23.686 Y23.715
X23.792 Y23.609
X23.904 Y23.51
X24.023 Y23.418
X24.147 Y23.334
X24.276 Y23.258
X24.41 Y23.189
X24.548 Y23.13
X24.689 Y23.079
X24.832 Y23.036
X24.979 Y23.003
X25.127 Y22.979
X25.276 Y22.963
X25.426 Y22.957
X25.576 Y22.961
X25.725 Y22.973
X25.874 Y22.995
X26.02 Y23.026
X26.165 Y23.066
X26.307 Y23.114
X26.446 Y23.171
X26.581 Y23.237
X26.712 Y23.31
X26.838 Y23.391
X26.958 Y23.48
X27.074 Y23.576
X27.183 Y23.679
X27.285 Y23.789
X27.381 Y23.904
X27.47 Y24.025
X27.552 Y24.151
X27.625 Y24.281
X27.691 Y24.416
X27.748 Y24.555
X27.797 Y24.697
X27.837 Y24.841
X27.868 Y24.988
X27.891 Y25.136
X27.905 Y25.286
X27.91 Y25.436
X27.906 Y25.586
X27.893 Y25.735
X27.871 Y25.883
X27.84 Y26.03
X27.8 Y26.175
X27.752 Y26.317
X27.696 Y26.456
X27.631 Y26.591
X27.559 Y26.723
X27.479 Y26.85
X27.392 Y26.972
X27.297 Y27.088
X27.196 Y27.199
X27.088 Y27.303
X26.974 Y27.401
X26.855 Y27.492
X26.731 Y27.576
X26.602 Y27.653
X26.469 Y27.722
X26.332 Y27.783
X26.191 Y27.835
X26.048 Y27.88
X25.902 Y27.916
X25.755 Y27.943
X25.606 Y27.962
X25.456 Y27.972
X25.306 Y27.973
X25.157 Y27.966
X25.007 Y27.95
X24.86 Y27.925
X24.713 Y27.892
X24.569 Y27.85
X24.428 Y27.8
X24.29 Y27.742
X24.155 Y27.676
X24.024 Y27.602
X23.898 Y27.521
X23.776 Y27.433
X23.66 Y27.338
X23.55 Y27.237
X23.445 Y27.129
X23.347 Y27.016
X23.256 Y26.897
X23.172 Y26.773
X23.094 Y26.644
X23.025 Y26.511
X22.963 Y26.375
X22.908 Y26.235
X22.862 Y26.092
X22.824 Y25.947
X22.794 Y25.8
X22.773 Y25.652
X22.76 Y25.502
X22.756 Y25.352
X22.76 Y25.202
X22.773 Y25.053
X22.794 Y24.904
X22.823 Y24.757
X22.861 Y24.612
X22.907 Y24.469
X22.96 Y24.329
X23.022 Y24.192
X23.091 Y24.059
X23.168 Y23.93
X23.252 Y23.806
X23.342 Y23.686
X23.439 Y23.572
X23.542 Y23.463
X23.651 Y23.36
X23.766 Y23.263
X23.886 Y23.173
X24.011 Y23.09
X24.141 Y23.014
X24.274 Y22.946
X24.411 Y22.885
X24.551 Y22.831
X24.694 Y22.785
X24.839 Y22.747
X24.986 Y22.717
X25.134 Y22.696
X25.284 Y22.683
X25.434 Y22.678
X25.584 Y22.682
X25.733 Y22.693
X25.882 Y22.713
X26.029 Y22.741
X26.175 Y22.777
X26.318 Y22.821
X26.459 Y22.873
X26.597 Y22.932
X26.731 Y22.999
X26.861 Y23.073
X26.987 Y23.155
X27.109 Y23.243
X27.225 Y23.337
X27.337 Y23.438
X27.442 Y23.544
X27.542 Y23.656
X27.636 Y23.774
X27.722 Y23.896
X27.802 Y24.023
X27.875 Y24.154
X27.941 Y24.289
X28 Y24.427
X28.05 Y24.568
X28.094 Y24.711
X28.129 Y24.857
X28.157 Y25.005
X28.177 Y25.153
X28.188 Y25.303
X28.192 Y25.453
X28.187 Y25.603
X28.174 Y25.752
X28.153 Y25.901
X28.125 Y26.048
X28.088 Y26.194
X28.044 Y26.337
X27.993 Y26.478
X27.934 Y26.616
X27.867 Y26.75
X27.794 Y26.881
X27.713 Y27.007
X27.626 Y27.129
X27.532 Y27.247
X27.433 Y27.359
X27.327 Y27.466
X27.217 Y27.567
X27.101 Y27.662
X26.98 Y27.751
X26.854 Y27.833
X26.725 Y27.908
X26.591 Y27.977
X26.454 Y28.038
X26.314 Y28.092
X26.172 Y28.139
X26.027 Y28.178
X25.88 Y28.209
X25.732 Y28.233
X25.583 Y28.249
X25.433 Y28.256
X25.283
X25.133 Y28.249
X24.984 Y28.233
X24.836 Y28.209
X24.689 Y28.178
X24.544 Y28.139
X24.402 Y28.093
X24.262 Y28.039
X24.124 Y27.979
X23.991 Y27.911
X23.861 Y27.836
X23.735 Y27.754
X23.613 Y27.667
X23.496 Y27.572
X23.385 Y27.472
X23.278 Y27.367
X23.177 Y27.256
X23.082 Y27.14
X22.993 Y27.019
X22.911 Y26.894
X22.835 Y26.764
X22.766 Y26.631
X22.703 Y26.495
X22.648 Y26.355
X22.601 Y26.213
X22.56 Y26.069
X22.527 Y25.922
X22.501 Y25.774
X22.483 Y25.626
X22.473 Y25.476
X22.47 Y25.326
X22.475 Y25.176
X22.488 Y25.027
X22.509 Y24.878
X22.537 Y24.731
X22.572 Y24.585
X22.615 Y24.441
X22.665 Y24.3
X22.722 Y24.161
X22.786 Y24.025
X22.856 Y23.893
X22.934 Y23.764
X23.018 Y23.64
X23.108 Y23.52
X23.204 Y23.405
X23.306 Y23.295
X23.413 Y23.19
X23.525 Y23.091
X23.643 Y22.997
X23.764 Y22.909
X23.89 Y22.828
X24.02 Y22.753
X24.154 Y22.685
X24.291 Y22.623
X24.43 Y22.569
X24.573 Y22.521
X24.717 Y22.481
X24.864 Y22.448
X25.011 Y22.423
X25.16 Y22.405
X25.31 Y22.394
X25.46 Y22.391
X25.61 Y22.395
X25.759 Y22.407
X25.908 Y22.426
X26.056 Y22.453
X26.202 Y22.486
X26.346 Y22.528
X26.488 Y22.576
X26.628 Y22.631
X26.764 Y22.693
X26.898 Y22.762
X27.027 Y22.837
X27.153 Y22.919
X27.275 Y23.006
X27.392 Y23.1
X27.504 Y23.199
X27.612 Y23.304
X27.714 Y23.414
X27.81 Y23.529
X27.901 Y23.648
X27.986 Y23.772
X28.065 Y23.899
X28.137 Y24.031
X28.203 Y24.166
X28.262 Y24.304
X28.314 Y24.444
X28.359 Y24.587
X28.398 Y24.732
X28.429 Y24.879
X28.453 Y25.027
X28.469 Y25.176
X28.479 Y25.326
X28.481 Y25.476
X28.476 Y25.626
X28.463 Y25.775
X28.443 Y25.924
X28.416 Y26.071
X28.382 Y26.218
X28.341 Y26.362
X28.293 Y26.504
X28.238 Y26.644
X28.176 Y26.78
X28.108 Y26.914
X28.034 Y27.044
X27.953 Y27.17
X27.866 Y27.293
X27.773 Y27.411
X27.675 Y27.524
X27.572 Y27.633
X27.463 Y27.736
X27.35 Y27.834
X27.232 Y27.927
X27.11 Y28.014
X26.983 Y28.095
X26.853 Y28.169
X26.719 Y28.238
X26.583 Y28.299
X26.443 Y28.355
X26.301 Y28.403
X26.157 Y28.445
X26.011 Y28.479
X25.864 Y28.507
X25.715 Y28.528
X25.566 Y28.542
X25.416 Y28.548
X25.266 Y28.547
X25.116 Y28.539
X24.967 Y28.524
X24.819 Y28.502
X24.672 Y28.473
X24.526 Y28.437
X24.382 Y28.394
X24.241 Y28.345
X24.102 Y28.288
X23.965 Y28.226
X23.832 Y28.157
X23.702 Y28.081
X23.577 Y28
X23.455 Y27.913
X23.337 Y27.82
X23.224 Y27.721
X23.115 Y27.618
X23.012 Y27.509
X22.913 Y27.396
X22.82 Y27.278
X22.733 Y27.156
X22.651 Y27.03
X22.576 Y26.901
X22.507 Y26.767
X22.444 Y26.631
X22.387 Y26.492
X22.337 Y26.351
X22.294 Y26.207
X22.257 Y26.062
X22.228 Y25.915
X22.205 Y25.767
X22.189 Y25.617
X22.179 Y25.468
X22.177 Y25.318
X22.182 Y25.168
X22.194 Y25.018
X22.213 Y24.87
X22.239 Y24.722
X22.272 Y24.575
X22.311 Y24.431
X22.357 Y24.288
X22.409 Y24.147
X22.468 Y24.009
X22.533 Y23.874
X22.604 Y23.742
X22.682 Y23.614
X22.765 Y23.489
X22.854 Y23.368
X22.949 Y23.252
X23.048 Y23.14
X23.153 Y23.032
X23.262 Y22.93
X23.376 Y22.832
X23.495 Y22.74
X23.617 Y22.653
X23.744 Y22.573
X23.874 Y22.498
X24.007 Y22.429
X24.143 Y22.366
X24.282 Y22.31
X24.424 Y22.26
X24.567 Y22.217
X24.713 Y22.18
X24.86 Y22.149
X25.008 Y22.126
X25.157 Y22.109
X25.306 Y22.099
X25.456 Y22.096
X25.606 Y22.1
X25.756 Y22.11
X25.905 Y22.128
X26.053 Y22.152
X26.2 Y22.182
X26.345 Y22.22
X26.489 Y22.263
X26.63 Y22.314
X26.769 Y22.37
X26.905 Y22.433
X27.038 Y22.502
X27.168 Y22.577
X27.295 Y22.658
X27.417 Y22.744
X27.536 Y22.836
X27.65 Y22.933
X27.76 Y23.035
X27.866 Y23.142
X27.966 Y23.253
X28.061 Y23.369
X28.151 Y23.489
X28.236 Y23.613
X28.315 Y23.74
X28.388 Y23.872
X28.455 Y24.006
X28.516 Y24.143
X28.571 Y24.282
X28.619 Y24.424
X28.661 Y24.568
X28.697 Y24.714
X28.727 Y24.861
X28.749 Y25.009
X28.765 Y25.158
X28.775 Y25.308
X28.777 Y25.458
X28.773 Y25.608
X28.763 Y25.758
X28.745 Y25.907
X28.722 Y26.055
X28.691 Y26.202
X28.654 Y26.347
X28.611 Y26.491
X28.562 Y26.632
X28.506 Y26.772
X28.444 Y26.908
X28.377 Y27.042
X28.303 Y27.173
X28.223 Y27.3
X28.138 Y27.424
X28.048 Y27.543
X27.953 Y27.659
X27.852 Y27.77
X27.747 Y27.877
X27.637 Y27.98
X27.523 Y28.077
X27.405 Y28.169
X27.283 Y28.256
X27.157 Y28.337
X27.027 Y28.413
X26.894 Y28.483
X26.759 Y28.547
X26.621 Y28.605
X26.48 Y28.657
X26.337 Y28.703
X26.192 Y28.743
X26.046 Y28.777
X25.899 Y28.804
X25.75 Y28.824
X25.601 Y28.838
X25.451 Y28.845
X25.301 Y28.846
X25.151 Y28.84
X25.001 Y28.828
X24.853 Y28.809
X24.705 Y28.784
X24.558 Y28.753
X24.413 Y28.715
X24.269 Y28.671
X24.128 Y28.621
X23.989 Y28.565
X23.853 Y28.503
X23.719 Y28.435
X23.588 Y28.361
X23.461 Y28.282
X23.337 Y28.197
X23.217 Y28.107
X23.101 Y28.012
X22.989 Y27.912
X22.882 Y27.807
X22.779 Y27.698
X22.681 Y27.584
X22.588 Y27.467
X22.5 Y27.345
X22.417 Y27.22
X22.34 Y27.091
X22.269 Y26.96
X22.203 Y26.825
X22.143 Y26.687
X22.089 Y26.547
X22.041 Y26.405
X21.998 Y26.261
X21.962 Y26.116
X21.933 Y25.969
X21.909 Y25.821
X21.892 Y25.672
X21.882 Y25.522
X21.878 Y25.372
X21.88 Y25.222
X21.889 Y25.072
X21.904 Y24.923
X21.925 Y24.775
X21.952 Y24.627
X21.986 Y24.481
X22.026 Y24.336
X22.072 Y24.193
X22.123 Y24.053
X22.181 Y23.914
X22.245 Y23.779
X22.315 Y23.646
X22.39 Y23.516
X22.47 Y23.389
X22.556 Y23.266
X22.646 Y23.147
X22.742 Y23.031
X22.843 Y22.92
X22.948 Y22.812
X23.057 Y22.71
X23.171 Y22.612
X23.288 Y22.519
X23.41 Y22.431
X23.535 Y22.348
X23.664 Y22.271
X23.795 Y22.199
X23.93 Y22.133
X24.067 Y22.072
X24.207 Y22.017
X24.348 Y21.968
X24.492 Y21.925
X24.637 Y21.888
X24.784 Y21.857
X24.932 Y21.832
X25.081 Y21.814
X25.23 Y21.802
X25.38 Y21.796
X25.53
X25.68 Y21.802
X25.83 Y21.815
X25.978 Y21.834
X26.126 Y21.859
X26.273 Y21.89
X26.418 Y21.927
X26.562 Y21.97
X26.704 Y22.019
X26.843 Y22.074
X26.98 Y22.135
X27.115 Y22.201
X27.247 Y22.273
X27.375 Y22.351
X27.5 Y22.433
X27.622 Y22.521
X27.74 Y22.613
X27.855 Y22.71
X27.965 Y22.812
X28.07 Y22.918
X28.172 Y23.029
X28.268 Y23.144
X28.36 Y23.263
X28.447 Y23.385
X28.529 Y23.511
X28.605 Y23.64
X28.676 Y23.772
X28.742 Y23.907
X28.802 Y24.044
X28.857 Y24.184
X28.905 Y24.326
X28.948 Y24.469
X28.985 Y24.615
X29.016 Y24.761
X29.041 Y24.909
X29.06 Y25.058
X29.072 Y25.208
X29.079 Y25.358
Y25.508
X29.074 Y25.657
X29.062 Y25.807
X29.044 Y25.956
X29.021 Y26.104
X28.991 Y26.251
X28.955 Y26.397
X28.914 Y26.541
X28.866 Y26.683
X28.813 Y26.823
X28.754 Y26.961
X28.689 Y27.097
X28.619 Y27.229
X28.544 Y27.359
X28.464 Y27.486
X28.378 Y27.609
X28.288 Y27.729
X28.193 Y27.845
X28.094 Y27.957
X27.989 Y28.065
X27.881 Y28.169
X27.768 Y28.268
X27.652 Y28.362
X27.532 Y28.452
X27.408 Y28.537
X27.281 Y28.617
X27.151 Y28.691
X27.018 Y28.761
X26.882 Y28.825
X26.744 Y28.883
X26.604 Y28.936
X26.461 Y28.984
X26.317 Y29.025
X26.172 Y29.061
X26.025 Y29.09
X25.876 Y29.114
X25.727 Y29.132
X25.578 Y29.144
X25.428 Y29.15
X25.278
X25.128 Y29.144
X24.979 Y29.132
X24.83 Y29.114
X24.682 Y29.09
X24.535 Y29.06
X24.389 Y29.025
X24.245 Y28.983
X24.102 Y28.936
X23.962 Y28.883
X23.824 Y28.825
X23.688 Y28.761
X23.555 Y28.692
X23.424 Y28.618
X23.297 Y28.539
X23.173 Y28.454
X23.052 Y28.365
X22.936 Y28.271
X22.822 Y28.173
X22.713 Y28.07
X22.608 Y27.963
X22.508 Y27.851
X22.412 Y27.736
X22.32 Y27.617
X22.233 Y27.495
X22.151 Y27.369
X22.074 Y27.241
X22.002 Y27.109
X21.936 Y26.975
X21.874 Y26.838
X21.819 Y26.699
X21.768 Y26.557
X21.724 Y26.414
X21.685 Y26.269
X21.652 Y26.123
X21.624 Y25.975
X21.602 Y25.827
X21.587 Y25.678
X21.576 Y25.528
X21.572 Y25.378
X21.574 Y25.228
X21.581 Y25.078
X21.595 Y24.929
X21.614 Y24.78
X21.639 Y24.632
X21.67 Y24.486
X21.707 Y24.34
X21.749 Y24.196
X21.797 Y24.054
X21.85 Y23.914
X21.908 Y23.776
X21.972 Y23.64
X22.042 Y23.507
X22.116 Y23.377
X22.195 Y23.249
X22.28 Y23.125
X22.369 Y23.004
X22.462 Y22.887
X22.56 Y22.774
X22.663 Y22.664
X22.769 Y22.559
X22.88 Y22.457
X22.994 Y22.361
X23.113 Y22.268
X23.234 Y22.18
X23.359 Y22.097
X23.487 Y22.019
X23.618 Y21.946
X23.752 Y21.878
X23.888 Y21.815
X24.026 Y21.757
X24.167 Y21.705
X24.31 Y21.659
X24.454 Y21.618
X24.6 Y21.582
X24.747 Y21.552
X24.895 Y21.528
X25.043 Y21.509
X25.193 Y21.496
X25.343 Y21.489
X25.493 Y21.488
X25.643 Y21.492
X25.792 Y21.503
X25.941 Y21.519
X26.09 Y21.54
X26.237 Y21.567
X26.384 Y21.6
X26.529 Y21.639
X26.672 Y21.683
X26.814 Y21.732
X26.953 Y21.787
X27.091 Y21.847
X27.226 Y21.913
X27.358 Y21.983
X27.488 Y22.058
X27.615 Y22.139
X27.738 Y22.224
X27.858 Y22.314
X27.975 Y22.408
X28.088 Y22.506
X28.197 Y22.609
X28.302 Y22.716
X28.404 Y22.827
X28.5 Y22.942
X28.593 Y23.06
X28.681 Y23.181
X28.764 Y23.306
X28.842 Y23.434
X28.916 Y23.565
X28.984 Y23.698
X29.047 Y23.834
X29.106 Y23.973
X29.159 Y24.113
X29.206 Y24.255
X29.248 Y24.399
X29.285 Y24.544
X29.316 Y24.691
X29.342 Y24.839
X29.362 Y24.988
X29.377 Y25.137
X29.385 Y25.287
X29.388 Y25.437
X29.386 Y25.587
X29.378 Y25.736
X29.364 Y25.886
X29.345 Y26.035
X29.32 Y26.182
X29.29 Y26.329
X29.254 Y26.475
X29.212 Y26.619
X29.166 Y26.762
X29.114 Y26.902
X29.056 Y27.041
X28.994 Y27.177
X28.926 Y27.311
X28.854 Y27.443
X28.776 Y27.571
X28.694 Y27.697
X28.608 Y27.819
X28.517 Y27.938
X28.421 Y28.054
X28.321 Y28.166
X28.217 Y28.274
X28.109 Y28.378
X27.998 Y28.478
X27.882 Y28.574
X27.764 Y28.666
X27.641 Y28.753
X27.516 Y28.835
X27.388 Y28.913
X27.257 Y28.986
X27.123 Y29.054
X26.987 Y29.117
X26.848 Y29.175
X26.708 Y29.228
X26.566 Y29.275
X26.422 Y29.317
X26.276 Y29.354
X26.13 Y29.386
X25.982 Y29.412
X25.833 Y29.432
X25.684 Y29.447
X25.534 Y29.456
X25.384 Y29.46
X25.234 Y29.459
X25.084 Y29.451
X24.934 Y29.439
X24.784 Y29.42
X24.636 Y29.397
X24.489 Y29.368
X24.343 Y29.333
X24.199 Y29.293
X24.056 Y29.248
X23.914 Y29.197
X23.774 Y29.141
X23.636 Y29.08
X23.5 Y29.014
X23.367 Y28.943
X23.236 Y28.867
X23.108 Y28.786
X22.983 Y28.7
X22.862 Y28.61
X22.744 Y28.516
X22.63 Y28.417
X22.52 Y28.315
X22.413 Y28.208
X22.311 Y28.098
X22.212 Y27.983
X22.117 Y27.865
X22.027 Y27.743
X21.941 Y27.617
X21.86 Y27.489
X21.783 Y27.358
X21.712 Y27.223
X21.645 Y27.087
X21.583 Y26.947
X21.527 Y26.806
X21.476 Y26.662
X21.43 Y26.517
X21.39 Y26.371
X21.355 Y26.223
X21.325 Y26.074
X21.301 Y25.924
X21.283 Y25.773
X21.27 Y25.621
X21.263 Y25.469
X21.261 Y25.316
X21.265 Y25.163
X21.274 Y25.01
X21.29 Y24.858
X21.311 Y24.706
X21.337 Y24.555
X21.369 Y24.405
X21.407 Y24.255
X21.45 Y24.108
X21.498 Y23.962
X21.552 Y23.819
X21.611 Y23.678
X21.674 Y23.539
X21.743 Y23.403
X21.817 Y23.269
X21.897 Y23.137
X21.981 Y23.009
X22.069 Y22.883
X22.163 Y22.761
X22.261 Y22.642
X22.364 Y22.527
X22.471 Y22.415
X22.582 Y22.307
X22.696 Y22.204
X22.815 Y22.104
X22.937 Y22.009
X23.063 Y21.919
X23.192 Y21.834
X23.323 Y21.753
X23.458 Y21.677
X23.595 Y21.606
X23.735 Y21.541
X23.877 Y21.48
X24.021 Y21.425
X24.168 Y21.375
X24.316 Y21.331
X24.466 Y21.292
X24.618 Y21.258
X24.77 Y21.23
X24.924 Y21.208
X25.078 Y21.192
X25.233 Y21.181
X25.389 Y21.176
X25.545
X25.7 Y21.182
X25.856 Y21.194
X26.011 Y21.212
X26.166 Y21.236
X26.319 Y21.265
X26.472 Y21.3
X26.623 Y21.34
X26.772 Y21.386
X26.92 Y21.438
X27.065 Y21.494
X27.209 Y21.557
X27.349 Y21.624
X27.488 Y21.696
X27.623 Y21.774
X27.756 Y21.857
X27.886 Y21.944
X28.012 Y22.036
X28.136 Y22.133
X28.255 Y22.235
X28.371 Y22.341
X28.483 Y22.451
X28.59 Y22.565
X28.694 Y22.683
X28.793 Y22.805
X28.888 Y22.931
X28.978 Y23.06
X29.063 Y23.193
X29.143 Y23.328
X29.219 Y23.467
X29.289 Y23.608
X29.354 Y23.753
X29.414 Y23.899
X29.468 Y24.047
X29.517 Y24.198
X29.56 Y24.35
X29.598 Y24.503
X29.63 Y24.658
X29.656 Y24.814
X29.676 Y24.971
X29.691 Y25.129
X29.7 Y25.287
X29.703 Y25.446
X29.7 Y25.605
X29.691 Y25.763
X29.677 Y25.922
X29.656 Y26.079
X29.63 Y26.236
X29.598 Y26.392
X29.561 Y26.546
X29.517 Y26.699
X29.468 Y26.85
X29.414 Y26.999
X29.354 Y27.147
X29.288 Y27.292
X29.217 Y27.435
X29.141 Y27.575
X29.06 Y27.712
X28.974 Y27.847
X28.882 Y27.978
X28.787 Y28.105
X28.686 Y28.229
X28.581 Y28.349
X28.472 Y28.465
X28.358 Y28.578
X28.24 Y28.686
X28.118 Y28.789
X27.992 Y28.889
X27.863 Y28.983
X27.73 Y29.073
X27.593 Y29.158
X27.454 Y29.238
X27.312 Y29.313
X27.167 Y29.382
X27.02 Y29.446
X26.87 Y29.505
X26.719 Y29.558
X26.565 Y29.605
X26.41 Y29.647
X26.253 Y29.683
X26.095 Y29.713
X25.935 Y29.737
X25.775 Y29.756
X25.614 Y29.768
X25.452 Y29.775
X25.29 Y29.776
X25.129 Y29.771
X24.968 Y29.759
X24.807 Y29.742
X24.648 Y29.719
X24.489 Y29.69
X24.331 Y29.656
X24.174 Y29.615
X24.019 Y29.568
X23.865 Y29.516
X23.714 Y29.458
X23.564 Y29.395
X23.417 Y29.326
X23.272 Y29.252
X23.131 Y29.172
X22.992 Y29.087
X22.856 Y28.998
X22.725 Y28.903
X22.596 Y28.803
X22.471 Y28.699
X22.35 Y28.59
X22.234 Y28.477
X22.121 Y28.359
X22.012 Y28.237
X21.909 Y28.112
X21.809 Y27.982
X21.715 Y27.849
X21.625 Y27.712
X21.541 Y27.572
X21.461 Y27.429
X21.387 Y27.283
X21.319 Y27.134
X21.256 Y26.983
X21.198 Y26.83
X21.147 Y26.674
X21.101 Y26.517
X21.06 Y26.359
X21.026 Y26.198
X20.998 Y26.037
X20.975 Y25.874
X20.959 Y25.711
X20.948 Y25.547
X20.944 Y25.383
X20.946 Y25.218
X20.953 Y25.053
X20.967 Y24.889
X20.987 Y24.725
X21.013 Y24.562
X21.045 Y24.4
X21.083 Y24.24
X21.126 Y24.081
X21.176 Y23.924
X21.231 Y23.769
X21.292 Y23.616
X21.358 Y23.465
X21.431 Y23.316
X21.508 Y23.171
X21.591 Y23.028
X21.68 Y22.888
X21.773 Y22.751
X21.872 Y22.618
X21.975 Y22.488
X22.083 Y22.363
X22.196 Y22.241
X22.314 Y22.123
X22.435 Y22.01
X22.561 Y21.901
X22.691 Y21.797
X22.824 Y21.698
X22.961 Y21.604
X23.101 Y21.515
X23.245 Y21.431
X23.391 Y21.353
X23.541 Y21.28
X23.693 Y21.212
X23.847 Y21.151
X24.004 Y21.094
X24.163 Y21.044
X24.323 Y21
X24.486 Y20.961
X24.649 Y20.928
X24.814 Y20.902
X24.98 Y20.881
X25.147 Y20.867
X25.314 Y20.859
X25.481 Y20.857
X25.649 Y20.861
X25.816 Y20.871
X25.983 Y20.888
X26.15 Y20.91
X26.315 Y20.939
X26.479 Y20.974
X26.642 Y21.015
X26.803 Y21.061
X26.963 Y21.114
X27.12 Y21.173
X27.275 Y21.237
X27.428 Y21.307
X27.578 Y21.383
X27.725 Y21.464
X27.869 Y21.551
X28.01 Y21.643
X28.148 Y21.74
X28.282 Y21.842
X28.412 Y21.949
X28.538 Y22.061
X28.66 Y22.177
X28.778 Y22.298
X28.891 Y22.423
X29 Y22.553
X29.104 Y22.686
X29.203 Y22.824
X29.297 Y22.965
X29.385 Y23.109
X29.469 Y23.257
X29.547 Y23.407
X29.619 Y23.561
X29.685 Y23.717
X29.746 Y23.875
X29.801 Y24.036
X29.85 Y24.198
X29.893 Y24.363
X29.93 Y24.529
X29.961 Y24.696
X29.985 Y24.864
X30.004 Y25.034
X30.016 Y25.204
X30.022 Y25.374
Y25.544
X30.015 Y25.715
X30.002 Y25.885
X29.983 Y26.054
X29.957 Y26.223
X29.926 Y26.391
X29.888 Y26.557
X29.844 Y26.722
X29.794 Y26.885
X29.738 Y27.047
X29.676 Y27.206
X29.608 Y27.363
X29.534 Y27.518
X29.455 Y27.67
X29.37 Y27.818
X29.28 Y27.964
X29.184 Y28.106
X29.083 Y28.245
X28.978 Y28.379
X28.867 Y28.51
X28.751 Y28.637
X28.631 Y28.76
X28.506 Y28.878
X28.377 Y28.991
X28.243 Y29.1
X28.106 Y29.204
X27.965 Y29.302
X27.82 Y29.396
X27.672 Y29.484
X27.521 Y29.566
X27.367 Y29.643
X27.21 Y29.714
X27.05 Y29.779
X26.888 Y29.839
X26.724 Y29.892
X26.558 Y29.94
X26.39 Y29.981
X26.22 Y30.016
X26.05 Y30.045
X25.878 Y30.068
X25.706 Y30.084
X25.533 Y30.094
X25.36 Y30.097
X25.186 Y30.094
X25.013 Y30.085
X24.841 Y30.07
X24.669 Y30.047
X24.497 Y30.019
X24.327 Y29.984
X24.158 Y29.943
X23.991 Y29.896
X23.825 Y29.843
X23.662 Y29.783
X23.5 Y29.718
X23.342 Y29.647
X23.185 Y29.569
X23.032 Y29.486
X22.882 Y29.398
X22.735 Y29.304
X22.592 Y29.205
X22.453 Y29.1
X22.317 Y28.99
X22.185 Y28.875
X22.058 Y28.756
X21.935 Y28.631
X21.817 Y28.503
X21.703 Y28.369
X21.594 Y28.232
X21.491 Y28.091
X21.392 Y27.946
X21.3 Y27.797
X21.212 Y27.645
X21.13 Y27.49
X21.054 Y27.332
X20.984 Y27.171
X20.92 Y27.007
X20.862 Y26.842
X20.81 Y26.674
X20.764 Y26.504
X20.725 Y26.333
X20.691 Y26.16
X20.665 Y25.986
X20.644 Y25.811
X20.63 Y25.636
X20.623 Y25.459
X20.622 Y25.283
X20.627 Y25.107
X20.639 Y24.93
X20.658 Y24.755
X20.683 Y24.58
X20.714 Y24.406
X20.752 Y24.234
X20.796 Y24.062
X20.846 Y23.893
X20.903 Y23.726
X20.966 Y23.56
X21.035 Y23.397
X21.11 Y23.237
X21.19 Y23.079
X21.277 Y22.925
X21.369 Y22.773
X21.467 Y22.625
X21.571 Y22.481
X21.679 Y22.34
X21.793 Y22.204
X21.912 Y22.071
X22.035 Y21.943
X22.164 Y21.82
X22.296 Y21.702
X22.434 Y21.588
X22.575 Y21.48
X22.72 Y21.377
X22.869 Y21.279
X23.021 Y21.187
X23.177 Y21.1
X23.336 Y21.019
X23.498 Y20.944
X23.662 Y20.876
X23.829 Y20.813
X23.998 Y20.756
X24.17 Y20.706
X24.343 Y20.662
X24.518 Y20.624
X24.694 Y20.593
X24.871 Y20.568
X25.05 Y20.55
X25.229 Y20.538
X25.408 Y20.533
X25.587 Y20.535
X25.767 Y20.543
X25.946 Y20.558
X26.124 Y20.579
X26.301 Y20.607
X26.478 Y20.642
X26.653 Y20.683
X26.826 Y20.73
X26.998 Y20.784
X27.167 Y20.844
X27.335 Y20.91
X27.499 Y20.983
X27.661 Y21.061
X27.82 Y21.146
X27.976 Y21.236
X28.129 Y21.332
X28.278 Y21.434
X28.423 Y21.541
X28.564 Y21.653
X28.701 Y21.771
X28.834 Y21.893
X28.962 Y22.021
X29.085 Y22.153
X29.204 Y22.29
X29.317 Y22.431
X29.426 Y22.576
X29.528 Y22.725
X29.626 Y22.878
X29.717 Y23.035
X29.803 Y23.195
X29.883 Y23.358
X29.957 Y23.524
X30.025 Y23.692
X30.086 Y23.863
X30.141 Y24.036
X30.19 Y24.212
X30.233 Y24.389
X30.268 Y24.567
X30.298 Y24.747
X30.32 Y24.928
X30.336 Y25.109
X30.345 Y25.291
X30.348 Y25.474
X30.343 Y25.656
X30.332 Y25.838
X30.315 Y26.02
X30.29 Y26.201
X30.259 Y26.381
X30.222 Y26.56
X30.177 Y26.737
X30.127 Y26.913
X30.069 Y27.086
X30.006 Y27.258
X29.936 Y27.427
X29.86 Y27.594
X29.777 Y27.757
X29.689 Y27.918
X29.595 Y28.075
X29.495 Y28.229
X29.39 Y28.379
X29.279 Y28.525
X29.162 Y28.667
X29.04 Y28.804
X28.914 Y28.937
X28.782 Y29.066
X28.646 Y29.189
X28.505 Y29.308
X28.36 Y29.421
X28.211 Y29.529
X28.058 Y29.631
X27.901 Y29.728
X27.741 Y29.818
X27.577 Y29.903
X27.41 Y29.982
X27.241 Y30.055
X27.068 Y30.121
X26.894 Y30.181
X26.717 Y30.234
X26.538 Y30.281
X26.358 Y30.322
X26.176 Y30.356
X25.993 Y30.383
X25.809 Y30.403
X25.624 Y30.416
X25.439 Y30.423
X25.254
X25.068 Y30.416
X24.883 Y30.402
X24.699 Y30.381
X24.515 Y30.354
X24.333 Y30.32
X24.152 Y30.279
X23.972 Y30.231
X23.794 Y30.177
X23.618 Y30.116
X23.445 Y30.049
X23.274 Y29.975
X23.106 Y29.895
X22.941 Y29.809
X22.779 Y29.717
X22.62 Y29.619
X22.465 Y29.515
X22.314 Y29.406
X22.167 Y29.291
X22.025 Y29.17
X21.887 Y29.045
X21.753 Y28.914
X21.624 Y28.778
X21.501 Y28.638
X21.382 Y28.493
X21.269 Y28.344
X21.162 Y28.19
X21.06 Y28.033
X20.964 Y27.872
X20.874 Y27.708
X20.79 Y27.54
X20.713 Y27.369
X20.641 Y27.196
X20.577 Y27.02
X20.518 Y26.841
X20.466 Y26.661
X20.421 Y26.478
X20.383 Y26.294
X20.351 Y26.109
X20.326 Y25.922
X20.309 Y25.735
X20.298 Y25.547
X20.293 Y25.358
X20.296 Y25.17
X20.306 Y24.982
X20.323 Y24.794
X20.347 Y24.607
X20.377 Y24.421
X20.415 Y24.236
X20.459 Y24.052
X20.51 Y23.87
X20.568 Y23.691
X20.632 Y23.513
X20.703 Y23.338
X20.78 Y23.165
X20.864 Y22.995
X20.954 Y22.828
X21.05 Y22.665
X21.152 Y22.505
X21.26 Y22.349
X21.373 Y22.198
X21.493 Y22.05
X21.617 Y21.907
X21.747 Y21.768
X21.882 Y21.634
X22.022 Y21.506
X22.166 Y21.382
X22.315 Y21.264
X22.468 Y21.152
X22.625 Y21.045
X22.787 Y20.944
X22.951 Y20.849
X23.12 Y20.76
X23.291 Y20.677
X23.466 Y20.601
X23.643 Y20.531
X23.823 Y20.467
X24.005 Y20.411
X24.189 Y20.361
X24.375 Y20.317
X24.563 Y20.281
X24.752 Y20.252
X24.942 Y20.229
X25.133 Y20.214
X25.324 Y20.205
X25.515 Y20.204
X25.707 Y20.21
X25.898 Y20.223
X26.089 Y20.242
X26.278 Y20.269
X26.467 Y20.303
X26.655 Y20.344
X26.84 Y20.392
X27.025 Y20.446
X27.206 Y20.507
X27.386 Y20.575
X27.563 Y20.65
X27.737 Y20.731
X27.909 Y20.818
X28.077 Y20.912
X28.241 Y21.012
X28.402 Y21.118
X28.558 Y21.23
X28.711 Y21.348
X28.859 Y21.471
X29.003 Y21.599
X29.142 Y21.733
X29.276 Y21.872
X29.404 Y22.016
X29.528 Y22.165
X29.646 Y22.318
X29.758 Y22.475
X29.864 Y22.637
X29.964 Y22.802
X30.059 Y22.971
X30.147 Y23.144
X30.228 Y23.32
X30.303 Y23.498
X30.372 Y23.68
X30.434 Y23.863
X30.489 Y24.05
X30.537 Y24.238
X30.578 Y24.427
X30.612 Y24.619
X30.639 Y24.811
X30.659 Y25.004
X30.672 Y25.198
X30.678 Y25.393
X30.676 Y25.587
X30.668 Y25.782
X30.652 Y25.976
X30.629 Y26.169
X30.599 Y26.362
X30.562 Y26.553
X30.517 Y26.743
X30.466 Y26.931
X30.408 Y27.117
X30.343 Y27.301
X30.271 Y27.483
X30.193 Y27.661
X30.108 Y27.837
X30.017 Y28.01
X29.919 Y28.179
X29.815 Y28.345
X29.705 Y28.507
X29.589 Y28.664
X29.467 Y28.817
X29.34 Y28.966
X29.207 Y29.11
X29.069 Y29.249
X28.926 Y29.383
X28.778 Y29.512
X28.625 Y29.635
X28.468 Y29.752
X28.306 Y29.864
X28.141 Y29.97
X27.971 Y30.069
X27.798 Y30.162
X27.622 Y30.249
X27.442 Y30.329
X27.26 Y30.403
X27.075 Y30.47
X26.887 Y30.53
X26.697 Y30.583
X26.506 Y30.629
X26.313 Y30.668
X26.118 Y30.7
X25.922 Y30.725
X25.726 Y30.742
X25.528 Y30.752
X25.331 Y30.755
X25.133 Y30.751
X24.936 Y30.739
X24.739 Y30.72
X24.543 Y30.694
X24.348 Y30.661
X24.154 Y30.62
X23.962 Y30.573
X23.772 Y30.518
X23.583 Y30.456
X23.397 Y30.387
X23.214 Y30.312
X23.034 Y30.23
X22.856 Y30.141
X22.682 Y30.045
X22.512 Y29.943
X22.345 Y29.835
X22.182 Y29.721
X22.024 Y29.601
X21.87 Y29.475
X21.72 Y29.343
X21.576 Y29.206
X21.437 Y29.064
X21.303 Y28.917
X21.174 Y28.764
X21.051 Y28.607
X20.934 Y28.446
X20.823 Y28.28
X20.718 Y28.11
X20.62 Y27.937
X20.528 Y27.76
X20.442 Y27.579
X20.363 Y27.395
X20.291 Y27.209
X20.226 Y27.02
X20.168 Y26.828
X20.117 Y26.635
X20.073 Y26.44
X20.036 Y26.243
X20.006 Y26.044
X19.984 Y25.845
X19.969 Y25.645
X19.962 Y25.445
Y25.244
X19.969 Y25.043
X19.984 Y24.843
X20.006 Y24.644
X20.035 Y24.445
X20.072 Y24.247
X20.116 Y24.051
X20.167 Y23.857
X20.226 Y23.664
X20.291 Y23.474
X20.364 Y23.286
X20.443 Y23.101
X20.529 Y22.919
X20.622 Y22.74
X20.722 Y22.564
X20.828 Y22.393
X20.94 Y22.225
X21.058 Y22.061
X21.183 Y21.902
X21.313 Y21.748
X21.449 Y21.598
X21.59 Y21.454
X21.736 Y21.314
X21.888 Y21.18
X22.045 Y21.052
X22.206 Y20.93
X22.371 Y20.813
X22.541 Y20.703
X22.715 Y20.599
X22.893 Y20.502
X23.074 Y20.411
X23.259 Y20.326
X23.446 Y20.249
X23.636 Y20.179
X23.829 Y20.115
X24.025 Y20.059
X24.222 Y20.01
X24.421 Y19.968
X24.621 Y19.934
X24.823 Y19.907
X25.026 Y19.887
X25.229 Y19.875
X25.432 Y19.87
X25.636 Y19.873
X25.84 Y19.883
X26.043 Y19.901
X26.245 Y19.927
X26.447 Y19.96
X26.647 Y20
X26.845 Y20.047
X27.042 Y20.102
X27.237 Y20.164
X27.429 Y20.234
X27.619 Y20.31
X27.805 Y20.393
X27.989 Y20.484
X28.169 Y20.581
X28.346 Y20.684
X28.518 Y20.794
X28.687 Y20.91
X28.851 Y21.033
X29.011 Y21.162
X29.166 Y21.296
X29.316 Y21.436
X29.46 Y21.582
X29.6 Y21.732
X29.733 Y21.888
X29.861 Y22.049
X29.983 Y22.215
X30.099 Y22.385
X30.209 Y22.559
X30.312 Y22.737
X30.408 Y22.919
X30.498 Y23.105
X30.581 Y23.293
X30.657 Y23.485
X30.725 Y23.679
X30.787 Y23.876
X30.841 Y24.075
X30.888 Y24.276
X30.928 Y24.479
X30.96 Y24.683
X30.984 Y24.888
X31.001 Y25.094
X31.011 Y25.301
X31.012 Y25.508
X31.006 Y25.715
X30.993 Y25.921
X30.972 Y26.127
X30.943 Y26.332
X30.907 Y26.536
X30.863 Y26.739
X30.812 Y26.94
X30.753 Y27.139
X30.687 Y27.335
X30.614 Y27.529
X30.533 Y27.721
X30.446 Y27.909
X30.352 Y28.094
X30.251 Y28.276
X30.143 Y28.454
X30.029 Y28.627
X29.908 Y28.797
X29.781 Y28.962
X29.649 Y29.122
X29.51 Y29.277
X29.366 Y29.427
X29.216 Y29.572
X29.06 Y29.711
X28.9 Y29.845
X28.735 Y29.972
X28.565 Y30.093
X28.391 Y30.208
X28.213 Y30.317
X28.031 Y30.419
X27.845 Y30.514
X27.655 Y30.602
X27.462 Y30.684
X27.267 Y30.758
X27.069 Y30.825
X26.868 Y30.884
X26.665 Y30.937
X26.46 Y30.981
X26.254 Y31.018
X26.047 Y31.048
X25.838 Y31.07
X25.629 Y31.084
X25.419 Y31.09
X25.209 Y31.089
X24.999 Y31.08
X24.79 Y31.063
X24.581 Y31.039
X24.373 Y31.006
X24.167 Y30.967
X23.962 Y30.919
X23.759 Y30.864
X23.558 Y30.802
X23.359 Y30.732
X23.163 Y30.655
X22.97 Y30.57
X22.78 Y30.479
X22.594 Y30.38
X22.411 Y30.275
X22.232 Y30.163
X22.057 Y30.045
X21.887 Y29.92
X21.721 Y29.789
X21.561 Y29.651
X21.405 Y29.508
X21.255 Y29.359
X21.11 Y29.205
X20.971 Y29.046
X20.838 Y28.881
X20.711 Y28.711
X20.59 Y28.537
X20.476 Y28.359
X20.369 Y28.176
X20.268 Y27.99
X20.174 Y27.799
X20.087 Y27.606
X20.007 Y27.409
X19.935 Y27.209
X19.87 Y27.007
X19.812 Y26.802
X19.762 Y26.596
X19.72 Y26.387
X19.685 Y26.177
X19.658 Y25.966
X19.639 Y25.754
X19.628 Y25.542
X19.625 Y25.329
X19.629 Y25.116
X19.641 Y24.903
X19.661 Y24.691
X19.689 Y24.479
X19.725 Y24.269
X19.769 Y24.06
X19.82 Y23.853
X19.878 Y23.647
X19.945 Y23.444
X20.019 Y23.244
X20.1 Y23.046
X20.188 Y22.851
X20.284 Y22.66
X20.386 Y22.472
X20.496 Y22.288
X20.612 Y22.108
X20.735 Y21.932
X20.864 Y21.761
X21 Y21.595
X21.142 Y21.434
X21.289 Y21.279
X21.442 Y21.128
X21.601 Y20.984
X21.765 Y20.845
X21.934 Y20.712
X22.108 Y20.586
X22.286 Y20.466
X22.469 Y20.353
X22.656 Y20.247
X22.846 Y20.147
X23.041 Y20.055
X23.238 Y19.969
X23.439 Y19.892
X23.643 Y19.821
X23.849 Y19.758
X24.057 Y19.703
X24.268 Y19.655
X24.48 Y19.615
X24.693 Y19.583
X24.908 Y19.559
X25.123 Y19.543
X25.339 Y19.534
X25.555
X25.771 Y19.542
X25.987 Y19.557
X26.202 Y19.581
X26.416 Y19.612
X26.629 Y19.651
X26.841 Y19.699
X27.05 Y19.754
X27.258 Y19.816
X27.463 Y19.886
X27.665 Y19.964
X27.864 Y20.049
X28.061 Y20.142
X28.253 Y20.242
X28.442 Y20.349
X28.627 Y20.462
X28.808 Y20.583
X28.984 Y20.71
X29.156 Y20.844
X29.322 Y20.984
X29.484 Y21.13
X29.64 Y21.282
X29.79 Y21.439
X29.934 Y21.603
X30.073 Y21.771
X30.205 Y21.944
X30.33 Y22.123
X30.449 Y22.306
X30.561 Y22.493
X30.667 Y22.684
X30.765 Y22.879
X30.856 Y23.078
X30.94 Y23.28
X31.016 Y23.485
X31.084 Y23.692
X31.145 Y23.902
X31.198 Y24.115
X31.244 Y24.329
X31.281 Y24.545
X31.31 Y24.762
X31.332 Y24.98
X31.345 Y25.199
X31.35 Y25.418
X31.348 Y25.637
X31.337 Y25.856
X31.318 Y26.075
X31.291 Y26.293
X31.256 Y26.51
X31.213 Y26.725
X31.162 Y26.939
X31.103 Y27.151
X31.036 Y27.36
X30.962 Y27.567
X30.88 Y27.771
X30.791 Y27.972
X30.694 Y28.17
X30.59 Y28.364
X30.479 Y28.554
X30.36 Y28.74
X30.235 Y28.922
X30.104 Y29.099
X29.966 Y29.271
X29.821 Y29.438
X29.671 Y29.599
X29.514 Y29.755
X29.352 Y29.905
X29.185 Y30.049
X29.012 Y30.187
X28.834 Y30.318
X28.652 Y30.443
X28.464 Y30.561
X28.273 Y30.672
X28.077 Y30.776
X27.878 Y30.873
X27.675 Y30.962
X27.47 Y31.044
X27.261 Y31.118
X27.049 Y31.185
X26.835 Y31.243
X26.619 Y31.294
X26.401 Y31.337
X26.182 Y31.372
X25.961 Y31.398
X25.74 Y31.417
X25.518 Y31.427
X25.295 Y31.429
X25.073 Y31.423
X24.851 Y31.409
X24.629 Y31.386
X24.409 Y31.356
X24.19 Y31.317
X23.972 Y31.27
X23.756 Y31.215
X23.542 Y31.153
X23.33 Y31.082
X23.121 Y31.003
X22.915 Y30.917
X22.713 Y30.824
X22.513 Y30.723
X22.318 Y30.614
X22.127 Y30.499
X21.94 Y30.376
X21.757 Y30.247
X21.58 Y30.11
X21.407 Y29.968
X21.24 Y29.819
X21.079 Y29.664
X20.923 Y29.503
X20.773 Y29.336
X20.629 Y29.164
X20.492 Y28.987
X20.361 Y28.804
X20.238 Y28.617
X20.121 Y28.426
X20.011 Y28.23
X19.908 Y28.03
X19.813 Y27.827
X19.725 Y27.62
X19.645 Y27.409
X19.573 Y27.196
X19.509 Y26.981
X19.452 Y26.763
X19.404 Y26.543
X19.364 Y26.321
X19.332 Y26.098
X19.308 Y25.874
X19.293 Y25.649
X19.285 Y25.424
X19.287 Y25.198
X19.296 Y24.973
X19.314 Y24.748
X19.34 Y24.524
X19.374 Y24.3
X19.417 Y24.079
X19.467 Y23.858
X19.526 Y23.64
X19.593 Y23.424
X19.668 Y23.21
X19.75 Y23
X19.841 Y22.792
X19.939 Y22.588
X20.044 Y22.388
X20.157 Y22.191
X20.277 Y21.999
X20.404 Y21.811
X20.538 Y21.628
X20.679 Y21.45
X20.826 Y21.277
X20.979 Y21.11
X21.139 Y20.948
X21.304 Y20.792
X21.475 Y20.643
X21.652 Y20.5
X21.834 Y20.363
X22.021 Y20.234
X22.212 Y20.111
X22.408 Y19.995
X22.608 Y19.887
X22.812 Y19.785
X23.02 Y19.692
X23.231 Y19.606
X23.445 Y19.528
X23.662 Y19.458
X23.882 Y19.396
X24.104 Y19.342
X24.327 Y19.296
X24.553 Y19.259
X24.779 Y19.23
X25.007 Y19.209
X25.235 Y19.196
X25.464 Y19.192
X25.692 Y19.197
X25.921 Y19.21
X26.149 Y19.231
X26.376 Y19.261
X26.602 Y19.299
X26.826 Y19.345
X27.048 Y19.4
X27.269 Y19.463
X27.487 Y19.534
X27.702 Y19.612
X27.915 Y19.699
X28.124 Y19.794
X28.329 Y19.896
X28.531 Y20.006
X28.728 Y20.123
X28.922 Y20.248
X29.11 Y20.379
X29.294 Y20.518
X29.472 Y20.663
X29.645 Y20.815
X29.813 Y20.973
X29.974 Y21.137
X30.13 Y21.307
X30.279 Y21.483
X30.421 Y21.664
X30.557 Y21.851
X30.686 Y22.042
X30.808 Y22.238
X30.922 Y22.438
X31.029 Y22.643
X31.129 Y22.852
X31.221 Y23.064
X31.305 Y23.279
X31.38 Y23.497
X31.448 Y23.719
X31.508 Y23.942
X31.56 Y24.168
X31.603 Y24.395
X31.637 Y24.624
X31.664 Y24.855
X31.681 Y25.086
X31.691 Y25.317
Y25.549
X31.683 Y25.781
X31.667 Y26.013
X31.642 Y26.243
X31.609 Y26.473
X31.567 Y26.701
X31.516 Y26.928
X31.458 Y27.153
X31.391 Y27.376
X31.316 Y27.596
X31.233 Y27.813
X31.141 Y28.027
X31.042 Y28.238
X30.936 Y28.444
X30.821 Y28.647
X30.7 Y28.846
X30.57 Y29.04
X30.434 Y29.229
X30.291 Y29.413
X30.141 Y29.592
X29.985 Y29.765
X29.822 Y29.932
X29.654 Y30.094
X29.479 Y30.249
X29.299 Y30.397
X29.113 Y30.539
X28.922 Y30.674
X28.726 Y30.802
X28.526 Y30.922
X28.321 Y31.035
X28.112 Y31.141
X27.899 Y31.239
X27.683 Y31.328
X27.464 Y31.41
X27.241 Y31.484
X27.016 Y31.55
X26.789 Y31.607
X26.559 Y31.656
X26.328 Y31.696
X26.095 Y31.728
X25.862 Y31.751
X25.627 Y31.766
X25.392 Y31.772
X25.157 Y31.769
X24.923 Y31.757
X24.688 Y31.737
X24.455 Y31.709
X24.222 Y31.672
X23.991 Y31.626
X23.762 Y31.571
X23.535 Y31.509
X23.311 Y31.438
X23.089 Y31.358
X22.87 Y31.271
X22.654 Y31.175
X22.442 Y31.072
X22.234 Y30.96
X22.03 Y30.841
X21.83 Y30.715
X21.635 Y30.581
X21.446 Y30.441
X21.261 Y30.293
X21.082 Y30.138
X20.909 Y29.977
X20.742 Y29.81
X20.58 Y29.636
X20.426 Y29.457
X20.278 Y29.272
X20.137 Y29.082
X20.003 Y28.886
X19.876 Y28.686
X19.757 Y28.481
X19.645 Y28.271
X19.541 Y28.058
X19.445 Y27.841
X19.358 Y27.62
X19.278 Y27.397
X19.206 Y27.17
X19.143 Y26.941
X19.088 Y26.71
X19.042 Y26.476
X19.005 Y26.241
X18.976 Y26.005
X18.956 Y25.768
X18.944 Y25.53
X18.942 Y25.292
X18.948 Y25.054
X18.963 Y24.816
X18.987 Y24.579
X19.019 Y24.342
X19.061 Y24.107
X19.11 Y23.874
X19.169 Y23.643
X19.236 Y23.413
X19.311 Y23.187
X19.395 Y22.963
X19.487 Y22.742
X19.587 Y22.525
X19.695 Y22.312
X19.811 Y22.102
X19.934 Y21.897
X20.065 Y21.697
X20.203 Y21.502
X20.349 Y21.311
X20.501 Y21.126
X20.66 Y20.947
X20.826 Y20.774
X20.998 Y20.607
X21.176 Y20.446
X21.36 Y20.292
X21.55 Y20.145
X21.745 Y20.005
X21.945 Y19.872
X22.15 Y19.747
X22.359 Y19.629
X22.573 Y19.519
X22.791 Y19.417
X23.012 Y19.323
X23.237 Y19.237
X23.465 Y19.159
X23.695 Y19.09
X23.929 Y19.03
X24.164 Y18.978
X24.401 Y18.934
X24.64 Y18.9
X24.879 Y18.874
X25.12 Y18.857
X25.361 Y18.849
X25.603 Y18.85
X25.844 Y18.86
X26.085 Y18.878
X26.325 Y18.906
X26.564 Y18.942
X26.801 Y18.988
X27.037 Y19.042
X27.27 Y19.104
X27.502 Y19.175
X27.73 Y19.255
X27.956 Y19.343
X28.178 Y19.439
X28.396 Y19.544
X28.611 Y19.656
X28.821 Y19.777
X29.027 Y19.905
X29.228 Y20.041
X29.424 Y20.184
X29.615 Y20.334
X29.8 Y20.491
X29.979 Y20.655
X30.152 Y20.826
X30.319 Y21.002
X30.479 Y21.185
X30.633 Y21.374
X30.779 Y21.568
X30.918 Y21.768
X31.05 Y21.973
X31.174 Y22.182
X31.29 Y22.396
X31.399 Y22.615
X31.499 Y22.837
X31.591 Y23.063
X31.675 Y23.292
X31.75 Y23.524
X31.817 Y23.759
X31.875 Y23.996
X31.924 Y24.235
X31.965 Y24.476
X31.996 Y24.718
X32.019 Y24.962
X32.032 Y25.206
X32.037 Y25.45
X32.033 Y25.695
X32.019 Y25.939
X31.997 Y26.183
X31.965 Y26.426
X31.925 Y26.668
X31.876 Y26.907
X31.817 Y27.146
X31.751 Y27.381
X31.675 Y27.615
X31.591 Y27.845
X31.498 Y28.072
X31.397 Y28.296
X31.288 Y28.516
X31.171 Y28.732
X31.046 Y28.943
X30.913 Y29.15
X30.773 Y29.352
X30.625 Y29.548
X30.47 Y29.739
X30.308 Y29.924
X30.139 Y30.103
X29.964 Y30.276
X29.783 Y30.442
X29.595 Y30.602
X29.402 Y30.755
X29.203 Y30.9
X28.998 Y31.038
X28.789 Y31.168
X28.575 Y31.291
X28.356 Y31.406
X28.134 Y31.512
X27.907 Y31.611
X27.677 Y31.701
X27.444 Y31.782
X27.208 Y31.855
X26.969 Y31.919
X26.728 Y31.974
X26.485 Y32.021
X26.24 Y32.058
X25.995 Y32.086
X25.748 Y32.106
X25.5 Y32.116
X25.252 Y32.117
X25.005 Y32.109
X24.757 Y32.092
X24.511 Y32.065
X24.265 Y32.03
X24.021 Y31.985
X23.779 Y31.932
X23.538 Y31.87
X23.301 Y31.798
X23.065 Y31.719
X22.833 Y31.63
X22.604 Y31.533
X22.379 Y31.427
X22.158 Y31.314
X21.941 Y31.192
X21.729 Y31.062
X21.521 Y30.924
X21.319 Y30.779
X21.122 Y30.626
X20.931 Y30.466
X20.745 Y30.3
X20.566 Y30.126
X20.394 Y29.946
X20.228 Y29.759
X20.069 Y29.567
X19.917 Y29.369
X19.773 Y29.165
X19.636 Y28.956
X19.507 Y28.742
X19.386 Y28.523
X19.273 Y28.3
X19.168 Y28.073
X19.072 Y27.842
X18.984 Y27.608
X18.905 Y27.37
X18.834 Y27.13
X18.773 Y26.887
X18.721 Y26.642
X18.677 Y26.395
X18.643 Y26.147
X18.618 Y25.897
X18.602 Y25.647
X18.595 Y25.396
X18.598 Y25.145
X18.61 Y24.894
X18.631 Y24.644
X18.661 Y24.395
X18.7 Y24.146
X18.749 Y23.9
X18.807 Y23.655
X18.873 Y23.412
X18.949 Y23.172
X19.033 Y22.935
X19.127 Y22.701
X19.228 Y22.471
X19.339 Y22.244
X19.457 Y22.022
X19.584 Y21.804
X19.718 Y21.591
X19.861 Y21.383
X20.011 Y21.18
X20.168 Y20.983
X20.333 Y20.792
X20.505 Y20.606
X20.683 Y20.428
X20.868 Y20.255
X21.059 Y20.09
X21.256 Y19.932
X21.459 Y19.781
X21.668 Y19.638
X21.882 Y19.503
X22.1 Y19.375
X22.323 Y19.256
X22.551 Y19.144
X22.782 Y19.042
X23.018 Y18.948
X23.256 Y18.862
X23.498 Y18.785
X23.743 Y18.718
X23.989 Y18.659
X24.238 Y18.61
X24.489 Y18.569
X24.741 Y18.538
X24.994 Y18.516
X25.248 Y18.504
X25.502 Y18.501
X25.756 Y18.507
X26.01 Y18.523
X26.263 Y18.548
X26.515 Y18.582
X26.766 Y18.626
X27.015 Y18.679
X27.262 Y18.741
X27.507 Y18.812
X27.749 Y18.892
X27.988 Y18.981
X28.223 Y19.079
X28.455 Y19.185
X28.683 Y19.3
X28.906 Y19.423
X29.125 Y19.555
X29.339 Y19.694
X29.548 Y19.841
X29.751 Y19.996
X29.948 Y20.159
X30.139 Y20.328
X30.325 Y20.505
X30.503 Y20.688
X30.675 Y20.878
X30.839 Y21.074
X30.996 Y21.276
X31.146 Y21.484
X31.288 Y21.697
X31.422 Y21.916
X31.548 Y22.139
X31.666 Y22.367
X31.775 Y22.599
X31.876 Y22.835
X31.968 Y23.075
X32.051 Y23.318
X32.125 Y23.564
X32.19 Y23.813
X32.246 Y24.064
X32.293 Y24.316
X32.33 Y24.571
X32.357 Y24.827
X32.376 Y25.083
X32.385 Y25.341
X32.384 Y25.598
X32.374 Y25.855
X32.354 Y26.112
X32.325 Y26.368
X32.287 Y26.623
X32.239 Y26.877
X32.182 Y27.128
X32.115 Y27.377
X32.04 Y27.624
X31.955 Y27.868
X31.862 Y28.108
X31.759 Y28.345
X31.648 Y28.579
X31.528 Y28.808
X31.4 Y29.032
X31.264 Y29.252
X31.119 Y29.466
X30.967 Y29.676
X30.807 Y29.879
X30.64 Y30.076
X30.466 Y30.268
X30.284 Y30.452
X30.096 Y30.63
X29.901 Y30.801
X29.7 Y30.965
X29.493 Y31.121
X29.28 Y31.27
X29.062 Y31.411
X28.839 Y31.543
X28.611 Y31.667
X28.379 Y31.783
X28.142 Y31.891
X27.902 Y31.989
X27.658 Y32.079
X27.411 Y32.159
X27.161 Y32.23
X26.908 Y32.293
X26.653 Y32.345
X26.397 Y32.389
X26.138 Y32.423
X25.879 Y32.447
X25.619 Y32.462
X25.359 Y32.467
X25.098 Y32.463
X24.837 Y32.449
X24.578 Y32.425
X24.319 Y32.392
X24.061 Y32.349
X23.806 Y32.297
X23.552 Y32.235
X23.3 Y32.165
X23.052 Y32.084
X22.806 Y31.995
X22.564 Y31.897
X22.325 Y31.79
X22.091 Y31.674
X21.861 Y31.549
X21.635 Y31.416
X21.415 Y31.275
X21.199 Y31.125
X20.99 Y30.968
X20.786 Y30.803
X20.589 Y30.631
X20.398 Y30.451
X20.213 Y30.265
X20.036 Y30.072
X19.865 Y29.872
X19.702 Y29.666
X19.547 Y29.454
X19.4 Y29.237
X19.261 Y29.014
X19.13 Y28.786
X19.007 Y28.553
X18.893 Y28.316
X18.788 Y28.075
X18.692 Y27.83
X18.605 Y27.582
X18.527 Y27.33
X18.458 Y27.076
X18.399 Y26.819
X18.349 Y26.56
X18.309 Y26.3
X18.279 Y26.038
X18.258 Y25.775
X18.247 Y25.511
X18.245 Y25.247
X18.253 Y24.984
X18.271 Y24.72
X18.299 Y24.458
X18.337 Y24.196
X18.384 Y23.936
X18.44 Y23.678
X18.506 Y23.422
X18.582 Y23.168
X18.666 Y22.918
X18.761 Y22.67
X18.864 Y22.426
X18.976 Y22.186
X19.097 Y21.951
X19.226 Y21.719
X19.364 Y21.493
X19.51 Y21.272
X19.665 Y21.056
X19.827 Y20.847
X19.997 Y20.643
X20.174 Y20.445
X20.359 Y20.255
X20.55 Y20.071
X20.748 Y19.894
X20.953 Y19.724
X21.164 Y19.563
X21.38 Y19.409
X21.603 Y19.263
X21.83 Y19.125
X22.063 Y18.996
X22.3 Y18.875
X22.542 Y18.763
X22.787 Y18.66
X23.037 Y18.567
X23.29 Y18.482
X23.545 Y18.407
X23.804 Y18.341
X24.064 Y18.285
X24.327 Y18.239
X24.591 Y18.202
X24.857 Y18.175
X25.123 Y18.157
X25.39 Y18.15
X25.657 Y18.152
X25.924 Y18.165
X26.191 Y18.187
X26.456 Y18.219
X26.72 Y18.26
X26.983 Y18.312
X27.244 Y18.373
X27.502 Y18.443
X27.757 Y18.523
X28.01 Y18.613
X28.259 Y18.712
X28.504 Y18.82
X28.745 Y18.937
X28.982 Y19.062
X29.214 Y19.197
X29.441 Y19.34
X29.663 Y19.491
X29.879 Y19.65
X30.089 Y19.818
X30.293 Y19.993
X30.49 Y20.175
X30.68 Y20.365
X30.864 Y20.561
X31.04 Y20.765
X31.208 Y20.974
X31.369 Y21.19
X31.522 Y21.412
X31.666 Y21.639
X31.802 Y21.871
X31.93 Y22.109
X32.048 Y22.351
X32.158 Y22.597
X32.259 Y22.847
X32.35 Y23.101
X32.432 Y23.358
X32.504 Y23.618
X32.567 Y23.881
X32.62 Y24.146
X32.663 Y24.412
X32.697 Y24.68
X32.72 Y24.95
X32.734 Y25.22
X32.737 Y25.49
X32.731 Y25.76
X32.715 Y26.03
X32.688 Y26.3
X32.652 Y26.568
X32.606 Y26.835
X32.55 Y27.1
X32.485 Y27.363
X32.409 Y27.623
X32.325 Y27.88
X32.23 Y28.135
X32.127 Y28.385
X32.014 Y28.632
X31.892 Y28.874
X31.761 Y29.112
X31.622 Y29.345
X31.474 Y29.573
X31.317 Y29.795
X31.153 Y30.011
X30.98 Y30.221
X30.8 Y30.425
X30.613 Y30.622
X30.418 Y30.812
X30.217 Y30.995
X30.008 Y31.17
X29.794 Y31.337
X29.573 Y31.497
X29.346 Y31.648
X29.114 Y31.791
X28.877 Y31.925
X28.635 Y32.051
X28.388 Y32.167
X28.138 Y32.274
X27.883 Y32.373
X27.625 Y32.461
X27.364 Y32.54
X27.099 Y32.61
X26.833 Y32.669
X26.564 Y32.719
X26.294 Y32.759
X26.022 Y32.789
X25.749 Y32.809
X25.476 Y32.818
X25.202
X24.929 Y32.808
X24.656 Y32.787
X24.383 Y32.757
X24.112 Y32.716
X23.843 Y32.666
X23.576 Y32.605
X23.311 Y32.535
X23.048 Y32.455
X22.789 Y32.365
X22.533 Y32.266
X22.281 Y32.158
X22.033 Y32.04
X21.79 Y31.913
X21.551 Y31.777
X21.317 Y31.632
X21.089 Y31.479
X20.866 Y31.318
X20.65 Y31.148
X20.44 Y30.971
X20.236 Y30.785
X20.039 Y30.593
X19.85 Y30.393
X19.668 Y30.186
X19.494 Y29.973
X19.327 Y29.753
X19.169 Y29.527
X19.019 Y29.296
X18.878 Y29.059
X18.746 Y28.817
X18.622 Y28.57
X18.508 Y28.319
X18.403 Y28.063
X18.308 Y27.804
X18.222 Y27.541
X18.145 Y27.276
X18.079 Y27.007
X18.023 Y26.737
X17.976 Y26.464
X17.94 Y26.19
X17.914 Y25.914
X17.897 Y25.638
X17.892 Y25.361
X17.896 Y25.084
X17.91 Y24.808
X17.935 Y24.532
X17.97 Y24.257
X18.015 Y23.983
X18.07 Y23.711
X18.135 Y23.441
X18.21 Y23.174
X18.295 Y22.91
X18.389 Y22.649
X18.494 Y22.391
X18.607 Y22.138
X18.73 Y21.889
X18.862 Y21.644
X19.003 Y21.404
X19.153 Y21.17
X19.311 Y20.941
X19.478 Y20.719
X19.652 Y20.502
X19.835 Y20.292
X20.026 Y20.089
X20.223 Y19.893
X20.428 Y19.704
X20.64 Y19.523
X20.859 Y19.35
X21.083 Y19.185
X21.314 Y19.028
X21.551 Y18.88
X21.792 Y18.74
X22.039 Y18.61
X22.291 Y18.489
X22.547 Y18.377
X22.806 Y18.274
X23.07 Y18.182
X23.337 Y18.099
X23.607 Y18.025
X23.879 Y17.962
X24.154 Y17.909
X24.43 Y17.866
X24.708 Y17.833
X24.988 Y17.811
X25.267 Y17.798
X25.548 Y17.797
X25.828 Y17.805
X26.107 Y17.824
X26.386 Y17.853
X26.664 Y17.892
X26.94 Y17.942
X27.214 Y18.001
X27.486 Y18.071
X27.755 Y18.151
X28.021 Y18.241
X28.284 Y18.34
X28.543 Y18.449
X28.798 Y18.568
X29.048 Y18.696
X29.294 Y18.833
X29.534 Y18.979
X29.769 Y19.134
X29.998 Y19.297
X30.221 Y19.469
X30.438 Y19.649
X30.647 Y19.837
X30.85 Y20.033
X31.046 Y20.236
X31.234 Y20.446
X31.414 Y20.663
X31.586 Y20.887
X31.75 Y21.117
X31.905 Y21.352
X32.051 Y21.594
X32.189 Y21.84
X32.317 Y22.092
X32.436 Y22.348
X32.546 Y22.609
X32.645 Y22.874
X32.736 Y23.142
X32.816 Y23.413
X32.886 Y23.687
X32.946 Y23.964
X32.996 Y24.242
X33.035 Y24.523
X33.064 Y24.805
X33.083 Y25.087
X33.091 Y25.371
X33.089 Y25.654
X33.076 Y25.938
X33.053 Y26.22
X33.02 Y26.502
X32.976 Y26.782
X32.922 Y27.061
X32.857 Y27.338
X32.783 Y27.612
X32.698 Y27.883
X32.603 Y28.151
X32.499 Y28.415
X32.385 Y28.675
X32.261 Y28.931
X32.128 Y29.183
X31.986 Y29.429
X31.834 Y29.67
X31.674 Y29.905
X31.505 Y30.135
X31.328 Y30.358
X31.143 Y30.574
X30.95 Y30.784
X30.749 Y30.986
X30.541 Y31.181
X30.325 Y31.368
X30.103 Y31.547
X29.875 Y31.717
X29.64 Y31.88
X29.399 Y32.033
X29.153 Y32.178
X28.901 Y32.313
X28.645 Y32.439
X28.384 Y32.556
X28.119 Y32.663
X27.85 Y32.76
X27.577 Y32.847
X27.302 Y32.924
X27.023 Y32.991
X26.743 Y33.048
X26.46 Y33.094
X26.176 Y33.13
X25.891 Y33.155
X25.604 Y33.17
X25.318 Y33.174
X25.031 Y33.168
X24.745 Y33.151
X24.459 Y33.123
X24.175 Y33.085
X23.892 Y33.037
X23.611 Y32.978
X23.332 Y32.909
X23.056 Y32.829
X22.783 Y32.74
X22.513 Y32.64
X22.247 Y32.531
X21.985 Y32.411
X21.728 Y32.282
X21.476 Y32.144
X21.229 Y31.996
X20.987 Y31.84
X20.751 Y31.674
X20.522 Y31.5
X20.299 Y31.318
X20.083 Y31.127
X19.873 Y30.929
X19.672 Y30.722
X19.478 Y30.509
X19.292 Y30.288
X19.114 Y30.061
X18.945 Y29.827
X18.784 Y29.587
X18.632 Y29.341
X18.489 Y29.09
X18.356 Y28.834
X18.232 Y28.572
X18.118 Y28.307
X18.014 Y28.037
X17.92 Y27.763
X17.835 Y27.486
X17.761 Y27.207
X17.698 Y26.924
X17.645 Y26.639
X17.602 Y26.353
X17.57 Y26.065
X17.549 Y25.776
X17.538 Y25.486
Y25.196
X17.548 Y24.906
X17.57 Y24.617
X17.602 Y24.328
X17.644 Y24.041
X17.697 Y23.756
X17.761 Y23.472
X17.835 Y23.191
X17.92 Y22.913
X18.014 Y22.638
X18.119 Y22.367
X18.234 Y22.1
X18.358 Y21.837
X18.492 Y21.578
X18.636 Y21.325
X18.789 Y21.077
X18.951 Y20.835
X19.122 Y20.599
X19.301 Y20.37
X19.489 Y20.147
X19.685 Y19.931
X19.889 Y19.723
X20.1 Y19.522
X20.319 Y19.329
X20.545 Y19.144
X20.777 Y18.967
X21.016 Y18.799
X21.261 Y18.64
X21.512 Y18.491
X21.768 Y18.35
X22.029 Y18.219
X22.295 Y18.098
X22.566 Y17.986
X22.84 Y17.884
X23.118 Y17.793
X23.399 Y17.712
X23.683 Y17.641
X23.97 Y17.581
X24.259 Y17.532
X24.549 Y17.493
X24.841 Y17.465
X25.133 Y17.447
X25.426 Y17.441
X25.72 Y17.445
X26.013 Y17.46
X26.305 Y17.485
X26.596 Y17.522
X26.886 Y17.569
X27.174 Y17.627
X27.46 Y17.696
X27.743 Y17.775
X28.023 Y17.864
X28.299 Y17.964
X28.572 Y18.074
X28.84 Y18.194
X29.105 Y18.324
X29.364 Y18.463
X29.618 Y18.612
X29.866 Y18.77
X30.108 Y18.937
X30.345 Y19.114
X30.574 Y19.298
X30.797 Y19.492
X31.012 Y19.693
X31.22 Y19.902
X31.42 Y20.119
X31.612 Y20.343
X31.796 Y20.574
X31.971 Y20.812
X32.137 Y21.056
X32.295 Y21.306
X32.442 Y21.562
X32.581 Y21.823
X32.71 Y22.089
X32.829 Y22.36
X32.937 Y22.635
X33.036 Y22.914
X33.124 Y23.197
X33.202 Y23.482
X33.27 Y23.771
X33.326 Y24.062
X33.372 Y24.354
X33.407 Y24.649
X33.431 Y24.944
X33.445 Y25.24
X33.447 Y25.537
X33.439 Y25.833
X33.419 Y26.13
X33.389 Y26.425
X33.348 Y26.719
X33.295 Y27.011
X33.233 Y27.301
X33.159 Y27.589
X33.075 Y27.874
X32.981 Y28.156
X32.876 Y28.434
X32.761 Y28.709
X32.635 Y28.978
X32.5 Y29.244
X32.356 Y29.504
X32.201 Y29.758
X32.038 Y30.007
X31.865 Y30.25
X31.683 Y30.486
X31.493 Y30.715
X31.294 Y30.937
X31.088 Y31.152
X30.873 Y31.359
X30.651 Y31.559
X30.422 Y31.749
X30.185 Y31.932
X29.943 Y32.105
X29.693 Y32.27
X29.438 Y32.425
X29.177 Y32.571
X28.911 Y32.707
X28.64 Y32.833
X28.365 Y32.949
X28.085 Y33.055
X27.802 Y33.151
X27.515 Y33.236
X27.225 Y33.311
X26.932 Y33.375
X26.638 Y33.428
X26.341 Y33.47
X26.043 Y33.501
X25.744 Y33.521
X25.444 Y33.53
X25.144 Y33.528
X24.845 Y33.515
X24.546 Y33.491
X24.248 Y33.456
X23.951 Y33.41
X23.656 Y33.353
X23.364 Y33.286
X23.074 Y33.207
X22.787 Y33.118
X22.503 Y33.018
X22.223 Y32.908
X21.948 Y32.788
X21.677 Y32.657
X21.411 Y32.517
X21.15 Y32.366
X20.895 Y32.207
X20.645 Y32.037
X20.403 Y31.859
X20.166 Y31.672
X19.937 Y31.476
X19.715 Y31.272
X19.501 Y31.06
X19.295 Y30.84
X19.097 Y30.613
X18.907 Y30.378
X18.726 Y30.136
X18.554 Y29.888
X18.392 Y29.634
X18.238 Y29.373
X18.095 Y29.108
X17.961 Y28.837
X17.837 Y28.561
X17.724 Y28.28
X17.621 Y27.996
X17.528 Y27.708
X17.446 Y27.417
X17.375 Y27.122
X17.315 Y26.826
X17.266 Y26.527
X17.227 Y26.226
X17.2 Y25.925
X17.184 Y25.622
X17.179 Y25.319
X17.186 Y25.016
X17.203 Y24.713
X17.232 Y24.411
X17.272 Y24.11
X17.323 Y23.811
X17.384 Y23.514
X17.457 Y23.219
X17.541 Y22.927
X17.635 Y22.638
X17.74 Y22.353
X17.856 Y22.072
X17.981 Y21.795
X18.117 Y21.523
X18.263 Y21.256
X18.419 Y20.994
X18.584 Y20.739
X18.759 Y20.489
X18.942 Y20.246
X19.135 Y20.01
X19.336 Y19.782
X19.546 Y19.56
X19.763 Y19.347
X19.989 Y19.142
X20.222 Y18.945
X20.462 Y18.756
X20.709 Y18.577
X20.962 Y18.407
X21.221 Y18.246
X21.487 Y18.095
X21.758 Y17.954
X22.034 Y17.823
X22.314 Y17.702
X22.599 Y17.591
X22.888 Y17.491
X23.181 Y17.402
X23.476 Y17.323
X23.775 Y17.256
X24.075 Y17.199
X24.378 Y17.154
X24.683 Y17.119
X24.988 Y17.096
X25.294 Y17.085
X25.601 Y17.084
X25.907 Y17.095
X26.213 Y17.117
X26.518 Y17.15
X26.821 Y17.195
X27.123 Y17.251
X27.422 Y17.318
X27.719 Y17.396
X28.013 Y17.484
X28.304 Y17.584
X28.59 Y17.694
X28.873 Y17.815
X29.151 Y17.946
X29.424 Y18.088
X29.692 Y18.239
X29.954 Y18.4
X30.21 Y18.571
X30.459 Y18.751
X30.702 Y18.94
X30.938 Y19.139
X31.166 Y19.345
X31.387 Y19.56
X31.599 Y19.784
X31.804 Y20.014
X31.999 Y20.253
X32.186 Y20.498
X32.364 Y20.75
X32.532 Y21.009
X32.691 Y21.274
X32.84 Y21.544
X32.979 Y21.82
X33.107 Y22.101
X33.225 Y22.387
X33.333 Y22.676
X33.43 Y22.97
X33.516 Y23.267
X33.591 Y23.567
X33.655 Y23.87
X33.708 Y24.175
X33.749 Y24.481
X33.779 Y24.789
X33.798 Y25.099
X33.806 Y25.408
X33.802 Y25.718
X33.786 Y26.028
X33.759 Y26.336
X33.721 Y26.644
X33.671 Y26.95
X33.611 Y27.254
X33.539 Y27.556
X33.456 Y27.855
X33.361 Y28.151
X33.257 Y28.443
X33.141 Y28.732
X33.015 Y29.015
X32.878 Y29.294
X32.731 Y29.568
X32.574 Y29.837
X32.407 Y30.099
X32.231 Y30.355
X32.045 Y30.605
X31.851 Y30.847
X31.647 Y31.083
X31.435 Y31.311
X31.214 Y31.53
X30.985 Y31.742
X30.749 Y31.945
X30.505 Y32.139
X30.255 Y32.324
X29.997 Y32.5
X29.733 Y32.667
X29.463 Y32.823
X29.188 Y32.97
X28.907 Y33.106
X28.621 Y33.232
X28.331 Y33.347
X28.037 Y33.451
X27.739 Y33.545
X27.437 Y33.628
X27.133 Y33.699
X26.826 Y33.759
X26.517 Y33.808
X26.207 Y33.846
X25.895 Y33.872
X25.582 Y33.886
X25.269 Y33.889
X24.956 Y33.88
X24.644 Y33.86
X24.332 Y33.829
X24.022 Y33.785
X23.713 Y33.731
X23.406 Y33.665
X23.102 Y33.588
X22.801 Y33.499
X22.504 Y33.4
X22.21 Y33.29
X21.92 Y33.169
X21.635 Y33.037
X21.355 Y32.895
X21.081 Y32.742
X20.812 Y32.58
X20.549 Y32.407
X20.292 Y32.225
X20.043 Y32.034
X19.801 Y31.833
X19.566 Y31.624
X19.339 Y31.406
X19.12 Y31.18
X18.909 Y30.946
X18.707 Y30.704
X18.515 Y30.455
X18.331 Y30.199
X18.157 Y29.936
X17.993 Y29.667
X17.839 Y29.392
X17.695 Y29.111
X17.561 Y28.825
X17.438 Y28.534
X17.326 Y28.239
X17.224 Y27.94
X17.134 Y27.638
X17.055 Y27.332
X16.987 Y27.023
X16.931 Y26.712
X16.886 Y26.399
X16.853 Y26.085
X16.831 Y25.769
X16.821 Y25.453
X16.823 Y25.137
X16.836 Y24.821
X16.861 Y24.505
X16.897 Y24.19
X16.946 Y23.877
X17.005 Y23.566
X17.076 Y23.257
X17.159 Y22.951
X17.252 Y22.648
X17.357 Y22.349
X17.473 Y22.054
X17.6 Y21.763
X17.737 Y21.477
X17.885 Y21.196
X18.043 Y20.921
X18.211 Y20.651
X18.389 Y20.388
X18.577 Y20.132
X18.774 Y19.882
X18.98 Y19.64
X19.195 Y19.406
X19.419 Y19.18
X19.65 Y18.962
X19.89 Y18.753
X20.137 Y18.552
X20.392 Y18.361
X20.653 Y18.179
X20.921 Y18.008
X21.196 Y17.846
X21.476 Y17.694
X21.762 Y17.552
X22.052 Y17.422
X22.348 Y17.301
X22.648 Y17.192
X22.951 Y17.094
X23.258 Y17.008
X23.568 Y16.932
X23.881 Y16.868
X24.196 Y16.816
X24.513 Y16.775
X24.831 Y16.746
X25.15 Y16.729
X25.47 Y16.723
X25.79 Y16.73
X26.109 Y16.748
X26.428 Y16.777
X26.745 Y16.819
X27.06 Y16.872
X27.374 Y16.937
X27.685 Y17.013
X27.993 Y17.101
X28.298 Y17.2
X28.599 Y17.311
X28.895 Y17.432
X29.187 Y17.564
X29.474 Y17.707
X29.756 Y17.86
X30.032 Y18.024
X30.302 Y18.198
X30.565 Y18.382
X30.821 Y18.575
X31.07 Y18.778
X31.312 Y18.99
X31.545 Y19.211
X31.771 Y19.44
X31.988 Y19.677
X32.196 Y19.922
X32.394 Y20.175
X32.584 Y20.435
X32.764 Y20.702
X32.933 Y20.976
X33.093 Y21.255
X33.242 Y21.541
X33.381 Y21.831
X33.509 Y22.127
X33.626 Y22.428
X33.732 Y22.732
X33.827 Y23.04
X33.91 Y23.352
X33.981 Y23.667
X34.042 Y23.984
X34.09 Y24.303
X34.126 Y24.624
X34.151 Y24.946
X34.164 Y25.268
X34.165 Y25.591
X34.154 Y25.914
X34.131 Y26.237
X34.096 Y26.558
X34.049 Y26.878
X33.991 Y27.196
X33.921 Y27.512
X33.839 Y27.825
X33.746 Y28.135
X33.641 Y28.442
X33.526 Y28.744
X33.399 Y29.042
X33.261 Y29.335
X33.112 Y29.623
X32.953 Y29.905
X32.783 Y30.182
X32.604 Y30.452
X32.414 Y30.715
X32.215 Y30.971
X32.007 Y31.22
X31.789 Y31.461
X31.563 Y31.693
X31.328 Y31.918
X31.085 Y32.133
X30.834 Y32.34
X30.576 Y32.537
X30.31 Y32.725
X30.038 Y32.902
X29.759 Y33.07
X29.475 Y33.227
X29.184 Y33.374
X28.888 Y33.51
X28.588 Y33.634
X28.283 Y33.748
X27.974 Y33.851
X27.661 Y33.942
X27.345 Y34.021
X27.026 Y34.089
X26.705 Y34.145
X26.382 Y34.189
X26.057 Y34.221
X25.732 Y34.242
X25.405 Y34.25
X25.079 Y34.246
X24.753 Y34.23
X24.428 Y34.202
X24.103 Y34.162
X23.781 Y34.111
X23.46 Y34.047
X23.142 Y33.972
X22.827 Y33.884
X22.515 Y33.786
X22.207 Y33.676
X21.903 Y33.554
X21.604 Y33.421
X21.31 Y33.278
X21.021 Y33.123
X20.738 Y32.958
X20.462 Y32.783
X20.191 Y32.598
X19.928 Y32.402
X19.672 Y32.197
X19.424 Y31.983
X19.184 Y31.76
X18.952 Y31.528
X18.729 Y31.287
X18.515 Y31.039
X18.31 Y30.782
X18.114 Y30.518
X17.929 Y30.247
X17.753 Y29.969
X17.588 Y29.685
X17.433 Y29.395
X17.289 Y29.1
X17.156 Y28.799
X17.035 Y28.493
X16.924 Y28.184
X16.825 Y27.87
X16.738 Y27.552
X16.662 Y27.232
X16.598 Y26.909
X16.546 Y26.584
X16.506 Y26.256
X16.479 Y25.928
X16.463 Y25.599
X16.459 Y25.269
X16.468 Y24.939
X16.489 Y24.61
X16.522 Y24.282
X16.567 Y23.955
X16.624 Y23.63
X16.693 Y23.307
X16.774 Y22.987
X16.866 Y22.67
X16.971 Y22.356
X17.086 Y22.047
X17.213 Y21.741
X17.352 Y21.441
X17.501 Y21.146
X17.661 Y20.857
X17.832 Y20.573
X18.013 Y20.296
X18.205 Y20.026
X18.406 Y19.763
X18.616 Y19.508
X18.837 Y19.26
X19.066 Y19.021
X19.303 Y18.79
X19.55 Y18.568
X19.804 Y18.355
X20.066 Y18.152
X20.335 Y17.958
X20.612 Y17.775
X20.895 Y17.602
X21.184 Y17.439
X21.479 Y17.287
X21.78 Y17.146
X22.086 Y17.016
X22.396 Y16.898
X22.711 Y16.79
X23.029 Y16.695
X23.351 Y16.611
X23.676 Y16.54
X24.003 Y16.48
X24.332 Y16.432
X24.663 Y16.397
X24.995 Y16.374
X25.328 Y16.363
X25.661 Y16.364
X25.994 Y16.377
X26.326 Y16.403
X26.657 Y16.441
X26.987 Y16.491
X27.315 Y16.554
X27.64 Y16.628
X27.962 Y16.715
X28.281 Y16.813
X28.596 Y16.923
X28.907 Y17.044
X29.213 Y17.177
X29.514 Y17.321
X29.81 Y17.476
X30.1 Y17.642
X30.384 Y17.819
X30.661 Y18.006
X30.931 Y18.203
X31.194 Y18.41
X31.449 Y18.627
X31.696 Y18.853
X31.934 Y19.088
X32.164 Y19.331
X32.385 Y19.583
X32.596 Y19.843
X32.797 Y20.111
X32.989 Y20.386
X33.17 Y20.668
X33.341 Y20.957
X33.501 Y21.251
X33.65 Y21.552
X33.789 Y21.857
X33.915 Y22.168
X34.03 Y22.484
X34.134 Y22.803
X34.226 Y23.126
X34.306 Y23.452
X34.373 Y23.782
X34.429 Y24.113
X34.472 Y24.446
X34.503 Y24.781
X34.522 Y25.117
X34.528 Y25.453
X34.522 Y25.79
X34.503 Y26.126
X34.472 Y26.461
X34.429 Y26.795
X34.374 Y27.127
X34.306 Y27.457
X34.226 Y27.784
X34.134 Y28.109
X34.03 Y28.429
X33.914 Y28.746
X33.787 Y29.058
X33.648 Y29.366
X33.498 Y29.668
X33.337 Y29.964
X33.165 Y30.255
X32.983 Y30.539
X32.79 Y30.816
X32.587 Y31.086
X32.374 Y31.348
X32.151 Y31.602
X31.92 Y31.848
X31.679 Y32.086
X31.43 Y32.314
X31.172 Y32.533
X30.906 Y32.743
X30.633 Y32.942
X30.353 Y33.132
X30.065 Y33.311
X29.771 Y33.479
X29.471 Y33.636
X29.166 Y33.783
X28.855 Y33.918
X28.539 Y34.041
X28.219 Y34.153
X27.895 Y34.253
X27.568 Y34.341
X27.237 Y34.416
X26.904 Y34.48
X26.568 Y34.531
X26.231 Y34.57
X25.892 Y34.596
X25.553 Y34.61
X25.213 Y34.612
X24.874 Y34.601
X24.535 Y34.577
X24.196 Y34.541
X23.86 Y34.492
X23.525 Y34.431
X23.193 Y34.358
X22.864 Y34.272
X22.538 Y34.175
X22.215 Y34.065
X21.897 Y33.944
X21.584 Y33.811
X21.275 Y33.666
X20.972 Y33.51
X20.675 Y33.343
X20.384 Y33.165
X20.1 Y32.977
X19.823 Y32.778
X19.553 Y32.569
X19.291 Y32.35
X19.038 Y32.121
X18.793 Y31.884
X18.556 Y31.637
X18.329 Y31.382
X18.112 Y31.118
X17.904 Y30.847
X17.707 Y30.568
X17.519 Y30.282
X17.343 Y29.989
X17.177 Y29.69
X17.023 Y29.385
X16.879 Y29.074
X16.748 Y28.758
X16.627 Y28.437
X16.519 Y28.112
X16.423 Y27.784
X16.339 Y27.452
X16.267 Y27.117
X16.208 Y26.779
X16.161 Y26.439
X16.127 Y26.098
X16.105 Y25.756
X16.096 Y25.413
X16.1 Y25.07
X16.116 Y24.727
X16.145 Y24.385
X16.186 Y24.044
X16.24 Y23.705
X16.307 Y23.368
X16.386 Y23.033
X16.477 Y22.702
X16.58 Y22.374
X16.696 Y22.05
X16.823 Y21.731
X16.962 Y21.416
X17.112 Y21.107
X17.274 Y20.803
X17.447 Y20.505
X17.631 Y20.214
X17.826 Y19.93
X18.031 Y19.653
X18.246 Y19.384
X18.47 Y19.123
X18.705 Y18.87
X18.948 Y18.626
X19.201 Y18.391
X19.462 Y18.166
X19.731 Y17.95
X20.008 Y17.744
X20.293 Y17.549
X20.584 Y17.364
X20.883 Y17.19
X21.187 Y17.027
X21.498 Y16.875
X21.813 Y16.735
X22.134 Y16.607
X22.46 Y16.49
X22.789 Y16.386
X23.123 Y16.293
X23.459 Y16.214
X23.799 Y16.146
X24.14 Y16.091
X24.484 Y16.049
X24.829 Y16.019
X25.175 Y16.002
X25.521 Y15.998
X25.868 Y16.007
X26.214 Y16.028
X26.559 Y16.062
X26.902 Y16.109
X27.244 Y16.169
X27.583 Y16.241
X27.92 Y16.325
X28.253 Y16.422
X28.583 Y16.531
X28.908 Y16.652
X29.229 Y16.786
X29.544 Y16.93
X29.855 Y17.087
X30.159 Y17.255
X30.457 Y17.434
X30.748 Y17.624
X31.032 Y17.824
X31.309 Y18.035
X31.577 Y18.256
X31.838 Y18.487
X32.09 Y18.728
X32.332 Y18.977
X32.566 Y19.236
X32.79 Y19.503
X33.004 Y19.778
X33.208 Y20.06
X33.401 Y20.351
X33.583 Y20.648
X33.754 Y20.952
X33.915 Y21.262
X34.063 Y21.577
X34.2 Y21.898
X34.325 Y22.224
X34.438 Y22.555
X34.539 Y22.889
X34.627 Y23.227
X34.703 Y23.568
X34.766 Y23.912
X34.816 Y24.258
X34.854 Y24.605
X34.879 Y24.954
X34.891 Y25.304
X34.89 Y25.654
X34.876 Y26.003
X34.85 Y26.352
X34.81 Y26.7
X34.758 Y27.046
X34.693 Y27.391
X34.615 Y27.732
X34.525 Y28.071
X34.422 Y28.406
X34.307 Y28.737
X34.18 Y29.064
X34.041 Y29.386
X33.89 Y29.702
X33.727 Y30.013
X33.553 Y30.318
X33.368 Y30.616
X33.172 Y30.907
X32.965 Y31.191
X32.748 Y31.467
X32.521 Y31.735
X32.284 Y31.995
X32.038 Y32.246
X31.783 Y32.487
X31.518 Y32.719
X31.246 Y32.941
X30.965 Y33.153
X30.676 Y33.355
X30.381 Y33.545
X30.078 Y33.725
X29.769 Y33.894
X29.454 Y34.051
X29.133 Y34.196
X28.807 Y34.33
X28.476 Y34.451
X28.141 Y34.56
X27.802 Y34.657
X27.459 Y34.741
X27.114 Y34.813
X26.766 Y34.871
X26.416 Y34.917
X26.064 Y34.95
X25.712 Y34.97
X25.359 Y34.977
X25.006 Y34.971
X24.653 Y34.952
X24.301 Y34.92
X23.95 Y34.875
X23.602 Y34.817
X23.255 Y34.747
X22.911 Y34.663
X22.571 Y34.567
X22.234 Y34.459
X21.901 Y34.338
X21.573 Y34.204
X21.25 Y34.059
X20.933 Y33.902
X20.621 Y33.734
X20.316 Y33.553
X20.018 Y33.362
X19.727 Y33.16
X19.443 Y32.947
X19.167 Y32.724
X18.9 Y32.491
X18.641 Y32.248
X18.392 Y31.995
X18.152 Y31.734
X17.922 Y31.464
X17.701 Y31.185
X17.491 Y30.898
X17.292 Y30.604
X17.104 Y30.303
X16.927 Y29.995
X16.761 Y29.68
X16.607 Y29.359
X16.465 Y29.033
X16.335 Y28.702
X16.217 Y28.366
X16.112 Y28.026
X16.019 Y27.682
X15.939 Y27.335
X15.872 Y26.986
X15.818 Y26.634
X15.777 Y26.28
X15.748 Y25.924
X15.733 Y25.568
X15.731 Y25.212
X15.743 Y24.855
X15.767 Y24.499
X15.805 Y24.144
X15.855 Y23.791
X15.919 Y23.44
X15.995 Y23.091
X16.084 Y22.745
X16.186 Y22.403
X16.301 Y22.064
X16.428 Y21.73
X16.567 Y21.401
X16.718 Y21.077
X16.882 Y20.759
X17.056 Y20.447
X17.243 Y20.142
X17.44 Y19.843
X17.649 Y19.552
X17.868 Y19.269
X18.097 Y18.994
X18.336 Y18.728
X18.585 Y18.47
X18.844 Y18.222
X19.111 Y17.983
X19.387 Y17.755
X19.672 Y17.537
X19.964 Y17.329
X20.264 Y17.132
X20.571 Y16.947
X20.885 Y16.772
X21.205 Y16.61
X21.53 Y16.459
X21.862 Y16.32
X22.198 Y16.194
X22.539 Y16.08
X22.883 Y15.979
X23.232 Y15.89
X23.583 Y15.814
X23.937 Y15.752
X24.293 Y15.702
X24.651 Y15.666
X25.01 Y15.642
X25.37 Y15.633
X25.73 Y15.636
X26.09 Y15.652
X26.448 Y15.682
X26.806 Y15.725
X27.162 Y15.781
X27.516 Y15.851
X27.866 Y15.933
X28.214 Y16.028
X28.558 Y16.136
X28.898 Y16.257
X29.233 Y16.39
X29.564 Y16.535
X29.888 Y16.692
X30.207 Y16.862
X30.52 Y17.043
X30.825 Y17.235
X31.124 Y17.439
X31.414 Y17.654
X31.697 Y17.879
X31.971 Y18.114
X32.237 Y18.36
X32.493 Y18.615
X32.74 Y18.88
X32.977 Y19.153
X33.203 Y19.435
X33.419 Y19.726
X33.625 Y20.024
X33.819 Y20.329
X34.002 Y20.642
X34.173 Y20.961
X34.333 Y21.287
X34.48 Y21.618
X34.615 Y21.954
X34.738 Y22.296
X34.848 Y22.641
X34.945 Y22.991
X35.03 Y23.344
X35.101 Y23.7
X35.159 Y24.058
X35.204 Y24.418
X35.235 Y24.78
X35.254 Y25.143
X35.258 Y25.506
X35.25 Y25.869
X35.228 Y26.232
X35.193 Y26.594
X35.144 Y26.954
X35.082 Y27.313
X35.007 Y27.669
X34.919 Y28.022
X34.818 Y28.371
X34.704 Y28.717
X34.577 Y29.059
X34.438 Y29.395
X34.286 Y29.726
X34.122 Y30.052
X33.947 Y30.371
X33.759 Y30.684
X33.561 Y30.989
X33.351 Y31.287
X33.13 Y31.578
X32.899 Y31.86
X32.657 Y32.133
X32.405 Y32.397
X32.144 Y32.652
X31.873 Y32.897
X31.594 Y33.132
X31.306 Y33.357
X31.01 Y33.571
X30.706 Y33.774
X30.394 Y33.965
X30.076 Y34.146
X29.752 Y34.314
X29.421 Y34.47
X29.085 Y34.614
X28.743 Y34.745
X28.397 Y34.864
X28.047 Y34.97
X27.692 Y35.063
X27.335 Y35.143
X26.975 Y35.21
X26.612 Y35.263
X26.248 Y35.303
X25.882 Y35.33
X25.516 Y35.343
X25.149 Y35.342
X24.783 Y35.328
X24.417 Y35.301
X24.052 Y35.26
X23.689 Y35.206
X23.328 Y35.138
X22.97 Y35.057
X22.615 Y34.963
X22.264 Y34.855
X21.917 Y34.735
X21.574 Y34.602
X21.236 Y34.457
X20.904 Y34.299
X20.578 Y34.129
X20.258 Y33.947
X19.946 Y33.754
X19.64 Y33.549
X19.342 Y33.332
X19.052 Y33.105
X18.771 Y32.867
X18.499 Y32.62
X18.236 Y32.362
X17.982 Y32.094
X17.739 Y31.817
X17.506 Y31.532
X17.283 Y31.238
X17.071 Y30.936
X16.871 Y30.626
X16.682 Y30.309
X16.505 Y29.985
X16.34 Y29.655
X16.187 Y29.319
X16.047 Y28.977
X15.919 Y28.631
X15.804 Y28.28
X15.702 Y27.924
X15.614 Y27.566
X15.538 Y27.204
X15.476 Y26.839
X15.428 Y26.473
X15.393 Y26.104
X15.371 Y25.735
X15.363 Y25.365
X15.369 Y24.995
X15.389 Y24.625
X15.422 Y24.256
X15.468 Y23.889
X15.529 Y23.523
X15.602 Y23.16
X15.689 Y22.8
X15.789 Y22.443
X15.903 Y22.09
X16.029 Y21.741
X16.168 Y21.397
X16.32 Y21.059
X16.484 Y20.726
X16.66 Y20.399
X16.849 Y20.079
X17.049 Y19.766
X17.26 Y19.461
X17.483 Y19.163
X17.716 Y18.874
X17.96 Y18.594
X18.214 Y18.323
X18.478 Y18.061
X18.752 Y17.809
X19.035 Y17.568
X19.326 Y17.336
X19.626 Y17.116
X19.934 Y16.907
X20.25 Y16.709
X20.572 Y16.523
X20.901 Y16.349
X21.237 Y16.188
X21.578 Y16.038
X21.925 Y15.902
X22.277 Y15.778
X22.633 Y15.667
X22.993 Y15.57
X23.356 Y15.485
X23.722 Y15.415
X24.091 Y15.357
X24.462 Y15.314
X24.834 Y15.284
X25.207 Y15.267
X25.581 Y15.265
X25.954 Y15.276
X26.327 Y15.301
X26.698 Y15.34
X27.069 Y15.392
X27.437 Y15.459
X27.802 Y15.538
X28.164 Y15.631
X28.523 Y15.738
X28.877 Y15.857
X29.227 Y15.99
X29.572 Y16.135
X29.912 Y16.293
X30.245 Y16.464
X30.572 Y16.646
X30.893 Y16.841
X31.205 Y17.047
X31.51 Y17.265
X31.807 Y17.494
X32.096 Y17.734
X32.375 Y17.984
X32.645 Y18.245
X32.905 Y18.515
X33.156 Y18.795
X33.395 Y19.084
X33.624 Y19.381
X33.842 Y19.687
X34.049 Y20.001
X34.244 Y20.323
X34.427 Y20.651
X34.597 Y20.986
X34.756 Y21.327
X34.901 Y21.674
X35.034 Y22.026
X35.154 Y22.382
X35.26 Y22.743
X35.354 Y23.108
X35.433 Y23.476
X35.5 Y23.847
X35.552 Y24.22
X35.591 Y24.594
X35.615 Y24.97
X35.626 Y25.347
X35.623 Y25.724
X35.607 Y26.101
X35.576 Y26.476
X35.531 Y26.851
X35.473 Y27.224
X35.401 Y27.594
X35.315 Y27.962
X35.216 Y28.326
X35.103 Y28.686
X34.978 Y29.042
X34.839 Y29.394
X34.687 Y29.74
X34.523 Y30.08
X34.346 Y30.414
X34.157 Y30.741
X33.955 Y31.061
X33.743 Y31.374
X33.518 Y31.679
X33.283 Y31.975
X33.037 Y32.262
X32.78 Y32.54
X32.513 Y32.809
X32.237 Y33.068
X31.951 Y33.316
X31.656 Y33.554
X31.352 Y33.78
X31.04 Y33.996
X30.721 Y34.2
X30.394 Y34.391
X30.06 Y34.571
X29.719 Y34.739
X29.373 Y34.893
X29.021 Y35.035
X28.664 Y35.164
X28.303 Y35.28
X27.937 Y35.382
X27.568 Y35.471
X27.195 Y35.546
X26.82 Y35.607
X26.443 Y35.654
X26.064 Y35.688
X25.685 Y35.708
X25.305 Y35.713
X24.924 Y35.705
X24.544 Y35.682
X24.166 Y35.646
X23.788 Y35.595
X23.413 Y35.531
X23.041 Y35.453
X22.671 Y35.361
X22.305 Y35.255
X21.943 Y35.137
X21.585 Y35.004
X21.233 Y34.859
X20.886 Y34.701
X20.545 Y34.53
X20.211 Y34.347
X19.883 Y34.151
X19.563 Y33.944
X19.251 Y33.724
X18.947 Y33.493
X18.651 Y33.252
X18.365 Y32.999
X18.088 Y32.736
X17.821 Y32.463
X17.564 Y32.18
X17.317 Y31.888
X17.082 Y31.587
X16.857 Y31.277
X16.645 Y30.959
X16.444 Y30.633
X16.255 Y30.301
X16.078 Y29.961
X15.914 Y29.615
X15.763 Y29.263
X15.625 Y28.906
X15.5 Y28.544
X15.389 Y28.177
X15.291 Y27.807
X15.207 Y27.433
X15.137 Y27.056
X15.08 Y26.677
X15.038 Y26.296
X15.01 Y25.913
X14.996 Y25.53
Y25.146
X15.01 Y24.762
X15.038 Y24.38
X15.08 Y23.998
X15.137 Y23.618
X15.207 Y23.24
X15.291 Y22.866
X15.389 Y22.494
X15.501 Y22.126
X15.626 Y21.763
X15.765 Y21.404
X15.917 Y21.051
X16.081 Y20.703
X16.259 Y20.361
X16.449 Y20.027
X16.651 Y19.699
X16.865 Y19.379
X17.091 Y19.067
X17.328 Y18.764
X17.576 Y18.469
X17.835 Y18.184
X18.105 Y17.908
X18.384 Y17.643
X18.673 Y17.388
X18.972 Y17.143
X19.279 Y16.91
X19.595 Y16.689
X19.918 Y16.479
X20.25 Y16.281
X20.588 Y16.095
X20.933 Y15.922
X21.285 Y15.761
X21.642 Y15.614
X22.004 Y15.48
X22.371 Y15.36
X22.743 Y15.253
X23.118 Y15.159
X23.496 Y15.08
X23.878 Y15.014
X24.261 Y14.963
X24.646 Y14.926
X25.032 Y14.903
X25.419 Y14.894
X25.807 Y14.9
X26.193 Y14.92
X26.579 Y14.954
X26.964 Y15.002
X27.346 Y15.065
X27.726 Y15.141
X28.103 Y15.232
X28.476 Y15.336
X28.846 Y15.454
X29.211 Y15.586
X29.57 Y15.731
X29.925 Y15.889
X30.273 Y16.06
X30.615 Y16.244
X30.95 Y16.441
X31.277 Y16.649
X31.597 Y16.87
X31.908 Y17.102
X32.211 Y17.346
X32.505 Y17.601
X32.789 Y17.867
X33.063 Y18.142
X33.327 Y18.428
X33.58 Y18.724
X33.822 Y19.028
X34.053 Y19.342
X34.272 Y19.663
X34.479 Y19.993
X34.674 Y20.33
X34.856 Y20.675
X35.026 Y21.025
X35.182 Y21.382
X35.326 Y21.745
X35.456 Y22.112
X35.572 Y22.485
X35.675 Y22.861
X35.763 Y23.241
X35.838 Y23.624
X35.898 Y24.009
X35.944 Y24.397
X35.976 Y24.786
X35.994 Y25.176
X35.997 Y25.567
X35.986 Y25.957
X35.96 Y26.347
X35.92 Y26.736
X35.865 Y27.123
X35.797 Y27.508
X35.714 Y27.89
X35.617 Y28.269
X35.507 Y28.644
X35.382 Y29.015
X35.244 Y29.381
X35.092 Y29.742
X34.928 Y30.097
X34.75 Y30.446
X34.559 Y30.788
X34.356 Y31.123
X34.141 Y31.451
X33.914 Y31.77
X33.675 Y32.081
X33.424 Y32.382
X33.163 Y32.675
X32.891 Y32.957
X32.609 Y33.23
X32.316 Y33.492
X32.015 Y33.743
X31.704 Y33.983
X31.385 Y34.211
X31.057 Y34.427
X30.721 Y34.631
X30.378 Y34.823
X30.028 Y35.002
X29.672 Y35.168
X29.31 Y35.32
X28.942 Y35.46
X28.57 Y35.585
X28.192 Y35.697
X27.811 Y35.795
X27.427 Y35.879
X27.04 Y35.949
X26.65 Y36.004
X26.258 Y36.045
X25.865 Y36.071
X25.471 Y36.083
X25.077 Y36.081
X24.684 Y36.064
X24.291 Y36.032
X23.899 Y35.986
X23.51 Y35.925
X23.122 Y35.851
X22.738 Y35.762
X22.357 Y35.658
X21.98 Y35.541
X21.608 Y35.41
X21.241 Y35.266
X20.879 Y35.107
X20.523 Y34.936
X20.174 Y34.752
X19.831 Y34.554
X19.496 Y34.344
X19.169 Y34.122
X18.85 Y33.888
X18.541 Y33.643
X18.24 Y33.386
X17.949 Y33.118
X17.668 Y32.84
X17.397 Y32.551
X17.137 Y32.252
X16.888 Y31.944
X16.651 Y31.627
X16.425 Y31.301
X16.212 Y30.968
X16.011 Y30.626
X15.822 Y30.277
X15.647 Y29.922
X15.485 Y29.56
X15.336 Y29.192
X15.201 Y28.819
X15.08 Y28.442
X14.972 Y28.06
X14.879 Y27.674
X14.8 Y27.285
X14.735 Y26.893
X14.685 Y26.499
X14.65 Y26.103
X14.629 Y25.706
X14.623 Y25.309
X14.631 Y24.912
X14.654 Y24.515
X14.692 Y24.119
X14.744 Y23.725
X14.81 Y23.333
X14.892 Y22.943
X14.987 Y22.557
X15.097 Y22.174
X15.22 Y21.796
X15.358 Y21.422
X15.509 Y21.054
X15.674 Y20.691
X15.852 Y20.334
X16.043 Y19.985
X16.247 Y19.642
X16.464 Y19.308
X16.692 Y18.981
X16.933 Y18.663
X17.185 Y18.354
X17.449 Y18.054
X17.723 Y17.765
X18.008 Y17.485
X18.303 Y17.216
X18.608 Y16.958
X18.923 Y16.712
X19.246 Y16.477
X19.578 Y16.255
X19.917 Y16.044
X20.265 Y15.846
X20.619 Y15.662
X20.98 Y15.49
X21.348 Y15.332
X21.721 Y15.187
X22.099 Y15.056
X22.482 Y14.939
X22.868 Y14.837
X23.259 Y14.748
X23.652 Y14.674
X24.049 Y14.615
X24.447 Y14.57
X24.846 Y14.54
X25.247 Y14.525
X25.647 Y14.524
X26.048 Y14.538
X26.448 Y14.567
X26.847 Y14.611
X27.244 Y14.67
X27.638 Y14.743
X28.03 Y14.83
X28.418 Y14.932
X28.802 Y15.048
X29.182 Y15.178
X29.557 Y15.323
X29.926 Y15.481
X30.29 Y15.652
X30.647 Y15.837
X30.996 Y16.035
X31.339 Y16.246
X31.673 Y16.469
X31.999 Y16.704
X32.317 Y16.952
X32.625 Y17.211
X32.923 Y17.481
X33.211 Y17.762
X33.489 Y18.053
X33.756 Y18.355
X34.011 Y18.666
X34.255 Y18.987
X34.487 Y19.316
X34.707 Y19.654
X34.914 Y20
X35.109 Y20.353
X35.29 Y20.714
X35.458 Y21.08
X35.612 Y21.453
X35.753 Y21.832
X35.879 Y22.215
X35.992 Y22.603
X36.089 Y22.994
X36.173 Y23.39
X36.242 Y23.788
X36.296 Y24.188
X36.335 Y24.59
X36.36 Y24.994
X36.369 Y25.398
X36.364 Y25.802
X36.344 Y26.206
X36.309 Y26.609
X36.259 Y27.01
X36.194 Y27.41
X36.115 Y27.807
X36.021 Y28.2
X35.912 Y28.591
X35.789 Y28.976
X35.652 Y29.358
X35.502 Y29.734
X35.337 Y30.104
X35.159 Y30.468
X34.967 Y30.825
X34.762 Y31.175
X34.545 Y31.517
X34.315 Y31.851
X34.073 Y32.177
X33.818 Y32.493
X33.553 Y32.8
X33.276 Y33.097
X32.988 Y33.383
X32.69 Y33.659
X32.382 Y33.924
X32.065 Y34.177
X31.738 Y34.418
X31.402 Y34.647
X31.058 Y34.864
X30.706 Y35.068
X30.347 Y35.259
X29.982 Y35.436
X29.609 Y35.6
X29.231 Y35.75
X28.848 Y35.886
X28.459 Y36.008
X28.067 Y36.116
X27.67 Y36.209
X27.27 Y36.287
X26.868 Y36.351
X26.464 Y36.4
X26.057 Y36.433
X25.65 Y36.452
X25.243 Y36.456
X24.835 Y36.445
X24.428 Y36.418
X24.022 Y36.377
X23.618 Y36.321
X23.216 Y36.25
X22.817 Y36.164
X22.421 Y36.063
X22.03 Y35.948
X21.642 Y35.819
X21.26 Y35.675
X20.883 Y35.517
X20.512 Y35.346
X20.147 Y35.161
X19.79 Y34.962
X19.44 Y34.751
X19.098 Y34.526
X18.765 Y34.29
X18.44 Y34.041
X18.125 Y33.78
X17.819 Y33.507
X17.524 Y33.224
X17.239 Y32.93
X16.965 Y32.625
X16.703 Y32.31
X16.452 Y31.986
X16.213 Y31.653
X15.987 Y31.311
X15.774 Y30.961
X15.573 Y30.604
X15.386 Y30.239
X15.212 Y29.867
X15.052 Y29.489
X14.906 Y29.106
X14.775 Y28.717
X14.658 Y28.323
X14.555 Y27.926
X14.467 Y27.525
X14.394 Y27.12
X14.335 Y26.714
X14.292 Y26.305
X14.264 Y25.895
X14.251 Y25.484
X14.253 Y25.073
X14.27 Y24.662
X14.303 Y24.252
X14.35 Y23.843
X14.413 Y23.437
X14.491 Y23.032
X14.583 Y22.631
X14.69 Y22.234
X14.812 Y21.84
X14.948 Y21.451
X15.099 Y21.068
X15.263 Y20.69
X15.441 Y20.319
X15.633 Y19.954
X15.839 Y19.596
X16.057 Y19.247
X16.288 Y18.905
X16.532 Y18.572
X16.788 Y18.248
X17.056 Y17.934
X17.335 Y17.63
X17.625 Y17.337
X17.926 Y17.054
X18.237 Y16.782
X18.558 Y16.522
X18.888 Y16.274
X19.228 Y16.038
X19.576 Y15.815
X19.932 Y15.605
X20.295 Y15.408
X20.666 Y15.225
X21.043 Y15.055
X21.427 Y14.899
X21.815 Y14.758
X22.209 Y14.631
X22.608 Y14.518
X23.01 Y14.421
X23.416 Y14.338
X23.825 Y14.27
X24.235 Y14.217
X24.648 Y14.179
X25.062 Y14.157
X25.476 Y14.15
X25.891 Y14.158
X26.305 Y14.181
X26.718 Y14.22
X27.129 Y14.274
X27.538 Y14.343
X27.945 Y14.427
X28.348 Y14.526
X28.747 Y14.64
X29.142 Y14.769
X29.532 Y14.912
X29.917 Y15.069
X30.295 Y15.24
X30.667 Y15.426
X31.032 Y15.625
X31.39 Y15.837
X31.739 Y16.062
X32.08 Y16.3
X32.412 Y16.551
X32.735 Y16.814
X33.048 Y17.088
X33.35 Y17.374
X33.642 Y17.671
X33.923 Y17.978
X34.192 Y18.296
X34.45 Y18.624
X34.695 Y18.961
X34.928 Y19.306
X35.148 Y19.66
X35.354 Y20.022
X35.548 Y20.392
X35.727 Y20.768
X35.893 Y21.151
X36.044 Y21.54
X36.181 Y21.934
X36.304 Y22.333
X36.411 Y22.737
X36.504 Y23.144
X36.582 Y23.554
X36.644 Y23.967
X36.691 Y24.383
X36.723 Y24.799
X36.74 Y25.217
X36.741 Y25.635
X36.727 Y26.053
X36.697 Y26.47
X36.652 Y26.886
X36.592 Y27.3
X36.516 Y27.711
X36.425 Y28.12
X36.319 Y28.525
X36.199 Y28.926
X36.064 Y29.322
X35.914 Y29.713
X35.749 Y30.099
X35.571 Y30.478
X35.379 Y30.85
X35.173 Y31.215
X34.954 Y31.573
X34.721 Y31.922
X34.476 Y32.262
X34.219 Y32.593
X33.949 Y32.915
X33.668 Y33.226
X33.375 Y33.527
X33.072 Y33.817
X32.758 Y34.095
X32.433 Y34.362
X32.099 Y34.617
X31.756 Y34.859
X31.404 Y35.089
X31.044 Y35.305
X30.676 Y35.509
X30.301 Y35.698
X29.919 Y35.874
X29.53 Y36.035
X29.136 Y36.182
X28.737 Y36.314
X28.333 Y36.432
X27.924 Y36.534
X27.513 Y36.622
X27.098 Y36.694
X26.68 Y36.751
X26.261 Y36.793
X25.841 Y36.819
X25.419 Y36.829
X24.998 Y36.824
X24.577 Y36.804
X24.157 Y36.768
X23.738 Y36.716
X23.322 Y36.649
X22.908 Y36.567
X22.497 Y36.47
X22.091 Y36.357
X21.688 Y36.23
X21.291 Y36.087
X20.898 Y35.931
X20.512 Y35.759
X20.133 Y35.574
X19.76 Y35.375
X19.395 Y35.162
X19.038 Y34.936
X18.689 Y34.696
X18.35 Y34.444
X18.02 Y34.18
X17.699 Y33.903
X17.39 Y33.615
X17.09 Y33.316
X16.803 Y33.005
X16.526 Y32.684
X16.262 Y32.354
X16.01 Y32.013
X15.771 Y31.664
X15.544 Y31.305
X15.331 Y30.939
X15.132 Y30.565
X14.946 Y30.184
X14.775 Y29.796
X14.618 Y29.402
X14.475 Y29.003
X14.348 Y28.598
X14.235 Y28.189
X14.138 Y27.776
X14.055 Y27.359
X13.989 Y26.94
X13.937 Y26.518
X13.902 Y26.095
X13.881 Y25.671
X13.877 Y25.246
X13.888 Y24.821
X13.915 Y24.397
X13.957 Y23.974
X14.015 Y23.552
X14.089 Y23.134
X14.178 Y22.718
X14.282 Y22.305
X14.402 Y21.897
X14.536 Y21.493
X14.685 Y21.094
X14.849 Y20.701
X15.027 Y20.314
X15.22 Y19.934
X15.426 Y19.561
X15.646 Y19.197
X15.879 Y18.84
X16.126 Y18.492
X16.385 Y18.153
X16.656 Y17.825
X16.94 Y17.506
X17.235 Y17.198
X17.541 Y16.901
X17.858 Y16.615
X18.185 Y16.341
X18.523 Y16.079
X18.869 Y15.83
X19.225 Y15.594
X19.59 Y15.371
X19.962 Y15.162
X20.342 Y14.966
X20.729 Y14.785
X21.122 Y14.618
X21.522 Y14.465
X21.927 Y14.328
X22.336 Y14.205
X22.75 Y14.097
X23.168 Y14.005
X23.589 Y13.928
X24.013 Y13.867
X24.438 Y13.821
X24.866 Y13.792
X25.294 Y13.777
X25.722 Y13.779
X26.15 Y13.797
X26.577 Y13.83
X27.003 Y13.879
X27.427 Y13.943
X27.848 Y14.024
X28.266 Y14.119
X28.68 Y14.231
X29.09 Y14.357
X29.496 Y14.498
X29.895 Y14.654
X30.289 Y14.825
X30.676 Y15.011
X31.057 Y15.21
X31.429 Y15.424
X31.794 Y15.651
X32.15 Y15.891
X32.497 Y16.145
X32.835 Y16.411
X33.162 Y16.689
X33.48 Y16.979
X33.786 Y17.281
X34.081 Y17.594
X34.364 Y17.918
X34.636 Y18.252
X34.894 Y18.596
X35.14 Y18.949
X35.373 Y19.312
X35.593 Y19.682
X35.798 Y20.061
X35.99 Y20.447
X36.167 Y20.839
X36.33 Y21.238
X36.478 Y21.643
X36.611 Y22.054
X36.729 Y22.468
X36.831 Y22.887
X36.918 Y23.31
X36.989 Y23.736
X37.045 Y24.164
X37.084 Y24.593
X37.108 Y25.024
X37.116 Y25.456
X37.108 Y25.888
X37.084 Y26.319
X37.045 Y26.749
X36.989 Y27.178
X36.918 Y27.604
X36.831 Y28.028
X36.728 Y28.448
X36.61 Y28.864
X36.477 Y29.275
X36.328 Y29.681
X36.165 Y30.082
X35.987 Y30.476
X35.794 Y30.864
X35.588 Y31.245
X35.367 Y31.617
X35.133 Y31.981
X34.885 Y32.337
X34.625 Y32.683
X34.352 Y33.019
X34.066 Y33.345
X33.769 Y33.661
X33.46 Y33.965
X33.141 Y34.258
X32.81 Y34.539
X32.469 Y34.807
X32.119 Y35.063
X31.759 Y35.306
X31.391 Y35.536
X31.014 Y35.751
X30.63 Y35.953
X30.238 Y36.14
X29.84 Y36.313
X29.435 Y36.472
X29.025 Y36.615
X28.61 Y36.743
X28.19 Y36.855
X27.766 Y36.952
X27.339 Y37.034
X26.909 Y37.099
X26.477 Y37.149
X26.043 Y37.183
X25.608 Y37.201
X25.173 Y37.202
X24.738 Y37.188
X24.303 Y37.158
X23.87 Y37.111
X23.439 Y37.049
X23.011 Y36.971
X22.585 Y36.877
X22.163 Y36.767
X21.746 Y36.642
X21.333 Y36.502
X20.926 Y36.346
X20.524 Y36.176
X20.129 Y35.991
X19.741 Y35.791
X19.361 Y35.577
X18.988 Y35.349
X18.625 Y35.108
X18.27 Y34.853
X17.925 Y34.586
X17.59 Y34.305
X17.265 Y34.013
X16.952 Y33.709
X16.649 Y33.393
X16.359 Y33.066
X16.081 Y32.729
X15.815 Y32.382
X15.562 Y32.025
X15.323 Y31.659
X15.097 Y31.284
X14.885 Y30.901
X14.687 Y30.511
X14.504 Y30.113
X14.335 Y29.709
X14.182 Y29.299
X14.043 Y28.883
X13.92 Y28.463
X13.813 Y28.038
X13.721 Y27.609
X13.646 Y27.177
X13.586 Y26.743
X13.542 Y26.307
X13.514 Y25.869
X13.503 Y25.431
X13.507 Y24.992
X13.528 Y24.553
X13.565 Y24.116
X13.618 Y23.68
X13.687 Y23.247
X13.772 Y22.816
X13.873 Y22.388
X13.99 Y21.965
X14.122 Y21.546
X14.269 Y21.132
X14.432 Y20.723
X14.61 Y20.321
X14.802 Y19.926
X15.009 Y19.538
X15.23 Y19.158
X15.465 Y18.786
X15.714 Y18.423
X15.976 Y18.069
X16.25 Y17.725
X16.538 Y17.391
X16.837 Y17.068
X17.148 Y16.757
X17.471 Y16.457
X17.804 Y16.169
X18.148 Y15.893
X18.502 Y15.631
X18.866 Y15.381
X19.238 Y15.145
X19.619 Y14.923
X20.008 Y14.715
X20.404 Y14.521
X20.808 Y14.342
X21.218 Y14.178
X21.633 Y14.03
X22.054 Y13.896
X22.48 Y13.779
X22.909 Y13.677
X23.343 Y13.591
X23.779 Y13.52
X24.217 Y13.467
X24.658 Y13.429
X25.099 Y13.407
X25.541 Y13.402
X25.983 Y13.413
X26.425 Y13.44
X26.865 Y13.484
X27.303 Y13.544
X27.739 Y13.62
X28.172 Y13.712
X28.602 Y13.82
X29.027 Y13.943
X29.447 Y14.083
X29.862 Y14.237
X30.271 Y14.407
X30.674 Y14.592
X31.07 Y14.792
X31.458 Y15.006
X31.838 Y15.234
X32.209 Y15.477
X32.572 Y15.733
X32.924 Y16.002
X33.267 Y16.284
X33.599 Y16.578
X33.92 Y16.885
X34.229 Y17.203
X34.527 Y17.532
X34.812 Y17.873
X35.085 Y18.223
X35.345 Y18.584
X35.591 Y18.954
X35.823 Y19.333
X36.042 Y19.72
X36.246 Y20.115
X36.435 Y20.517
X36.61 Y20.926
X36.769 Y21.342
X36.913 Y21.763
X37.041 Y22.189
X37.153 Y22.62
X37.25 Y23.054
X37.33 Y23.492
X37.395 Y23.933
X37.443 Y24.376
X37.474 Y24.82
X37.489 Y25.265
X37.488 Y25.711
X37.471 Y26.157
X37.437 Y26.601
X37.386 Y27.044
X37.32 Y27.485
X37.251 Y27.844
X37.248 Y27.86
X37.217 Y27.996
X37.017 Y28.706
X36.928 Y29.037
X36.818 Y29.394
X36.687 Y29.767
X36.54 Y30.145
X36.419 Y30.423
X36.413 Y30.436
G3 X35.829 Y30.191 I-0.282 J-0.146
G1 X36.603 Y27.837
G3 X37.217 Y27.996 I0.302 J0.099
G1 X37.102 Y28.498
X37.04 Y28.743
X36.973 Y29.001
X36.924 Y29.168
X36.529 Y30.173
X36.458 Y30.341
X36.22 Y30.843
X35.737 Y31.681
X35.7 Y31.745
X35.64 Y31.848
X35.31 Y32.359
X35.177 Y32.55
X35.148 Y32.588
G3 X34.64 Y32.208 I-0.243 J-0.204
G1 X35.096 Y31.523
G3 X35.64 Y31.848 I0.264 J0.176
G1 X35.447 Y32.183
X35.365 Y32.3
X35.198 Y32.524
X35.03 Y32.737
X34.695 Y33.156
X34.36 Y33.566
X34.252 Y33.69
X33.02 Y34.833
X32.985 Y34.863
X32.685 Y35.076
X32.513 Y35.198
X32.016 Y35.537
X31.513 Y35.87
X31.346 Y35.969
X30.165 Y36.538
X30.006 Y36.607
X29.769 Y36.705
X29.671 Y36.743
X28.498 Y37.105
X28.331 Y37.155
X27.996 Y37.247
X27.828 Y37.274
X26.824 Y37.425
X26.321 Y37.485
X26.154 Y37.492
X24.646
X24.479 Y37.485
X23.976 Y37.425
X22.972 Y37.274
X22.804 Y37.247
X22.469 Y37.155
X22.302 Y37.105
X21.129 Y36.743
X21.031 Y36.705
X20.794 Y36.607
X20.627 Y36.533
X19.454 Y35.969
X19.283 Y35.868
X18.779 Y35.533
X18.282 Y35.194
X17.947 Y34.957
X17.815 Y34.863
X17.78 Y34.833
X16.548 Y33.69
X16.44 Y33.566
X16.105 Y33.156
X15.729 Y32.685
X15.598 Y32.518
X15.435 Y32.3
X15.353 Y32.183
X14.58 Y30.843
X14.342 Y30.341
X14.271 Y30.173
X13.876 Y29.168
X13.827 Y29.001
X13.74 Y28.666
X13.698 Y28.498
X13.469 Y27.494
X13.438 Y27.326
X13.371 Y26.824
X13.296 Y25.819
X13.286 Y25.651
Y25.149
X13.296 Y24.981
X13.371 Y23.976
X13.438 Y23.474
X13.469 Y23.306
X13.698 Y22.302
X13.76 Y22.057
X13.827 Y21.799
X13.876 Y21.632
X14.271 Y20.627
X14.342 Y20.459
X14.58 Y19.957
X15.353 Y18.617
X15.435 Y18.5
X15.602 Y18.276
X15.77 Y18.063
X16.105 Y17.644
X16.44 Y17.234
X16.548 Y17.11
X17.78 Y15.967
X17.815 Y15.937
X18.115 Y15.724
X18.287 Y15.602
X18.784 Y15.263
X19.287 Y14.93
X19.454 Y14.831
X20.635 Y14.262
X20.794 Y14.193
X21.031 Y14.095
X21.129 Y14.057
X22.302 Y13.695
X22.469 Y13.645
X22.804 Y13.553
X22.972 Y13.526
X23.976 Y13.375
X24.479 Y13.315
X24.646 Y13.308
X26.154
X26.321 Y13.315
X26.824 Y13.375
X27.828 Y13.526
X27.996 Y13.553
X28.331 Y13.645
X28.498 Y13.695
X29.671 Y14.057
X29.769 Y14.095
X30.006 Y14.193
X30.173 Y14.267
X31.346 Y14.831
X31.517 Y14.932
X32.021 Y15.267
X32.518 Y15.606
X32.853 Y15.843
X32.985 Y15.937
X33.02 Y15.967
X34.252 Y17.11
X34.36 Y17.234
X34.695 Y17.644
X35.071 Y18.115
X35.202 Y18.282
X35.365 Y18.5
X35.447 Y18.617
X36.22 Y19.957
X36.458 Y20.459
X36.529 Y20.627
X36.924 Y21.632
X36.973 Y21.799
X37.06 Y22.134
X37.102 Y22.302
X37.331 Y23.306
X37.362 Y23.474
X37.429 Y23.976
X37.504 Y24.981
X37.514 Y25.149
Y25.651
X37.504 Y25.819
X37.429 Y26.824
X37.362 Y27.326
X37.331 Y27.494
X37.248 Y27.86
G3 X36.89 Y28.092 I-0.307 J-0.081
G1 X36.84 Y28.07 Z-8.995
X36.792 Y28.049 Z-8.981
X36.746 Y28.029 Z-8.958
X36.716 Y27.99 Z-8.922
X36.69 Y27.957 Z-8.878
X36.67 Y27.932 Z-8.827
X36.657 Y27.914 Z-8.771
X36.65 Y27.906 Z-8.711
Y27.904 Z-8.682
G0 Z-8.165
X25.073 Y35.434
G1 Z-8.483 F300
X25.075 Y35.442 Z-8.553
X25.081 Y35.464 Z-8.62
X25.09 Y35.501 Z-8.68
X25.102 Y35.55 Z-8.731
X25.117 Y35.608 Z-8.769
X25.134 Y35.673 Z-8.792
X25.152 Y35.742 Z-8.8
G3 X25.4 Y37.47 I-7.852 J2.011
G1 Y37.501
X25.278 Y37.588
X25.139 Y37.644
X24.994 Y37.684
X24.943 Y37.694
X24.861 Y37.707
X24.778 Y37.715
X24.695 Y37.717
X24.646
X24.479 Y37.715
X24.357 Y37.71
X22.972 Y37.501
X22.804 Y37.474
X22.302 Y37.338
X22.134 Y37.288
X21.129 Y36.978
X20.962 Y36.912
X20.627 Y36.775
X20.459 Y36.702
X19.423 Y36.203
X19.287 Y36.127
X19.119 Y36.029
X18.952 Y35.922
X18.282 Y35.466
X18.115 Y35.349
X17.78 Y35.114
X17.662 Y35.03
X16.579 Y34.025
X16.408 Y33.858
X16.272 Y33.722
X16.243 Y33.69
X15.435 Y32.677
X15.315 Y32.518
X14.998 Y32.016
X14.932 Y31.905
X14.262 Y30.743
X14.227 Y30.676
X13.636 Y29.168
X13.593 Y29.019
X13.468 Y28.498
X13.238 Y27.494
X13.208 Y27.326
X13.146 Y26.824
X13.071 Y25.819
X13.061 Y25.651
Y25.149
X13.071 Y24.981
X13.146 Y23.976
X13.208 Y23.474
X13.238 Y23.306
X13.468 Y22.302
X13.593 Y21.781
X13.636 Y21.632
X14.227 Y20.124
X14.262 Y20.057
X14.932 Y18.895
X14.998 Y18.784
X15.315 Y18.282
X15.442 Y18.115
X16.243 Y17.11
X16.272 Y17.078
X16.44 Y16.911
X16.579 Y16.775
X17.662 Y15.77
X17.78 Y15.686
X18.137 Y15.435
X18.282 Y15.334
X18.952 Y14.878
X19.129 Y14.765
X19.287 Y14.673
X19.423 Y14.597
X20.466 Y14.095
X20.627 Y14.025
X20.962 Y13.888
X21.129 Y13.822
X22.134 Y13.512
X22.302 Y13.462
X22.804 Y13.326
X22.972 Y13.299
X24.357 Y13.09
X24.479 Y13.085
X24.646 Y13.083
X26.154
X26.321 Y13.085
X26.443 Y13.09
X27.828 Y13.299
X27.996 Y13.326
X28.498 Y13.462
X28.666 Y13.512
X29.671 Y13.822
X29.838 Y13.888
X30.173 Y14.025
X30.341 Y14.098
X31.377 Y14.597
X31.513 Y14.673
X31.681 Y14.771
X31.848 Y14.878
X32.518 Y15.334
X32.685 Y15.451
X33.02 Y15.686
X33.138 Y15.77
X34.221 Y16.775
X34.392 Y16.942
X34.528 Y17.078
X34.557 Y17.11
X35.365 Y18.123
X35.485 Y18.282
X35.802 Y18.784
X35.868 Y18.895
X36.538 Y20.057
X36.573 Y20.124
X37.164 Y21.632
X37.207 Y21.781
X37.332 Y22.302
X37.562 Y23.306
X37.592 Y23.474
X37.654 Y23.976
X37.729 Y24.981
X37.739 Y25.149
Y25.651
X37.729 Y25.819
X37.654 Y26.824
X37.592 Y27.326
X37.562 Y27.494
X37.332 Y28.498
X37.207 Y29.019
X37.164 Y29.168
X36.573 Y30.676
X36.538 Y30.743
X35.868 Y31.905
X35.802 Y32.016
X35.485 Y32.518
X35.358 Y32.685
X34.557 Y33.69
X34.528 Y33.722
X34.36 Y33.889
X34.221 Y34.025
X33.138 Y35.03
X33.02 Y35.114
X32.663 Y35.365
X32.518 Y35.466
X31.848 Y35.922
X31.671 Y36.035
X31.513 Y36.127
X31.377 Y36.203
X30.334 Y36.705
X30.173 Y36.775
X29.838 Y36.912
X29.671 Y36.978
X28.666 Y37.288
X28.498 Y37.338
X27.996 Y37.474
X27.828 Y37.501
X26.443 Y37.71
X26.321 Y37.715
X26.154 Y37.717
X24.695
G3 X24.39 Y37.42 I0.011 J-0.317
G1 X24.389 Y37.4 Z-8.799
X24.403 Y37.347 Z-8.791
X24.415 Y37.296 Z-8.773
X24.428 Y37.248 Z-8.746
X24.459 Y37.213 Z-8.706
X24.484 Y37.184 Z-8.658
X24.503 Y37.162 Z-8.603
X24.515 Y37.149 Z-8.544
X24.519 Y37.144 Z-8.483
G0 Z-7.965
X16.676 Y19.985
G1 Z-8.283 F300
X16.668 Y19.983 Z-8.353
X16.645 Y19.976 Z-8.42
X16.609 Y19.966 Z-8.48
X16.561 Y19.953 Z-8.531
X16.503 Y19.936 Z-8.569
X16.438 Y19.918 Z-8.592
X16.37 Y19.899 Z-8.6
G3 X14.749 Y19.25 I2.184 J-7.806
G1 X14.722 Y19.235
X14.711 Y19.085
X14.735 Y18.937
X14.774 Y18.793
X14.789 Y18.748
X14.82 Y18.664
X14.857 Y18.583
X14.899 Y18.505
X15.029 Y18.282
X15.1 Y18.184
X15.956 Y17.11
X16.105 Y16.934
X16.249 Y16.775
X17.11 Y15.976
X17.342 Y15.77
X17.612 Y15.532
X17.737 Y15.435
X18.784 Y14.72
X18.99 Y14.597
X19.287 Y14.425
X19.454 Y14.333
X20.459 Y13.849
X20.657 Y13.76
X20.794 Y13.7
X20.962 Y13.638
X22.196 Y13.258
X22.302 Y13.228
X22.804 Y13.1
X22.852 Y13.09
X23.976 Y12.921
X24.479 Y12.865
X24.646 Y12.858
X26.154
X26.321 Y12.865
X26.837 Y12.923
X27.948 Y13.09
X27.996 Y13.1
X28.498 Y13.228
X28.604 Y13.258
X29.838 Y13.638
X30.006 Y13.7
X30.173 Y13.773
X30.341 Y13.849
X31.346 Y14.333
X31.522 Y14.43
X31.848 Y14.62
X32.016 Y14.72
X33.063 Y15.435
X33.188 Y15.532
X33.648 Y15.937
X33.69 Y15.976
X34.551 Y16.775
X34.702 Y16.942
X34.844 Y17.11
X35.7 Y18.184
X35.771 Y18.282
X36.063 Y18.784
X36.74 Y19.957
X36.809 Y20.124
X36.944 Y20.459
X37.077 Y20.794
X37.208 Y21.129
X37.402 Y21.632
X37.448 Y21.799
X37.792 Y23.306
X37.821 Y23.474
X37.879 Y23.976
X37.954 Y24.981
X37.964 Y25.149
Y25.651
X37.954 Y25.819
X37.879 Y26.824
X37.821 Y27.326
X37.792 Y27.494
X37.448 Y29.001
X37.402 Y29.168
X37.207 Y29.672
X37.011 Y30.173
X36.876 Y30.508
X36.809 Y30.676
X36.74 Y30.843
X35.966 Y32.183
X35.771 Y32.518
X35.7 Y32.616
X34.844 Y33.69
X34.695 Y33.866
X34.551 Y34.025
X33.69 Y34.824
X33.458 Y35.03
X33.188 Y35.268
X33.063 Y35.365
X32.016 Y36.08
X31.81 Y36.203
X31.513 Y36.375
X31.346 Y36.467
X30.341 Y36.951
X30.143 Y37.04
X30.006 Y37.1
X29.838 Y37.162
X28.604 Y37.542
X28.498 Y37.572
X27.996 Y37.7
X27.948 Y37.71
X26.824 Y37.879
X26.321 Y37.935
X26.154 Y37.942
X24.646
X24.479 Y37.935
X23.963 Y37.877
X22.852 Y37.71
X22.804 Y37.7
X22.302 Y37.572
X22.196 Y37.542
X20.962 Y37.162
X20.794 Y37.1
X20.627 Y37.027
X20.459 Y36.951
X19.454 Y36.467
X19.278 Y36.37
X18.952 Y36.18
X18.784 Y36.08
X17.737 Y35.365
X17.612 Y35.268
X17.152 Y34.863
X17.11 Y34.824
X16.249 Y34.025
X16.098 Y33.858
X15.956 Y33.69
X15.1 Y32.616
X15.029 Y32.518
X14.737 Y32.016
X14.06 Y30.843
X13.991 Y30.676
X13.856 Y30.341
X13.723 Y30.006
X13.592 Y29.671
X13.398 Y29.168
X13.352 Y29.001
X13.008 Y27.494
X12.979 Y27.326
X12.921 Y26.824
X12.846 Y25.819
X12.836 Y25.651
Y25.149
X12.846 Y24.981
X12.921 Y23.976
X12.979 Y23.474
X13.008 Y23.306
X13.352 Y21.799
X13.398 Y21.632
X13.593 Y21.128
X13.789 Y20.627
X13.924 Y20.292
X13.991 Y20.124
X14.06 Y19.957
X14.834 Y18.617
X14.899 Y18.505
G3 X15.31 Y18.39 I0.268 J0.169
G1 X15.351 Y18.426 Z-8.595
X15.391 Y18.461 Z-8.581
X15.429 Y18.493 Z-8.558
X15.446 Y18.539 Z-8.522
X15.46 Y18.578 Z-8.478
X15.472 Y18.608 Z-8.427
X15.48 Y18.629 Z-8.371
X15.483 Y18.64 Z-8.311
X15.484 Y18.641 Z-8.283
G0 Z-7.765
X16.157 Y30.358
G1 Z-8.083 F300
X16.151 Y30.364 Z-8.153
X16.135 Y30.38 Z-8.22
X16.108 Y30.407 Z-8.28
X16.072 Y30.442 Z-8.331
X16.029 Y30.484 Z-8.369
X15.981 Y30.531 Z-8.392
X15.93 Y30.58 Z-8.4
G3 X14.557 Y31.66 I-5.668 J-5.795
G1 X14.531 Y31.675
X14.394 Y31.614
X14.276 Y31.52
X14.166 Y31.415
X14.105 Y31.341
X14.049 Y31.262
X13.999 Y31.179
X13.813 Y30.843
X13.745 Y30.676
X13.417 Y29.838
X13.352 Y29.671
X13.167 Y29.168
X13.121 Y29.001
X12.777 Y27.494
X12.755 Y27.386
X12.696 Y26.824
X12.621 Y25.819
X12.611 Y25.651
Y25.149
X12.621 Y24.981
X12.696 Y23.976
X12.755 Y23.414
X12.777 Y23.306
X13.121 Y21.799
X13.167 Y21.632
X13.352 Y21.129
X13.68 Y20.292
X13.76 Y20.087
X13.813 Y19.957
X14.095 Y19.448
X14.187 Y19.287
X14.767 Y18.282
X14.88 Y18.115
X15.138 Y17.78
X15.269 Y17.612
X15.937 Y16.774
X16.105 Y16.605
X16.279 Y16.44
X17.363 Y15.435
X17.445 Y15.366
X17.612 Y15.249
X17.83 Y15.1
X18.812 Y14.43
X19.119 Y14.246
X19.454 Y14.084
X20.475 Y13.593
X20.627 Y13.531
X21.129 Y13.352
X22.134 Y13.042
X22.302 Y12.994
X22.804 Y12.873
X22.972 Y12.845
X23.976 Y12.694
X24.479 Y12.64
X24.646 Y12.633
X26.154
X26.321 Y12.64
X26.824 Y12.694
X27.828 Y12.845
X27.996 Y12.873
X28.498 Y12.994
X28.666 Y13.042
X29.671 Y13.352
X30.173 Y13.531
X30.325 Y13.593
X31.513 Y14.165
X31.681 Y14.246
X31.988 Y14.43
X33.02 Y15.134
X33.214 Y15.267
X33.355 Y15.366
X33.437 Y15.435
X34.528 Y16.446
X34.697 Y16.607
X34.863 Y16.775
X35.533 Y17.614
X35.7 Y17.829
X35.92 Y18.115
X36.035 Y18.286
X36.613 Y19.287
X36.708 Y19.454
X36.987 Y19.957
X37.055 Y20.124
X37.383 Y20.962
X37.448 Y21.129
X37.633 Y21.632
X37.679 Y21.799
X38.023 Y23.306
X38.045 Y23.414
X38.104 Y23.976
X38.179 Y24.981
X38.189 Y25.149
Y25.651
X38.179 Y25.819
X38.104 Y26.824
X38.045 Y27.386
X38.023 Y27.494
X37.679 Y29.001
X37.633 Y29.168
X37.448 Y29.671
X37.12 Y30.508
X37.04 Y30.713
X36.987 Y30.843
X36.705 Y31.352
X36.613 Y31.513
X36.033 Y32.518
X35.92 Y32.685
X35.662 Y33.02
X35.531 Y33.188
X34.863 Y34.026
X34.695 Y34.195
X34.521 Y34.36
X33.437 Y35.365
X33.355 Y35.434
X33.188 Y35.551
X32.97 Y35.7
X31.988 Y36.37
X31.681 Y36.554
X31.346 Y36.716
X30.325 Y37.207
X30.173 Y37.269
X29.671 Y37.448
X28.666 Y37.758
X28.498 Y37.806
X27.996 Y37.927
X27.828 Y37.955
X26.824 Y38.106
X26.321 Y38.16
X26.154 Y38.167
X24.646
X24.479 Y38.16
X23.976 Y38.106
X22.972 Y37.955
X22.804 Y37.927
X22.302 Y37.806
X22.134 Y37.758
X21.129 Y37.448
X20.627 Y37.269
X20.475 Y37.207
X19.287 Y36.635
X19.119 Y36.554
X18.812 Y36.37
X17.78 Y35.666
X17.586 Y35.533
X17.445 Y35.434
X17.363 Y35.365
X16.272 Y34.354
X16.103 Y34.193
X15.937 Y34.025
X15.267 Y33.186
X15.1 Y32.971
X14.88 Y32.685
X14.765 Y32.514
X14.187 Y31.513
X14.092 Y31.346
X13.999 Y31.179
X13.98 Y31.133
X13.968 Y31.085
X13.964 Y31.035
G3 X14.111 Y30.768 I0.318 J0
G1 X14.162 Y30.75 Z-8.395
X14.212 Y30.734 Z-8.381
X14.259 Y30.718 Z-8.358
X14.282 Y30.717 Z-8.343
X14.327 Y30.727 Z-8.304
X14.364 Y30.735 Z-8.256
X14.392 Y30.741 Z-8.202
X14.409 Y30.745 Z-8.144
X14.414 Y30.746 Z-8.083
G0 Z-7.565
X15.959 Y30.473
G1 Z-7.883 F300
X15.953 Y30.479 Z-7.953
X15.936 Y30.495 Z-8.02
X15.909 Y30.521 Z-8.08
X15.873 Y30.557 Z-8.131
X15.83 Y30.599 Z-8.169
X15.782 Y30.646 Z-8.192
X15.732 Y30.695 Z-8.2
G3 X14.359 Y31.774 I-5.668 J-5.795
G1 X14.333 Y31.79
X14.197 Y31.725
X14.081 Y31.631
X13.973 Y31.526
X13.959 Y31.51
X13.9 Y31.44
X13.845 Y31.365
X13.796 Y31.286
X13.734 Y31.178
X13.647 Y31.011
X13.571 Y30.843
X13.504 Y30.676
X13.11 Y29.671
X12.923 Y29.13
X12.891 Y29.001
X12.547 Y27.494
X12.519 Y27.326
X12.471 Y26.824
X12.396 Y25.819
X12.386 Y25.651
Y25.149
X12.396 Y24.981
X12.471 Y23.976
X12.519 Y23.474
X12.547 Y23.306
X12.891 Y21.799
X12.923 Y21.67
X13.11 Y21.129
X13.504 Y20.124
X13.571 Y19.957
X13.647 Y19.789
X13.734 Y19.622
X14.507 Y18.282
X14.618 Y18.115
X14.765 Y17.898
X14.849 Y17.78
X15.435 Y17.045
X15.788 Y16.607
X15.937 Y16.451
X17.032 Y15.435
X17.11 Y15.364
X17.677 Y14.932
X18.784 Y14.177
X18.935 Y14.095
X19.287 Y13.918
X19.454 Y13.835
X20.459 Y13.351
X20.627 Y13.284
X21.129 Y13.117
X22.134 Y12.807
X22.302 Y12.759
X22.804 Y12.646
X22.972 Y12.618
X23.976 Y12.468
X24.479 Y12.415
X24.646 Y12.408
X26.154
X26.321 Y12.415
X26.824 Y12.468
X27.828 Y12.618
X27.996 Y12.646
X28.498 Y12.759
X28.666 Y12.807
X29.671 Y13.117
X30.173 Y13.284
X30.341 Y13.351
X31.346 Y13.835
X31.681 Y14.002
X31.865 Y14.095
X32.016 Y14.177
X33.122 Y14.932
X33.69 Y15.364
X34.025 Y15.674
X34.863 Y16.451
X35.012 Y16.607
X35.417 Y17.11
X35.951 Y17.78
X36.035 Y17.897
X36.203 Y18.145
X36.293 Y18.282
X37.066 Y19.622
X37.153 Y19.789
X37.229 Y19.957
X37.296 Y20.124
X37.69 Y21.129
X37.877 Y21.67
X37.909 Y21.799
X38.253 Y23.306
X38.281 Y23.474
X38.329 Y23.976
X38.404 Y24.981
X38.414 Y25.149
Y25.651
X38.404 Y25.819
X38.329 Y26.824
X38.281 Y27.326
X38.253 Y27.494
X37.909 Y29.001
X37.877 Y29.13
X37.69 Y29.671
X37.296 Y30.676
X37.229 Y30.843
X37.153 Y31.011
X37.066 Y31.178
X36.293 Y32.518
X36.182 Y32.685
X36.035 Y32.903
X35.951 Y33.02
X35.365 Y33.755
X35.012 Y34.193
X34.863 Y34.349
X33.768 Y35.365
X33.69 Y35.436
X33.122 Y35.868
X32.016 Y36.623
X31.865 Y36.705
X31.513 Y36.882
X31.346 Y36.965
X30.341 Y37.449
X30.173 Y37.516
X29.671 Y37.683
X28.666 Y37.993
X28.498 Y38.041
X27.996 Y38.154
X27.828 Y38.182
X26.824 Y38.332
X26.321 Y38.385
X26.154 Y38.392
X24.646
X24.479 Y38.385
X23.976 Y38.332
X22.972 Y38.182
X22.804 Y38.154
X22.302 Y38.041
X22.134 Y37.993
X21.129 Y37.683
X20.627 Y37.516
X20.459 Y37.449
X19.454 Y36.965
X19.119 Y36.798
X18.935 Y36.705
X18.784 Y36.623
X17.677 Y35.868
X17.11 Y35.436
X16.775 Y35.126
X15.937 Y34.349
X15.788 Y34.193
X15.383 Y33.69
X14.849 Y33.02
X14.765 Y32.902
X14.597 Y32.655
X14.507 Y32.518
X13.796 Y31.286
G3 X13.901 Y30.872 I0.28 J-0.149
G1 X13.952 Y30.854 Z-8.195
X14.002 Y30.837 Z-8.181
X14.048 Y30.821 Z-8.158
X14.076 Y30.82 Z-8.14
X14.12 Y30.829 Z-8.1
X14.156 Y30.836 Z-8.053
X14.182 Y30.842 Z-8
X14.199 Y30.845 Z-7.942
X14.204 Y30.846 Z-7.883
G0 Z-7.365
X35.033 Y20.217
G1 Z-7.682 F300
X35.038 Y20.211 Z-7.753
X35.055 Y20.195 Z-7.82
X35.082 Y20.168 Z-7.88
X35.118 Y20.133 Z-7.931
X35.161 Y20.091 Z-7.969
X35.209 Y20.044 Z-7.992
X35.259 Y19.995 Z-8
G3 X36.632 Y18.915 I5.668 J5.795
G1 X36.659 Y18.9
X36.796 Y18.961
X36.913 Y19.055
X37.021 Y19.159
X37.093 Y19.244
X37.149 Y19.323
X37.199 Y19.405
X37.207 Y19.42
X37.469 Y19.957
X37.542 Y20.139
X37.877 Y20.993
X37.93 Y21.129
X38.095 Y21.632
X38.139 Y21.799
X38.483 Y23.306
X38.511 Y23.474
X38.554 Y23.976
X38.629 Y24.981
X38.639 Y25.149
Y25.651
X38.629 Y25.819
X38.554 Y26.824
X38.511 Y27.326
X38.483 Y27.494
X38.139 Y29.001
X38.095 Y29.168
X37.93 Y29.671
X37.865 Y29.838
X37.536 Y30.676
X37.469 Y30.843
X37.207 Y31.38
X37.133 Y31.513
X36.538 Y32.544
X36.203 Y33.054
X36.105 Y33.188
X35.303 Y34.193
X35.198 Y34.313
X34.82 Y34.695
X33.737 Y35.7
X33.69 Y35.743
X33.355 Y35.981
X32.518 Y36.551
X32.016 Y36.884
X31.848 Y36.972
X30.315 Y37.71
X30.173 Y37.763
X28.666 Y38.228
X28.498 Y38.275
X27.996 Y38.381
X27.828 Y38.408
X26.824 Y38.559
X26.321 Y38.61
X26.154 Y38.617
X24.646
X24.479 Y38.61
X23.976 Y38.559
X22.972 Y38.408
X22.797 Y38.38
X22.302 Y38.275
X22.134 Y38.228
X20.627 Y37.763
X20.485 Y37.71
X18.952 Y36.972
X18.784 Y36.884
X18.261 Y36.538
X17.445 Y35.981
X17.11 Y35.743
X16.882 Y35.533
X15.98 Y34.695
X15.602 Y34.313
X15.497 Y34.193
X14.695 Y33.188
X14.597 Y33.054
X14.262 Y32.544
X13.667 Y31.513
X13.593 Y31.379
X13.331 Y30.843
X13.258 Y30.661
X12.923 Y29.807
X12.87 Y29.671
X12.705 Y29.168
X12.661 Y29.001
X12.317 Y27.494
X12.289 Y27.326
X12.246 Y26.824
X12.171 Y25.819
X12.161 Y25.651
Y25.149
X12.171 Y24.981
X12.246 Y23.976
X12.289 Y23.474
X12.317 Y23.306
X12.661 Y21.799
X12.705 Y21.632
X12.87 Y21.129
X12.935 Y20.962
X13.264 Y20.124
X13.331 Y19.957
X13.593 Y19.421
X13.667 Y19.287
X14.262 Y18.256
X14.597 Y17.746
X14.695 Y17.612
X15.497 Y16.607
X15.602 Y16.487
X15.98 Y16.105
X17.063 Y15.1
X17.11 Y15.057
X17.445 Y14.819
X18.282 Y14.249
X18.784 Y13.916
X18.952 Y13.828
X20.485 Y13.09
X20.627 Y13.037
X22.134 Y12.572
X22.302 Y12.525
X22.804 Y12.419
X22.972 Y12.392
X23.976 Y12.241
X24.479 Y12.19
X24.646 Y12.183
X26.154
X26.321 Y12.19
X26.824 Y12.241
X27.828 Y12.392
X28.003 Y12.42
X28.498 Y12.525
X28.666 Y12.572
X30.173 Y13.037
X30.315 Y13.09
X31.848 Y13.828
X32.016 Y13.916
X32.539 Y14.262
X33.355 Y14.819
X33.69 Y15.057
X33.918 Y15.267
X34.82 Y16.105
X35.198 Y16.487
X35.303 Y16.607
X36.105 Y17.612
X36.203 Y17.746
X36.538 Y18.256
X37.133 Y19.287
