(NozzleDeepADOC_OP1)
(ADOC is 10mm with adaptive paths.)
(Machine)
(  vendor: Banggood)
(  model: 3018)
(  description: Generic 3-axis)
(T1  D=3.175 CR=0 - ZMIN=-24 - flat end mill)
(T3  D=2 CR=1 - ZMIN=-23.35 - ball end mill)
G90 G94
G17
G21

(Adaptive1)
T1 M6
S9000 M3
G54
G0 X19.29 Y20.538
Z5
Z3.01
Z2.5
G3 X18.811 Y17.56 Z2.335 I-0.24 J-1.489 F150
X19.29 Y20.538 Z2.169 I0.24 J1.489
X18.811 Y17.56 Z2.004 I-0.24 J-1.489
X19.29 Y20.538 Z1.838 I0.24 J1.489
X18.811 Y17.56 Z1.673 I-0.24 J-1.489
X19.29 Y20.538 Z1.507 I0.24 J1.489
X18.811 Y17.56 Z1.342 I-0.24 J-1.489
X19.29 Y20.538 Z1.176 I0.24 J1.489
X18.811 Y17.56 Z1.011 I-0.24 J-1.489
X19.29 Y20.538 Z0.845 I0.24 J1.489
X18.811 Y17.56 Z0.68 I-0.24 J-1.489
X19.29 Y20.538 Z0.515 I0.24 J1.489
X18.811 Y17.56 Z0.349 I-0.24 J-1.489
X19.29 Y20.538 Z0.184 I0.24 J1.489
X18.811 Y17.56 Z0.018 I-0.24 J-1.489
X19.29 Y20.538 Z-0.147 I0.24 J1.489
X18.811 Y17.56 Z-0.313 I-0.24 J-1.489
X19.29 Y20.538 Z-0.478 I0.24 J1.489
X18.811 Y17.56 Z-0.644 I-0.24 J-1.489
X19.29 Y20.538 Z-0.809 I0.24 J1.489
X18.811 Y17.56 Z-0.974 I-0.24 J-1.489
X19.29 Y20.538 Z-1.14 I0.24 J1.489
X18.811 Y17.56 Z-1.305 I-0.24 J-1.489
X19.29 Y20.538 Z-1.471 I0.24 J1.489
X18.811 Y17.56 Z-1.636 I-0.24 J-1.489
X19.29 Y20.538 Z-1.802 I0.24 J1.489
X18.811 Y17.56 Z-1.967 I-0.24 J-1.489
X19.29 Y20.538 Z-2.133 I0.24 J1.489
X18.811 Y17.56 Z-2.298 I-0.24 J-1.489
X19.29 Y20.538 Z-2.464 I0.24 J1.489
X18.811 Y17.56 Z-2.629 I-0.24 J-1.489
X19.29 Y20.538 Z-2.794 I0.24 J1.489
X18.811 Y17.56 Z-2.96 I-0.24 J-1.489
X19.29 Y20.538 Z-3.125 I0.24 J1.489
X18.811 Y17.56 Z-3.291 I-0.24 J-1.489
X19.29 Y20.538 Z-3.456 I0.24 J1.489
X18.811 Y17.56 Z-3.622 I-0.24 J-1.489
X19.29 Y20.538 Z-3.787 I0.24 J1.489
X18.811 Y17.56 Z-3.953 I-0.24 J-1.489
X19.29 Y20.538 Z-4.118 I0.24 J1.489
X18.811 Y17.56 Z-4.284 I-0.24 J-1.489
X19.29 Y20.538 Z-4.449 I0.24 J1.489
X18.811 Y17.56 Z-4.614 I-0.24 J-1.489
X19.29 Y20.538 Z-4.78 I0.24 J1.489
X18.811 Y17.56 Z-4.945 I-0.24 J-1.489
X19.29 Y20.538 Z-5.111 I0.24 J1.489
X18.811 Y17.56 Z-5.276 I-0.24 J-1.489
X19.29 Y20.538 Z-5.442 I0.24 J1.489
X18.811 Y17.56 Z-5.607 I-0.24 J-1.489
X19.29 Y20.538 Z-5.773 I0.24 J1.489
X18.811 Y17.56 Z-5.938 I-0.24 J-1.489
X19.29 Y20.538 Z-6.103 I0.24 J1.489
X18.811 Y17.56 Z-6.269 I-0.24 J-1.489
X19.29 Y20.538 Z-6.434 I0.24 J1.489
X18.811 Y17.56 Z-6.6 I-0.24 J-1.489
X19.29 Y20.538 Z-6.765 I0.24 J1.489
X18.811 Y17.56 Z-6.931 I-0.24 J-1.489
X19.29 Y20.538 Z-7.096 I0.24 J1.489
X18.811 Y17.56 Z-7.262 I-0.24 J-1.489
X19.29 Y20.538 Z-7.427 I0.24 J1.489
X18.811 Y17.56 Z-7.593 I-0.24 J-1.489
X19.29 Y20.538 Z-7.758 I0.24 J1.489
X18.811 Y17.56 Z-7.923 I-0.24 J-1.489
X19.29 Y20.538 Z-8.089 I0.24 J1.489
X18.811 Y17.56 Z-8.254 I-0.24 J-1.489
X19.29 Y20.538 Z-8.42 I0.24 J1.489
X18.811 Y17.56 Z-8.585 I-0.24 J-1.489
X19.29 Y20.538 Z-8.751 I0.24 J1.489
X18.811 Y17.56 Z-8.916 I-0.24 J-1.489
X19.29 Y20.538 Z-9.082 I0.24 J1.489
X18.811 Y17.56 Z-9.247 I-0.24 J-1.489
X19.29 Y20.538 Z-9.413 I0.24 J1.489
X18.811 Y17.56 Z-9.578 I-0.24 J-1.489
X19.29 Y20.538 Z-9.743 I0.24 J1.489
X18.811 Y17.56 Z-9.909 I-0.24 J-1.489
X20.558 Y19.049 Z-10 I0.24 J1.489
X17.542 Y19.049 I-1.508 J0
X20.558 Y19.049 I1.508 J0
G1 X20.572 Y19.57 F500
X20.57 Y19.72
X20.537 Y19.867
X20.483 Y20.007
X20.412 Y20.138
X20.325 Y20.261
X20.226 Y20.373
X20.116 Y20.475
X19.996 Y20.566
X19.868 Y20.644
X19.734 Y20.711
X19.594 Y20.766
X19.45 Y20.808
X19.303 Y20.837
X19.154 Y20.854
X19.004 Y20.858
X18.855 Y20.849
X18.706 Y20.827
X18.56 Y20.794
X18.417 Y20.748
X18.279 Y20.69
X18.146 Y20.621
X18.019 Y20.541
X17.899 Y20.451
X17.787 Y20.351
X17.683 Y20.242
X17.59 Y20.125
X17.506 Y20.001
X17.432 Y19.87
X17.37 Y19.734
X17.319 Y19.593
X17.28 Y19.448
X17.253 Y19.3
X17.239 Y19.151
X17.236 Y19.001
X17.247 Y18.851
X17.269 Y18.703
X17.304 Y18.557
X17.35 Y18.414
X17.409 Y18.276
X17.478 Y18.143
X17.558 Y18.017
X17.649 Y17.897
X17.749 Y17.785
X17.858 Y17.682
X17.975 Y17.588
X18.099 Y17.504
X18.23 Y17.431
X18.366 Y17.369
X18.507 Y17.318
X18.652 Y17.279
X18.8 Y17.252
X18.949 Y17.238
X19.099 Y17.236
X19.249 Y17.246
X19.397 Y17.268
X19.543 Y17.303
X19.686 Y17.35
X19.824 Y17.408
X19.957 Y17.478
X20.083 Y17.558
X20.203 Y17.648
X20.315 Y17.748
X20.418 Y17.857
X20.512 Y17.974
X20.596 Y18.099
X20.669 Y18.229
X20.731 Y18.366
X20.782 Y18.507
X20.825 Y18.651
X20.861 Y18.797
X20.891 Y18.944
X20.914 Y19.092
X20.928 Y19.242
X20.931 Y19.392
X20.923 Y19.541
X20.902 Y19.69
X20.869 Y19.836
X20.823 Y19.979
X20.765 Y20.117
X20.694 Y20.25
X20.613 Y20.376
X20.521 Y20.495
X20.42 Y20.605
X20.31 Y20.707
X20.193 Y20.8
X20.068 Y20.884
X19.937 Y20.957
X19.801 Y21.02
X19.66 Y21.073
X19.516 Y21.115
X19.37 Y21.146
X19.221 Y21.166
X19.071 Y21.175
X18.921 Y21.173
X18.772 Y21.161
X18.624 Y21.137
X18.478 Y21.103
X18.334 Y21.059
X18.195 Y21.004
X18.059 Y20.94
X17.928 Y20.866
X17.803 Y20.784
X17.684 Y20.692
X17.572 Y20.592
X17.467 Y20.485
X17.37 Y20.371
X17.281 Y20.25
X17.201 Y20.123
X17.131 Y19.991
X17.069 Y19.854
X17.018 Y19.713
X16.976 Y19.569
X16.945 Y19.422
X16.924 Y19.274
X16.913 Y19.124
Y18.974
X16.924 Y18.824
X16.945 Y18.676
X16.976 Y18.529
X17.017 Y18.385
X17.069 Y18.244
X17.13 Y18.107
X17.201 Y17.975
X17.281 Y17.848
X17.37 Y17.727
X17.466 Y17.612
X17.571 Y17.505
X17.683 Y17.405
X17.801 Y17.313
X17.926 Y17.23
X18.057 Y17.156
X18.192 Y17.091
X18.331 Y17.035
X18.474 Y16.99
X18.62 Y16.954
X18.768 Y16.93
X18.917 Y16.915
X19.067 Y16.911
X19.217 Y16.917
X19.366 Y16.934
X19.513 Y16.961
X19.659 Y16.999
X19.801 Y17.047
X19.939 Y17.105
X20.073 Y17.172
X20.203 Y17.248
X20.326 Y17.333
X20.443 Y17.427
X20.554 Y17.528
X20.656 Y17.638
X20.751 Y17.754
X20.838 Y17.876
X20.917 Y18.004
X20.988 Y18.136
X21.051 Y18.272
X21.108 Y18.411
X21.157 Y18.553
X21.198 Y18.697
X21.23 Y18.843
X21.254 Y18.991
X21.269 Y19.141
X21.275 Y19.291
X21.271 Y19.44
X21.257 Y19.59
X21.232 Y19.738
X21.198 Y19.884
X21.154 Y20.027
X21.1 Y20.167
X21.036 Y20.303
X20.963 Y20.434
X20.881 Y20.559
X20.79 Y20.679
X20.691 Y20.792
X20.586 Y20.898
X20.473 Y20.997
X20.353 Y21.087
X20.228 Y21.17
X20.097 Y21.244
X19.962 Y21.309
X19.823 Y21.365
X19.681 Y21.413
X19.536 Y21.451
X19.389 Y21.48
X19.24 Y21.499
X19.09 Y21.508
X18.94
X18.79 Y21.499
X18.642 Y21.481
X18.494 Y21.453
X18.349 Y21.416
X18.206 Y21.371
X18.066 Y21.316
X17.93 Y21.253
X17.798 Y21.182
X17.671 Y21.102
X17.548 Y21.016
X17.431 Y20.922
X17.321 Y20.821
X17.216 Y20.713
X17.119 Y20.599
X17.028 Y20.479
X16.945 Y20.354
X16.87 Y20.225
X16.802 Y20.091
X16.743 Y19.953
X16.693 Y19.812
X16.651 Y19.668
X16.618 Y19.521
X16.594 Y19.373
X16.578 Y19.224
X16.572 Y19.074
X16.575 Y18.924
X16.587 Y18.775
X16.608 Y18.626
X16.638 Y18.479
X16.677 Y18.334
X16.725 Y18.192
X16.781 Y18.053
X16.845 Y17.917
X16.918 Y17.786
X16.998 Y17.659
X17.086 Y17.538
X17.181 Y17.422
X17.283 Y17.312
X17.391 Y17.208
X17.506 Y17.111
X17.626 Y17.021
X17.751 Y16.938
X17.881 Y16.864
X18.015 Y16.797
X18.154 Y16.739
X18.295 Y16.689
X18.439 Y16.647
X18.586 Y16.615
X18.734 Y16.591
X18.883 Y16.576
X19.033 Y16.571
X19.183 Y16.575
X19.332 Y16.587
X19.481 Y16.609
X19.628 Y16.639
X19.772 Y16.678
X19.915 Y16.726
X20.053 Y16.783
X20.189 Y16.848
X20.32 Y16.921
X20.446 Y17.001
X20.568 Y17.09
X20.683 Y17.185
X20.793 Y17.287
X20.897 Y17.395
X20.995 Y17.509
X21.086 Y17.629
X21.17 Y17.753
X21.248 Y17.881
X21.319 Y18.013
X21.383 Y18.148
X21.441 Y18.287
X21.491 Y18.428
X21.533 Y18.572
X21.568 Y18.718
X21.595 Y18.866
X21.613 Y19.015
X21.624 Y19.164
X21.626 Y19.314
X21.62 Y19.464
X21.605 Y19.613
X21.582 Y19.761
X21.549 Y19.908
X21.509 Y20.052
X21.46 Y20.194
X21.402 Y20.333
X21.337 Y20.468
X21.264 Y20.599
X21.183 Y20.725
X21.095 Y20.846
X20.999 Y20.962
X20.898 Y21.072
X20.789 Y21.176
X20.676 Y21.274
X20.556 Y21.365
X20.432 Y21.448
X20.303 Y21.525
X20.169 Y21.593
X20.032 Y21.655
X19.892 Y21.708
X19.749 Y21.754
X19.604 Y21.791
X19.457 Y21.82
X19.308 Y21.841
X19.159 Y21.854
X19.009 Y21.858
X18.859 Y21.854
X18.709 Y21.842
X18.561 Y21.822
X18.414 Y21.794
X18.268 Y21.758
X18.125 Y21.714
X17.984 Y21.662
X17.846 Y21.603
X17.712 Y21.536
X17.581 Y21.462
X17.455 Y21.382
X17.333 Y21.294
X17.215 Y21.201
X17.104 Y21.101
X16.997 Y20.995
X16.897 Y20.883
X16.802 Y20.767
X16.714 Y20.646
X16.632 Y20.52
X16.557 Y20.39
X16.49 Y20.256
X16.429 Y20.119
X16.376 Y19.979
X16.331 Y19.836
X16.293 Y19.69
X16.262 Y19.544
X16.24 Y19.395
X16.225 Y19.246
X16.219 Y19.096
X16.22 Y18.946
X16.23 Y18.796
X16.247 Y18.647
X16.272 Y18.5
X16.305 Y18.353
X16.346 Y18.209
X16.394 Y18.067
X16.449 Y17.927
X16.513 Y17.791
X16.583 Y17.659
X16.66 Y17.53
X16.744 Y17.406
X16.834 Y17.286
X16.93 Y17.171
X17.033 Y17.061
X17.141 Y16.957
X17.254 Y16.859
X17.373 Y16.767
X17.496 Y16.682
X17.623 Y16.603
X17.755 Y16.531
X17.89 Y16.466
X18.028 Y16.408
X18.17 Y16.357
X18.314 Y16.314
X18.459 Y16.279
X18.607 Y16.252
X18.756 Y16.232
X18.905 Y16.221
X19.055 Y16.217
X19.205 Y16.221
X19.355 Y16.233
X19.503 Y16.253
X19.651 Y16.281
X19.796 Y16.317
X19.94 Y16.36
X20.081 Y16.411
X20.219 Y16.47
X20.354 Y16.535
X20.486 Y16.607
X20.613 Y16.687
X20.736 Y16.773
X20.854 Y16.865
X20.968 Y16.963
X21.076 Y17.066
X21.179 Y17.175
X21.277 Y17.289
X21.37 Y17.407
X21.456 Y17.53
X21.537 Y17.656
X21.611 Y17.786
X21.679 Y17.92
X21.741 Y18.057
X21.796 Y18.196
X21.845 Y18.338
X21.887 Y18.482
X21.922 Y18.628
X21.949 Y18.775
X21.97 Y18.924
X21.983 Y19.073
X21.989 Y19.223
X21.987 Y19.373
X21.977 Y19.523
X21.961 Y19.672
X21.937 Y19.82
X21.905 Y19.967
X21.866 Y20.111
X21.819 Y20.254
X21.765 Y20.394
X21.705 Y20.531
X21.637 Y20.665
X21.562 Y20.795
X21.481 Y20.921
X21.394 Y21.043
X21.3 Y21.16
X21.2 Y21.272
X21.095 Y21.379
X20.984 Y21.481
X20.869 Y21.576
X20.749 Y21.666
X20.624 Y21.75
X20.496 Y21.827
X20.363 Y21.898
X20.228 Y21.962
X20.089 Y22.019
X19.948 Y22.069
X19.804 Y22.112
X19.658 Y22.148
X19.511 Y22.177
X19.363 Y22.198
X19.213 Y22.212
X19.063 Y22.219
X18.913
X18.764 Y22.211
X18.614 Y22.196
X18.466 Y22.174
X18.319 Y22.144
X18.173 Y22.108
X18.03 Y22.065
X17.888 Y22.015
X17.75 Y21.958
X17.614 Y21.895
X17.481 Y21.825
X17.352 Y21.749
X17.226 Y21.666
X17.105 Y21.578
X16.988 Y21.485
X16.875 Y21.386
X16.767 Y21.281
X16.664 Y21.172
X16.567 Y21.058
X16.475 Y20.939
X16.389 Y20.817
X16.309 Y20.69
X16.234 Y20.56
X16.166 Y20.426
X16.104 Y20.289
X16.049 Y20.15
X16.001 Y20.008
X15.959 Y19.864
X15.924 Y19.718
X15.896 Y19.571
X15.875 Y19.422
X15.861 Y19.273
X15.854 Y19.123
Y18.973
X15.861 Y18.823
X15.875 Y18.674
X15.896 Y18.525
X15.924 Y18.378
X15.959 Y18.232
X16 Y18.088
X16.049 Y17.946
X16.104 Y17.806
X16.165 Y17.67
X16.233 Y17.536
X16.307 Y17.405
X16.387 Y17.278
X16.473 Y17.156
X16.565 Y17.037
X16.662 Y16.923
X16.764 Y16.813
X16.871 Y16.708
X16.984 Y16.608
X17.1 Y16.514
X17.221 Y16.426
X17.346 Y16.343
X17.475 Y16.266
X17.607 Y16.195
X17.743 Y16.131
X17.881 Y16.072
X18.022 Y16.021
X18.165 Y15.976
X18.31 Y15.938
X18.457 Y15.907
X18.605 Y15.882
X18.754 Y15.865
X18.903 Y15.854
X19.053 Y15.851
X19.203 Y15.855
X19.353 Y15.865
X19.502 Y15.883
X19.65 Y15.908
X19.797 Y15.939
X19.942 Y15.978
X20.085 Y16.023
X20.225 Y16.075
X20.364 Y16.133
X20.499 Y16.198
X20.631 Y16.268
X20.76 Y16.345
X20.885 Y16.428
X21.006 Y16.516
X21.124 Y16.61
X21.236 Y16.709
X21.345 Y16.812
X21.449 Y16.921
X21.548 Y17.033
X21.642 Y17.15
X21.731 Y17.271
X21.814 Y17.396
X21.892 Y17.524
X21.965 Y17.655
X22.031 Y17.789
X22.092 Y17.926
X22.147 Y18.066
X22.196 Y18.208
X22.239 Y18.351
X22.276 Y18.497
X22.306 Y18.644
X22.33 Y18.792
X22.347 Y18.941
X22.357 Y19.091
X22.361 Y19.241
X22.359 Y19.391
X22.349 Y19.54
X22.333 Y19.689
X22.311 Y19.838
X22.281 Y19.985
X22.245 Y20.13
X22.203 Y20.274
X22.154 Y20.416
X22.099 Y20.555
X22.037 Y20.692
X21.969 Y20.826
X21.896 Y20.957
X21.816 Y21.084
X21.731 Y21.208
X21.64 Y21.327
X21.544 Y21.442
X21.443 Y21.553
X21.337 Y21.659
X21.226 Y21.76
X21.111 Y21.856
X20.992 Y21.947
X20.869 Y22.033
X20.742 Y22.112
X20.611 Y22.186
X20.477 Y22.254
X20.341 Y22.317
X20.202 Y22.372
X20.06 Y22.422
X19.917 Y22.466
X19.771 Y22.503
X19.625 Y22.534
X19.477 Y22.558
X19.328 Y22.576
X19.178 Y22.588
X19.028 Y22.592
X18.878 Y22.59
X18.728 Y22.582
X18.579 Y22.567
X18.431 Y22.546
X18.283 Y22.519
X18.137 Y22.485
X17.992 Y22.445
X17.85 Y22.399
X17.709 Y22.346
X17.571 Y22.288
X17.435 Y22.224
X17.303 Y22.154
X17.173 Y22.079
X17.047 Y21.998
X16.924 Y21.912
X16.805 Y21.82
X16.69 Y21.724
X16.579 Y21.623
X16.473 Y21.517
X16.371 Y21.407
X16.274 Y21.292
X16.181 Y21.174
X16.094 Y21.051
X16.012 Y20.926
X15.936 Y20.797
X15.865 Y20.664
X15.799 Y20.529
X15.74 Y20.392
X15.686 Y20.251
X15.639 Y20.109
X15.597 Y19.964
X15.561 Y19.817
X15.531 Y19.669
X15.508 Y19.521
X15.491 Y19.372
X15.481 Y19.223
X15.476 Y19.073
X15.479 Y18.923
X15.487 Y18.773
X15.502 Y18.623
X15.523 Y18.473
X15.55 Y18.324
X15.584 Y18.177
X15.624 Y18.032
X15.669 Y17.889
X15.721 Y17.749
X15.778 Y17.61
X15.842 Y17.474
X15.911 Y17.34
X15.986 Y17.209
X16.066 Y17.081
X16.152 Y16.957
X16.243 Y16.836
X16.338 Y16.72
X16.438 Y16.609
X16.543 Y16.501
X16.652 Y16.398
X16.766 Y16.3
X16.884 Y16.206
X17.006 Y16.117
X17.132 Y16.033
X17.261 Y15.955
X17.393 Y15.882
X17.527 Y15.815
X17.664 Y15.754
X17.803 Y15.699
X17.945 Y15.65
X18.089 Y15.606
X18.235 Y15.569
X18.383 Y15.537
X18.533 Y15.512
X18.683 Y15.493
X18.832 Y15.481
X18.982 Y15.475
X19.132
X19.282 Y15.482
X19.431 Y15.495
X19.581 Y15.514
X19.73 Y15.54
X19.878 Y15.572
X20.025 Y15.61
X20.171 Y15.654
X20.314 Y15.705
X20.454 Y15.761
X20.593 Y15.823
X20.729 Y15.891
X20.863 Y15.966
X20.995 Y16.047
X21.125 Y16.134
X21.252 Y16.226
X21.375 Y16.325
X21.494 Y16.429
X21.61 Y16.539
X21.721 Y16.653
X21.827 Y16.772
X21.929 Y16.897
X22.025 Y17.025
X22.117 Y17.158
X22.202 Y17.295
X22.283 Y17.436
X22.357 Y17.58
X22.425 Y17.726
X22.486 Y17.875
X22.541 Y18.026
X22.59 Y18.179
X22.632 Y18.333
X22.667 Y18.489
X22.696 Y18.645
X22.718 Y18.803
X22.733 Y18.961
X22.742 Y19.119
X22.744 Y19.276
X22.74 Y19.434
X22.729 Y19.591
X22.711 Y19.747
X22.687 Y19.902
X22.656 Y20.056
X22.619 Y20.209
X22.576 Y20.36
X22.526 Y20.508
X22.47 Y20.654
X22.409 Y20.796
X22.342 Y20.935
X22.269 Y21.071
X22.191 Y21.204
X22.107 Y21.334
X22.016 Y21.461
X21.921 Y21.585
X21.82 Y21.704
X21.714 Y21.82
X21.604 Y21.93
X21.488 Y22.036
X21.369 Y22.137
X21.245 Y22.234
X21.116 Y22.325
X20.984 Y22.41
X20.849 Y22.491
X20.709 Y22.565
X20.567 Y22.634
X20.422 Y22.696
X20.275 Y22.753
X20.124 Y22.803
X19.972 Y22.847
X19.817 Y22.885
X19.661 Y22.916
X19.503 Y22.941
X19.343 Y22.959
X19.182 Y22.971
X19.021 Y22.976
X18.859 Y22.974
X18.698 Y22.965
X18.537 Y22.949
X18.376 Y22.927
X18.217 Y22.897
X18.058 Y22.862
X17.901 Y22.819
X17.745 Y22.77
X17.592 Y22.714
X17.44 Y22.651
X17.291 Y22.582
X17.146 Y22.508
X17.004 Y22.427
X16.865 Y22.34
X16.729 Y22.247
X16.598 Y22.149
X16.47 Y22.044
X16.347 Y21.935
X16.228 Y21.82
X16.115 Y21.7
X16.006 Y21.575
X15.903 Y21.447
X15.805 Y21.314
X15.713 Y21.177
X15.627 Y21.036
X15.547 Y20.891
X15.472 Y20.743
X15.404 Y20.592
X15.342 Y20.438
X15.287 Y20.281
X15.238 Y20.123
X15.197 Y19.962
X15.162 Y19.801
X15.133 Y19.637
X15.112 Y19.473
X15.098 Y19.307
X15.09 Y19.141
X15.089 Y18.975
X15.096 Y18.808
X15.109 Y18.643
X15.13 Y18.478
X15.157 Y18.314
X15.191 Y18.152
X15.232 Y17.991
X15.28 Y17.831
X15.334 Y17.674
X15.395 Y17.519
X15.463 Y17.367
X15.537 Y17.217
X15.617 Y17.071
X15.703 Y16.929
X15.794 Y16.79
X15.892 Y16.656
X15.995 Y16.526
X16.104 Y16.4
X16.218 Y16.278
X16.337 Y16.161
X16.461 Y16.05
X16.589 Y15.943
X16.722 Y15.843
X16.858 Y15.748
X16.999 Y15.659
X17.143 Y15.576
X17.29 Y15.499
X17.441 Y15.428
X17.594 Y15.364
X17.751 Y15.306
X17.91 Y15.254
X18.07 Y15.209
X18.232 Y15.172
X18.396 Y15.141
X18.56 Y15.117
X18.726 Y15.1
X18.892 Y15.09
X19.058 Y15.086
X19.225 Y15.09
X19.392 Y15.101
X19.558 Y15.119
X19.724 Y15.144
X19.888 Y15.176
X20.051 Y15.214
X20.213 Y15.26
X20.373 Y15.313
X20.531 Y15.372
X20.687 Y15.438
X20.841 Y15.511
X20.992 Y15.591
X21.14 Y15.677
X21.285 Y15.77
X21.426 Y15.869
X21.564 Y15.975
X21.698 Y16.086
X21.827 Y16.204
X21.952 Y16.327
X22.072 Y16.456
X22.186 Y16.59
X22.295 Y16.729
X22.399 Y16.873
X22.496 Y17.021
X22.587 Y17.173
X22.671 Y17.328
X22.749 Y17.487
X22.82 Y17.649
X22.884 Y17.814
X22.941 Y17.981
X22.991 Y18.15
X23.033 Y18.32
X23.069 Y18.492
X23.097 Y18.665
X23.117 Y18.839
X23.131 Y19.014
X23.137 Y19.188
X23.136 Y19.362
X23.127 Y19.536
X23.111 Y19.71
X23.088 Y19.882
X23.058 Y20.053
X23.02 Y20.222
X22.976 Y20.389
X22.925 Y20.554
X22.867 Y20.716
X22.802 Y20.875
X22.731 Y21.032
X22.653 Y21.185
X22.569 Y21.336
X22.478 Y21.482
X22.381 Y21.625
X22.278 Y21.764
X22.17 Y21.898
X22.056 Y22.028
X21.936 Y22.153
X21.811 Y22.273
X21.681 Y22.387
X21.546 Y22.496
X21.407 Y22.6
X21.263 Y22.698
X21.115 Y22.789
X20.963 Y22.875
X20.808 Y22.954
X20.649 Y23.026
X20.488 Y23.092
X20.323 Y23.152
X20.155 Y23.204
X19.985 Y23.249
X19.813 Y23.287
X19.639 Y23.318
X19.464 Y23.342
X19.287 Y23.359
X19.11 Y23.368
X18.932 Y23.369
X18.754 Y23.363
X18.577 Y23.35
X18.4 Y23.329
X18.223 Y23.3
X18.048 Y23.264
X17.873 Y23.221
X17.701 Y23.171
X17.531 Y23.113
X17.363 Y23.048
X17.199 Y22.976
X17.037 Y22.897
X16.878 Y22.811
X16.723 Y22.718
X16.572 Y22.619
X16.425 Y22.514
X16.282 Y22.402
X16.144 Y22.285
X16.011 Y22.161
X15.883 Y22.033
X15.761 Y21.898
X15.645 Y21.759
X15.534 Y21.615
X15.429 Y21.466
X15.331 Y21.313
X15.239 Y21.156
X15.154 Y20.995
X15.076 Y20.83
X15.004 Y20.663
X14.94 Y20.492
X14.883 Y20.319
X14.833 Y20.143
X14.791 Y19.966
X14.756 Y19.787
X14.728 Y19.606
X14.709 Y19.424
X14.697 Y19.242
X14.692 Y19.059
X14.695 Y18.876
X14.706 Y18.694
X14.725 Y18.512
X14.751 Y18.331
X14.785 Y18.152
X14.826 Y17.973
X14.875 Y17.797
X14.931 Y17.623
X14.995 Y17.451
X15.065 Y17.282
X15.143 Y17.116
X15.227 Y16.954
X15.319 Y16.796
X15.416 Y16.641
X15.521 Y16.49
X15.631 Y16.344
X15.748 Y16.203
X15.87 Y16.067
X15.999 Y15.936
X16.132 Y15.81
X16.27 Y15.691
X16.414 Y15.577
X16.562 Y15.469
X16.714 Y15.368
X16.871 Y15.273
X17.032 Y15.185
X17.196 Y15.103
X17.364 Y15.029
X17.534 Y14.962
X17.707 Y14.902
X17.882 Y14.849
X18.06 Y14.803
X18.239 Y14.766
X18.42 Y14.735
X18.601 Y14.713
X18.784 Y14.697
X18.968 Y14.69
X19.151
X19.335 Y14.699
X19.518 Y14.714
X19.701 Y14.738
X19.883 Y14.769
X20.063 Y14.808
X20.242 Y14.854
X20.42 Y14.909
X20.595 Y14.97
X20.769 Y15.04
X20.939 Y15.116
X21.107 Y15.2
X21.272 Y15.292
X21.433 Y15.39
X21.591 Y15.496
X21.744 Y15.608
X21.893 Y15.727
X22.037 Y15.852
X22.176 Y15.984
X22.31 Y16.122
X22.438 Y16.266
X22.56 Y16.415
X22.676 Y16.569
X22.785 Y16.728
X22.888 Y16.892
X22.984 Y17.059
X23.072 Y17.231
X23.153 Y17.406
X23.227 Y17.585
X23.293 Y17.766
X23.352 Y17.949
X23.402 Y18.135
X23.445 Y18.323
X23.48 Y18.512
X23.507 Y18.702
X23.525 Y18.892
X23.536 Y19.084
X23.539 Y19.275
X23.533 Y19.466
X23.52 Y19.656
X23.499 Y19.846
X23.469 Y20.034
X23.432 Y20.22
X23.388 Y20.405
X23.335 Y20.587
X23.275 Y20.767
X23.207 Y20.944
X23.133 Y21.118
X23.05 Y21.288
X22.961 Y21.456
X22.865 Y21.619
X22.762 Y21.778
X22.652 Y21.933
X22.536 Y22.083
X22.414 Y22.228
X22.285 Y22.368
X22.151 Y22.502
X22.011 Y22.631
X21.866 Y22.754
X21.715 Y22.871
X21.56 Y22.981
X21.4 Y23.085
X21.236 Y23.183
X21.067 Y23.273
X20.894 Y23.356
X20.718 Y23.432
X20.539 Y23.501
X20.356 Y23.562
X20.171 Y23.616
X19.984 Y23.662
X19.794 Y23.7
X19.603 Y23.73
X19.41 Y23.752
X19.216 Y23.766
X19.022 Y23.772
X18.827 Y23.769
X18.633 Y23.759
X18.438 Y23.74
X18.245 Y23.713
X18.052 Y23.678
X17.861 Y23.635
X17.671 Y23.583
X17.484 Y23.524
X17.299 Y23.457
X17.117 Y23.382
X16.939 Y23.299
X16.763 Y23.209
X16.592 Y23.112
X16.424 Y23.007
X16.261 Y22.895
X16.103 Y22.777
X15.949 Y22.651
X15.801 Y22.52
X15.659 Y22.382
X15.522 Y22.238
X15.391 Y22.089
X15.267 Y21.934
X15.149 Y21.773
X15.038 Y21.608
X14.934 Y21.439
X14.838 Y21.265
X14.748 Y21.087
X14.666 Y20.905
X14.592 Y20.721
X14.526 Y20.533
X14.467 Y20.342
X14.417 Y20.149
X14.374 Y19.954
X14.34 Y19.757
X14.315 Y19.559
X14.297 Y19.36
X14.288 Y19.161
X14.287 Y18.961
X14.295 Y18.761
X14.311 Y18.562
X14.336 Y18.364
X14.368 Y18.167
X14.409 Y17.971
X14.459 Y17.777
X14.516 Y17.586
X14.581 Y17.396
X14.654 Y17.21
X14.735 Y17.027
X14.824 Y16.848
X14.92 Y16.673
X15.024 Y16.501
X15.134 Y16.334
X15.251 Y16.172
X15.376 Y16.015
X15.506 Y15.864
X15.643 Y15.718
X15.786 Y15.577
X15.935 Y15.443
X16.089 Y15.316
X16.248 Y15.195
X16.413 Y15.08
X16.582 Y14.973
X16.755 Y14.873
X16.933 Y14.78
X17.114 Y14.695
X17.298 Y14.617
X17.486 Y14.548
X17.676 Y14.486
X17.869 Y14.432
X18.065 Y14.387
X18.262 Y14.349
X18.46 Y14.32
X18.659 Y14.3
X18.86 Y14.287
X19.061 Y14.283
X19.262 Y14.288
X19.462 Y14.301
X19.663 Y14.322
X19.862 Y14.352
X20.061 Y14.391
X20.258 Y14.437
X20.453 Y14.493
X20.646 Y14.556
X20.837 Y14.628
X21.025 Y14.707
X21.211 Y14.795
X21.392 Y14.891
X21.57 Y14.995
X21.744 Y15.106
X21.914 Y15.225
X22.079 Y15.351
X22.238 Y15.484
X22.392 Y15.624
X22.541 Y15.77
X22.683 Y15.923
X22.819 Y16.082
X22.949 Y16.247
X23.071 Y16.417
X23.186 Y16.593
X23.294 Y16.773
X23.394 Y16.957
X23.486 Y17.146
X23.571 Y17.338
X23.647 Y17.533
X23.714 Y17.731
X23.774 Y17.932
X23.825 Y18.136
X23.867 Y18.34
X23.9 Y18.547
X23.925 Y18.754
X23.941 Y18.962
X23.949 Y19.171
X23.947 Y19.379
X23.937 Y19.587
X23.918 Y19.794
X23.891 Y19.999
X23.854 Y20.204
X23.81 Y20.406
X23.757 Y20.606
X23.695 Y20.804
X23.626 Y20.999
X23.548 Y21.191
X23.462 Y21.379
X23.369 Y21.564
X23.267 Y21.744
X23.159 Y21.92
X23.042 Y22.092
X22.919 Y22.258
X22.789 Y22.42
X22.652 Y22.575
X22.509 Y22.725
X22.359 Y22.869
X22.203 Y23.006
X22.042 Y23.137
X21.875 Y23.261
X21.703 Y23.378
X21.526 Y23.488
X21.344 Y23.591
X21.158 Y23.685
X20.968 Y23.772
X20.774 Y23.852
X20.577 Y23.922
X20.376 Y23.985
X20.173 Y24.039
X19.968 Y24.085
X19.76 Y24.122
X19.551 Y24.151
X19.341 Y24.17
X19.129 Y24.181
X18.918 Y24.183
X18.706 Y24.176
X18.494 Y24.16
X18.283 Y24.135
X18.072 Y24.101
X17.864 Y24.059
X17.657 Y24.007
X17.452 Y23.947
X17.249 Y23.878
X17.05 Y23.801
X16.854 Y23.716
X16.661 Y23.622
X16.472 Y23.52
X16.288 Y23.41
X16.108 Y23.292
X15.933 Y23.167
X15.763 Y23.034
X15.6 Y22.895
X15.442 Y22.748
X15.29 Y22.595
X15.144 Y22.436
X15.006 Y22.27
X14.874 Y22.099
X14.75 Y21.922
X14.633 Y21.74
X14.524 Y21.553
X14.423 Y21.362
X14.329 Y21.167
X14.244 Y20.968
X14.168 Y20.765
X14.1 Y20.559
X14.041 Y20.35
X13.99 Y20.14
X13.949 Y19.927
X13.916 Y19.712
X13.893 Y19.497
X13.878 Y19.28
X13.873 Y19.063
X13.877 Y18.846
X13.889 Y18.629
X13.911 Y18.413
X13.943 Y18.198
X13.983 Y17.984
X14.032 Y17.773
X14.089 Y17.563
X14.156 Y17.356
X14.231 Y17.152
X14.315 Y16.952
X14.407 Y16.755
X14.508 Y16.562
X14.616 Y16.373
X14.732 Y16.189
X14.856 Y16.01
X14.987 Y15.837
X15.126 Y15.669
X15.271 Y15.507
X15.423 Y15.352
X15.582 Y15.203
X15.746 Y15.06
X15.917 Y14.925
X16.093 Y14.797
X16.274 Y14.677
X16.46 Y14.564
X16.651 Y14.459
X16.846 Y14.362
X17.044 Y14.274
X17.247 Y14.194
X17.452 Y14.122
X17.661 Y14.059
X17.872 Y14.005
X18.085 Y13.96
X18.3 Y13.924
X18.517 Y13.897
X18.734 Y13.879
X18.952 Y13.87
X19.171
X19.389 Y13.88
X19.608 Y13.899
X19.825 Y13.927
X20.042 Y13.964
X20.257 Y14.01
X20.47 Y14.065
X20.681 Y14.13
X20.89 Y14.203
X21.096 Y14.285
X21.299 Y14.376
X21.498 Y14.476
X21.693 Y14.584
X21.884 Y14.7
X22.071 Y14.825
X22.252 Y14.958
X22.428 Y15.098
X22.598 Y15.246
X22.762 Y15.401
X22.919 Y15.564
X23.07 Y15.732
X23.214 Y15.908
X23.35 Y16.089
X23.478 Y16.276
X23.599 Y16.468
X23.712 Y16.665
X23.816 Y16.867
X23.911 Y17.073
X23.998 Y17.283
X24.076 Y17.496
X24.145 Y17.712
X24.205 Y17.931
X24.255 Y18.152
X24.296 Y18.375
X24.328 Y18.599
X24.35 Y18.824
X24.363 Y19.05
X24.366 Y19.275
X24.36 Y19.501
X24.344 Y19.726
X24.319 Y19.95
X24.284 Y20.172
X24.241 Y20.393
X24.188 Y20.611
X24.126 Y20.827
X24.054 Y21.04
X23.974 Y21.25
X23.886 Y21.457
X23.788 Y21.659
X23.683 Y21.857
X23.569 Y22.051
X23.447 Y22.24
X23.317 Y22.423
X23.179 Y22.601
X23.035 Y22.773
X22.882 Y22.939
X22.723 Y23.098
X22.558 Y23.251
X22.386 Y23.396
X22.208 Y23.535
X22.024 Y23.665
X21.834 Y23.789
X21.64 Y23.904
X21.44 Y24.011
X21.236 Y24.109
X21.028 Y24.199
X20.816 Y24.281
X20.6 Y24.353
X20.382 Y24.417
X20.16 Y24.471
X19.937 Y24.516
X19.711 Y24.551
X19.484 Y24.577
X19.255 Y24.594
X19.026 Y24.601
X18.797 Y24.598
X18.567 Y24.586
X18.338 Y24.564
X18.11 Y24.532
X17.883 Y24.491
X17.658 Y24.44
X17.435 Y24.38
X17.215 Y24.31
X16.997 Y24.231
X16.783 Y24.143
X16.573 Y24.046
X16.366 Y23.94
X16.164 Y23.825
X15.967 Y23.702
X15.776 Y23.571
X15.589 Y23.431
X15.409 Y23.284
X15.235 Y23.129
X15.067 Y22.967
X14.906 Y22.798
X14.753 Y22.623
X14.607 Y22.441
X14.468 Y22.252
X14.338 Y22.058
X14.215 Y21.859
X14.102 Y21.655
X13.996 Y21.446
X13.9 Y21.232
X13.813 Y21.015
X13.735 Y20.794
X13.666 Y20.57
X13.606 Y20.343
X13.557 Y20.114
X13.516 Y19.883
X13.486 Y19.651
X13.465 Y19.417
X13.455 Y19.182
X13.454 Y18.948
X13.463 Y18.713
X13.482 Y18.479
X13.51 Y18.246
X13.549 Y18.014
X13.597 Y17.784
X13.654 Y17.556
X13.722 Y17.331
X13.798 Y17.109
X13.884 Y16.89
X13.979 Y16.675
X14.084 Y16.465
X14.196 Y16.258
X14.318 Y16.057
X14.447 Y15.861
X14.585 Y15.67
X14.731 Y15.486
X14.885 Y15.308
X15.045 Y15.136
X15.213 Y14.971
X15.388 Y14.814
X15.569 Y14.663
X15.756 Y14.521
X15.949 Y14.387
X16.148 Y14.261
X16.352 Y14.143
X16.56 Y14.034
X16.773 Y13.934
X16.99 Y13.842
X17.211 Y13.76
X17.434 Y13.688
X17.661 Y13.624
X17.891 Y13.571
X18.122 Y13.527
X18.356 Y13.492
X18.59 Y13.468
X18.826 Y13.454
X19.062 Y13.449
X19.299 Y13.454
X19.535 Y13.469
X19.771 Y13.495
X20.006 Y13.53
X20.239 Y13.575
X20.471 Y13.63
X20.7 Y13.694
X20.927 Y13.769
X21.152 Y13.853
X21.372 Y13.946
X21.59 Y14.049
X21.803 Y14.161
X22.011 Y14.283
X22.215 Y14.413
X22.413 Y14.551
X22.606 Y14.699
X22.792 Y14.854
X22.972 Y15.018
X23.145 Y15.189
X23.312 Y15.367
X23.47 Y15.552
X23.621 Y15.744
X23.764 Y15.943
X23.898 Y16.147
X24.024 Y16.356
X24.141 Y16.571
X24.248 Y16.791
X24.346 Y17.015
X24.435 Y17.243
X24.514 Y17.474
X24.584 Y17.708
X24.643 Y17.945
X24.693 Y18.185
X24.732 Y18.425
X24.761 Y18.668
X24.78 Y18.911
X24.788 Y19.154
X24.787 Y19.398
X24.775 Y19.641
X24.753 Y19.883
X24.721 Y20.124
X24.679 Y20.363
X24.626 Y20.6
X24.564 Y20.834
X24.492 Y21.066
X24.411 Y21.295
X24.32 Y21.519
X24.22 Y21.74
X24.11 Y21.956
X23.991 Y22.168
X23.864 Y22.374
X23.728 Y22.575
X23.584 Y22.77
X23.431 Y22.959
X23.271 Y23.142
X23.103 Y23.317
X22.928 Y23.486
X22.746 Y23.647
X22.557 Y23.8
X22.361 Y23.945
X22.16 Y24.082
X21.953 Y24.211
X21.74 Y24.331
X21.522 Y24.442
X21.3 Y24.544
X21.073 Y24.636
X20.843 Y24.719
X20.608 Y24.793
X20.371 Y24.856
X20.131 Y24.91
X19.889 Y24.953
X19.645 Y24.986
X19.399 Y25.009
X19.153 Y25.022
X18.905 Y25.024
X18.658 Y25.016
X18.411 Y24.998
X18.165 Y24.969
X17.92 Y24.93
X17.676 Y24.88
X17.435 Y24.82
X17.196 Y24.75
X16.96 Y24.67
X16.728 Y24.58
X16.499 Y24.481
X16.275 Y24.371
X16.055 Y24.253
X15.84 Y24.125
X15.63 Y23.988
X15.427 Y23.842
X15.229 Y23.688
X15.039 Y23.525
X14.854 Y23.355
X14.678 Y23.177
X14.508 Y22.991
X14.347 Y22.799
X14.194 Y22.599
X14.049 Y22.394
X13.913 Y22.182
X13.786 Y21.965
X13.668 Y21.742
X13.559 Y21.515
X13.461 Y21.283
X13.371 Y21.047
X13.292 Y20.808
X13.223 Y20.565
X13.165 Y20.32
X13.116 Y20.072
X13.078 Y19.823
X13.051 Y19.572
X13.034 Y19.32
X13.027 Y19.067
X13.032 Y18.815
X13.047 Y18.563
X13.072 Y18.311
X13.108 Y18.061
X13.155 Y17.813
X13.211 Y17.566
X13.279 Y17.322
X13.356 Y17.082
X13.444 Y16.844
X13.541 Y16.611
X13.648 Y16.382
X13.765 Y16.157
X13.891 Y15.938
X14.026 Y15.724
X14.17 Y15.516
X14.322 Y15.314
X14.483 Y15.119
X14.652 Y14.931
X14.829 Y14.749
X15.014 Y14.576
X15.205 Y14.41
X15.403 Y14.253
X15.608 Y14.104
X15.819 Y13.964
X16.035 Y13.832
X16.257 Y13.71
X16.484 Y13.598
X16.715 Y13.494
X16.951 Y13.401
X17.19 Y13.318
X17.432 Y13.245
X17.678 Y13.182
X17.926 Y13.129
X18.176 Y13.087
X18.428 Y13.055
X18.682 Y13.034
X18.936 Y13.024
X19.19
X19.445 Y13.035
X19.699 Y13.057
X19.952 Y13.089
X20.204 Y13.132
X20.455 Y13.186
X20.703 Y13.25
X20.949 Y13.325
X21.191 Y13.41
X21.431 Y13.506
X21.666 Y13.611
X21.898 Y13.727
X22.124 Y13.852
X22.346 Y13.987
X22.562 Y14.132
X22.772 Y14.285
X22.975 Y14.448
X23.172 Y14.619
X23.362 Y14.798
X23.544 Y14.986
X23.718 Y15.181
X23.884 Y15.383
X24.042 Y15.593
X24.19 Y15.809
X24.33 Y16.031
X24.46 Y16.258
X24.58 Y16.491
X24.691 Y16.729
X24.791 Y16.972
X24.882 Y17.218
X24.961 Y17.468
X25.03 Y17.721
X25.089 Y17.976
X25.137 Y18.234
X25.173 Y18.493
X25.199 Y18.754
X25.214 Y19.015
X25.218 Y19.276
X25.211 Y19.538
X25.192 Y19.798
X25.163 Y20.058
X25.123 Y20.316
X25.073 Y20.572
X25.011 Y20.825
X24.939 Y21.076
X24.857 Y21.323
X24.764 Y21.567
X24.662 Y21.806
X24.549 Y22.041
X24.426 Y22.271
X24.294 Y22.496
X24.153 Y22.715
X24.002 Y22.928
X23.843 Y23.134
X23.674 Y23.334
X23.498 Y23.526
X23.314 Y23.711
X23.122 Y23.888
X22.922 Y24.057
X22.716 Y24.217
X22.503 Y24.369
X22.283 Y24.512
X22.057 Y24.646
X21.826 Y24.77
X21.59 Y24.884
X21.349 Y24.989
X21.103 Y25.083
X20.854 Y25.167
X20.6 Y25.241
X20.344 Y25.303
X20.085 Y25.356
X19.824 Y25.397
X19.561 Y25.427
X19.297 Y25.446
X19.032 Y25.454
X18.767 Y25.451
X18.502 Y25.437
X18.237 Y25.412
X17.973 Y25.375
X17.711 Y25.327
X17.451 Y25.269
X17.194 Y25.199
X16.939 Y25.119
X16.688 Y25.028
X16.441 Y24.926
X16.197 Y24.814
X15.959 Y24.692
X15.726 Y24.56
X15.498 Y24.418
X15.277 Y24.266
X15.062 Y24.105
X14.854 Y23.936
X14.653 Y23.757
X14.459 Y23.57
X14.274 Y23.375
X14.096 Y23.173
X13.928 Y22.963
X13.768 Y22.746
X13.617 Y22.522
X13.476 Y22.292
X13.345 Y22.056
X13.223 Y21.815
X13.112 Y21.569
X13.011 Y21.319
X12.921 Y21.064
X12.842 Y20.806
X12.773 Y20.544
X12.716 Y20.28
X12.669 Y20.013
X12.634 Y19.745
X12.61 Y19.476
X12.598 Y19.205
X12.596 Y18.935
X12.607 Y18.664
X12.628 Y18.394
X12.661 Y18.125
X12.705 Y17.858
X12.761 Y17.593
X12.827 Y17.33
X12.905 Y17.07
X12.993 Y16.814
X13.092 Y16.562
X13.202 Y16.314
X13.322 Y16.071
X13.452 Y15.833
X13.591 Y15.601
X13.741 Y15.374
X13.9 Y15.155
X14.068 Y14.942
X14.245 Y14.736
X14.43 Y14.538
X14.624 Y14.348
X14.825 Y14.166
X15.034 Y13.993
X15.25 Y13.829
X15.472 Y13.674
X15.701 Y13.528
X15.936 Y13.392
X16.177 Y13.266
X16.422 Y13.151
X16.672 Y13.045
X16.927 Y12.951
X17.185 Y12.867
X17.447 Y12.794
X17.712 Y12.732
X17.979 Y12.681
X18.248 Y12.641
X18.519 Y12.613
X18.791 Y12.596
X19.064 Y12.59
X19.337 Y12.596
X19.609 Y12.614
X19.881 Y12.643
X20.152 Y12.683
X20.422 Y12.735
X20.689 Y12.798
X20.954 Y12.873
X21.215 Y12.958
X21.474 Y13.055
X21.728 Y13.163
X21.978 Y13.281
X22.223 Y13.41
X22.463 Y13.549
X22.697 Y13.699
X22.925 Y13.858
X23.146 Y14.027
X23.36 Y14.206
X23.567 Y14.393
X23.766 Y14.589
X23.957 Y14.794
X24.139 Y15.006
X24.312 Y15.226
X24.475 Y15.453
X24.63 Y15.688
X24.774 Y15.928
X24.908 Y16.174
X25.031 Y16.426
X25.144 Y16.683
X25.246 Y16.944
X25.337 Y17.209
X25.416 Y17.478
X25.485 Y17.75
X25.541 Y18.024
X25.587 Y18.301
X25.62 Y18.579
X25.642 Y18.858
X25.652 Y19.137
X25.65 Y19.417
X25.637 Y19.696
X25.611 Y19.974
X25.575 Y20.251
X25.526 Y20.526
X25.466 Y20.799
X25.395 Y21.069
X25.312 Y21.336
X25.219 Y21.598
X25.114 Y21.857
X24.999 Y22.111
X24.873 Y22.36
X24.736 Y22.603
X24.59 Y22.841
X24.434 Y23.072
X24.268 Y23.296
X24.092 Y23.514
X23.908 Y23.724
X23.715 Y23.926
X23.514 Y24.12
X23.304 Y24.305
X23.087 Y24.481
X22.862 Y24.649
X22.631 Y24.806
X22.392 Y24.954
X22.148 Y25.092
X21.898 Y25.22
X21.642 Y25.337
X21.382 Y25.444
X21.117 Y25.539
X20.848 Y25.623
X20.576 Y25.696
X20.3 Y25.758
X20.022 Y25.808
X19.742 Y25.846
X19.46 Y25.872
X19.177 Y25.887
X18.894 Y25.89
X18.61 Y25.881
X18.327 Y25.86
X18.045 Y25.826
X17.764 Y25.782
X17.485 Y25.725
X17.208 Y25.656
X16.934 Y25.576
X16.664 Y25.485
X16.398 Y25.382
X16.136 Y25.268
X15.878 Y25.143
X15.626 Y25.007
X15.38 Y24.86
X15.14 Y24.704
X14.907 Y24.537
X14.681 Y24.36
X14.462 Y24.174
X14.252 Y23.979
X14.049 Y23.775
X13.855 Y23.563
X13.67 Y23.343
X13.495 Y23.114
X13.329 Y22.879
X13.173 Y22.637
X13.028 Y22.388
X12.893 Y22.134
X12.768 Y21.874
X12.655 Y21.608
X12.553 Y21.338
X12.462 Y21.065
X12.383 Y20.787
X12.316 Y20.506
X12.26 Y20.223
X12.217 Y19.937
X12.185 Y19.65
X12.166 Y19.362
X12.158 Y19.073
X12.163 Y18.784
X12.18 Y18.495
X12.209 Y18.207
X12.25 Y17.921
X12.303 Y17.637
X12.368 Y17.355
X12.445 Y17.076
X12.534 Y16.8
X12.634 Y16.529
X12.745 Y16.261
X12.867 Y15.999
X13.001 Y15.742
X13.145 Y15.491
X13.299 Y15.246
X13.464 Y15.008
X13.639 Y14.777
X13.823 Y14.554
X14.016 Y14.338
X14.218 Y14.131
X14.429 Y13.932
X14.648 Y13.742
X14.875 Y13.562
X15.109 Y13.392
X15.35 Y13.231
X15.598 Y13.081
X15.852 Y12.941
X16.111 Y12.812
X16.376 Y12.694
X16.646 Y12.587
X16.919 Y12.491
X17.197 Y12.407
X17.478 Y12.335
X17.762 Y12.275
X18.049 Y12.226
X18.337 Y12.19
X18.627 Y12.166
X18.918 Y12.154
X19.21
X19.501 Y12.167
X19.792 Y12.191
X20.082 Y12.228
X20.37 Y12.277
X20.657 Y12.339
X20.941 Y12.412
X21.222 Y12.498
X21.499 Y12.595
X21.773 Y12.704
X22.042 Y12.824
X22.306 Y12.956
X22.565 Y13.099
X22.818 Y13.253
X23.064 Y13.418
X23.303 Y13.593
X23.536 Y13.778
X23.76 Y13.973
X23.976 Y14.177
X24.184 Y14.391
X24.382 Y14.613
X24.572 Y14.843
X24.751 Y15.082
X24.92 Y15.328
X25.079 Y15.58
X25.228 Y15.84
X25.365 Y16.105
X25.491 Y16.376
X25.605 Y16.652
X25.708 Y16.932
X25.799 Y17.217
X25.878 Y17.505
X25.945 Y17.796
X25.999 Y18.09
X26.041 Y18.385
X26.071 Y18.682
X26.088 Y18.98
X26.092 Y19.278
X26.084 Y19.576
X26.063 Y19.873
X26.03 Y20.169
X25.985 Y20.464
X25.927 Y20.756
X25.857 Y21.045
X25.775 Y21.331
X25.681 Y21.613
X25.576 Y21.892
X25.458 Y22.165
X25.33 Y22.433
X25.19 Y22.696
X25.039 Y22.952
X24.878 Y23.202
X24.706 Y23.445
X24.524 Y23.681
X24.332 Y23.909
X24.131 Y24.129
X23.921 Y24.34
X23.702 Y24.542
X23.474 Y24.735
X23.238 Y24.918
X22.995 Y25.092
X22.745 Y25.255
X22.488 Y25.407
X22.224 Y25.549
X21.954 Y25.679
X21.679 Y25.799
X21.4 Y25.906
X21.115 Y26.002
X20.827 Y26.086
X20.535 Y26.158
X20.24 Y26.217
X19.942 Y26.264
X19.643 Y26.299
X19.342 Y26.321
X19.04 Y26.33
X18.738 Y26.327
X18.436 Y26.311
X18.135 Y26.282
X17.835 Y26.24
X17.537 Y26.186
X17.241 Y26.12
X16.948 Y26.041
X16.658 Y25.949
X16.372 Y25.846
X16.091 Y25.73
X15.814 Y25.603
X15.543 Y25.464
X15.278 Y25.314
X15.019 Y25.153
X14.767 Y24.98
X14.522 Y24.798
X14.286 Y24.605
X14.057 Y24.402
X13.837 Y24.189
X13.626 Y23.968
X13.424 Y23.738
X13.232 Y23.499
X13.051 Y23.252
X12.879 Y22.998
X12.719 Y22.737
X12.57 Y22.469
X12.431 Y22.195
X12.305 Y21.916
X12.19 Y21.631
X12.088 Y21.342
X11.997 Y21.048
X11.919 Y20.751
X11.854 Y20.451
X11.801 Y20.148
X11.761 Y19.843
X11.734 Y19.537
X11.719 Y19.23
X11.718 Y18.922
X11.729 Y18.615
X11.754 Y18.308
X11.791 Y18.002
X11.841 Y17.699
X11.904 Y17.397
X11.979 Y17.099
X12.067 Y16.804
X12.168 Y16.513
X12.28 Y16.226
X12.404 Y15.944
X12.54 Y15.668
X12.688 Y15.397
X12.847 Y15.134
X13.017 Y14.876
X13.197 Y14.627
X13.388 Y14.385
X13.589 Y14.151
X13.799 Y13.926
X14.019 Y13.71
X14.248 Y13.503
X14.485 Y13.306
X14.73 Y13.12
X14.983 Y12.943
X15.243 Y12.778
X15.51 Y12.623
X15.783 Y12.48
X16.062 Y12.349
X16.346 Y12.229
X16.636 Y12.121
X16.929 Y12.026
X17.227 Y11.942
X17.527 Y11.872
X17.831 Y11.814
X18.137 Y11.769
X18.445 Y11.736
X18.754 Y11.717
X19.064 Y11.711
X19.374 Y11.717
X19.684 Y11.737
X19.993 Y11.77
X20.301 Y11.816
X20.606 Y11.875
X20.91 Y11.946
X21.21 Y12.03
X21.507 Y12.128
X21.8 Y12.237
X22.089 Y12.359
X22.372 Y12.493
X22.65 Y12.639
X22.922 Y12.797
X23.188 Y12.966
X23.446 Y13.147
X23.696 Y13.338
X23.939 Y13.54
X24.173 Y13.752
X24.398 Y13.974
X24.614 Y14.205
X24.82 Y14.446
X25.016 Y14.695
X25.201 Y14.952
X25.376 Y15.217
X25.539 Y15.489
X25.691 Y15.767
X25.831 Y16.052
X25.958 Y16.342
X26.074 Y16.638
X26.177 Y16.938
X26.267 Y17.242
X26.344 Y17.55
X26.409 Y17.86
X26.46 Y18.173
X26.498 Y18.488
X26.523 Y18.804
X26.534 Y19.121
X26.532 Y19.437
X26.517 Y19.754
X26.489 Y20.069
X26.447 Y20.382
X26.393 Y20.694
X26.325 Y21.003
X26.244 Y21.309
X26.151 Y21.611
X26.045 Y21.909
X25.926 Y22.202
X25.795 Y22.49
X25.653 Y22.772
X25.498 Y23.048
X25.333 Y23.317
X25.155 Y23.579
X24.968 Y23.834
X24.769 Y24.08
X24.56 Y24.318
X24.342 Y24.547
X24.113 Y24.767
X23.876 Y24.977
X23.63 Y25.177
X23.376 Y25.367
X23.113 Y25.545
X22.844 Y25.713
X22.567 Y25.869
X22.284 Y26.014
X21.994 Y26.147
X21.7 Y26.267
X21.4 Y26.376
X21.096 Y26.471
X20.787 Y26.554
X20.476 Y26.624
X20.161 Y26.68
X19.844 Y26.724
X19.525 Y26.754
X19.205 Y26.77
X18.885 Y26.774
X18.564 Y26.763
X18.244 Y26.74
X17.924 Y26.702
X17.607 Y26.652
X17.291 Y26.588
X16.979 Y26.51
X16.669 Y26.42
X16.364 Y26.317
X16.063 Y26.201
X15.766 Y26.072
X15.476 Y25.931
X15.191 Y25.777
X14.913 Y25.612
X14.642 Y25.435
X14.378 Y25.247
X14.123 Y25.047
X13.876 Y24.837
X13.638 Y24.617
X13.409 Y24.387
X13.19 Y24.147
X12.981 Y23.898
X12.783 Y23.641
X12.596 Y23.375
X12.42 Y23.102
X12.255 Y22.821
X12.103 Y22.534
X11.962 Y22.24
X11.834 Y21.941
X11.719 Y21.636
X11.616 Y21.327
X11.527 Y21.014
X11.451 Y20.697
X11.388 Y20.377
X11.339 Y20.055
X11.303 Y19.731
X11.281 Y19.405
X11.272 Y19.079
X11.278 Y18.753
X11.297 Y18.427
X11.329 Y18.102
X11.376 Y17.779
X11.435 Y17.458
X11.509 Y17.14
X11.595 Y16.825
X11.695 Y16.514
X11.808 Y16.208
X11.933 Y15.906
X12.071 Y15.61
X12.222 Y15.32
X12.384 Y15.036
X12.559 Y14.76
X12.744 Y14.491
X12.941 Y14.23
X13.149 Y13.978
X13.367 Y13.735
X13.595 Y13.501
X13.833 Y13.276
X14.08 Y13.062
X14.336 Y12.859
X14.6 Y12.666
X14.872 Y12.485
X15.152 Y12.315
X15.438 Y12.157
X15.731 Y12.011
X16.03 Y11.878
X16.334 Y11.757
X16.643 Y11.649
X16.957 Y11.554
X17.274 Y11.473
X17.595 Y11.404
X17.918 Y11.35
X18.244 Y11.308
X18.571 Y11.281
X18.899 Y11.267
X19.228
X19.557 Y11.281
X19.885 Y11.309
X20.212 Y11.351
X20.538 Y11.406
X20.861 Y11.475
X21.181 Y11.558
X21.498 Y11.654
X21.811 Y11.763
X22.119 Y11.886
X22.422 Y12.022
X22.72 Y12.17
X23.011 Y12.331
X23.296 Y12.504
X23.573 Y12.69
X23.843 Y12.887
X24.104 Y13.095
X24.357 Y13.314
X24.6 Y13.544
X24.834 Y13.784
X25.057 Y14.034
X25.27 Y14.293
X25.472 Y14.561
X25.662 Y14.837
X25.841 Y15.121
X26.008 Y15.413
X26.162 Y15.711
X26.304 Y16.016
X26.433 Y16.326
X26.549 Y16.641
X26.651 Y16.961
X26.74 Y17.285
X26.815 Y17.613
X26.876 Y17.943
X26.924 Y18.275
X26.957 Y18.609
X26.976 Y18.944
X26.981 Y19.28
X26.973 Y19.615
X26.95 Y19.95
X26.913 Y20.283
X26.862 Y20.614
X26.797 Y20.943
X26.718 Y21.269
X26.626 Y21.591
X26.52 Y21.909
X26.401 Y22.222
X26.269 Y22.53
X26.125 Y22.832
X25.967 Y23.128
X25.798 Y23.416
X25.616 Y23.698
X25.423 Y23.972
X25.218 Y24.237
X25.002 Y24.494
X24.776 Y24.741
X24.539 Y24.979
X24.292 Y25.207
X24.036 Y25.424
X23.771 Y25.631
X23.498 Y25.826
X23.216 Y26.009
X22.926 Y26.181
X22.63 Y26.341
X22.327 Y26.488
X22.017 Y26.622
X21.702 Y26.743
X21.383 Y26.851
X21.058 Y26.945
X20.73 Y27.026
X20.398 Y27.093
X20.064 Y27.146
X19.727 Y27.185
X19.389 Y27.21
X19.05 Y27.221
X18.71 Y27.217
X18.371 Y27.199
X18.032 Y27.167
X17.695 Y27.12
X17.36 Y27.06
X17.028 Y26.985
X16.699 Y26.896
X16.373 Y26.794
X16.052 Y26.678
X15.736 Y26.548
X15.425 Y26.405
X15.121 Y26.25
X14.823 Y26.081
X14.532 Y25.9
X14.25 Y25.707
X13.975 Y25.502
X13.709 Y25.285
X13.452 Y25.058
X13.205 Y24.819
X12.968 Y24.571
X12.742 Y24.313
X12.527 Y24.045
X12.322 Y23.768
X12.13 Y23.483
X11.95 Y23.19
X11.782 Y22.889
X11.627 Y22.582
X11.485 Y22.268
X11.356 Y21.949
X11.241 Y21.624
X11.139 Y21.295
X11.052 Y20.962
X10.978 Y20.625
X10.919 Y20.285
X10.874 Y19.943
X10.843 Y19.6
X10.827 Y19.255
X10.825 Y18.91
X10.838 Y18.565
X10.865 Y18.221
X10.907 Y17.878
X10.963 Y17.537
X11.033 Y17.199
X11.118 Y16.865
X11.216 Y16.533
X11.329 Y16.207
X11.455 Y15.885
X11.594 Y15.569
X11.746 Y15.259
X11.912 Y14.956
X12.09 Y14.659
X12.28 Y14.371
X12.483 Y14.091
X12.697 Y13.819
X12.922 Y13.557
X13.158 Y13.305
X13.404 Y13.062
X13.661 Y12.83
X13.927 Y12.609
X14.202 Y12.4
X14.485 Y12.202
X14.777 Y12.016
X15.076 Y11.842
X15.383 Y11.682
X15.696 Y11.534
X16.015 Y11.399
X16.339 Y11.278
X16.669 Y11.171
X17.002 Y11.078
X17.34 Y10.998
X17.68 Y10.933
X18.024 Y10.882
X18.369 Y10.846
X18.716 Y10.824
X19.063 Y10.817
X19.411 Y10.824
X19.759 Y10.846
X20.105 Y10.883
X20.45 Y10.934
X20.793 Y11
X21.133 Y11.08
X21.47 Y11.175
X21.803 Y11.283
X22.131 Y11.406
X22.455 Y11.542
X22.772 Y11.692
X23.083 Y11.856
X23.388 Y12.032
X23.685 Y12.222
X23.974 Y12.424
X24.254 Y12.638
X24.526 Y12.863
X24.788 Y13.101
X25.04 Y13.349
X25.281 Y13.607
X25.512 Y13.876
X25.731 Y14.154
X25.938 Y14.442
X26.134 Y14.738
X26.316 Y15.042
X26.486 Y15.353
X26.642 Y15.672
X26.785 Y15.996
X26.915 Y16.327
X27.03 Y16.662
X27.131 Y17.002
X27.217 Y17.346
X27.29 Y17.694
X27.347 Y18.043
X27.39 Y18.395
X27.418 Y18.749
X27.43 Y19.103
X27.429 Y19.457
X27.412 Y19.811
X27.38 Y20.164
X27.334 Y20.515
X27.273 Y20.864
X27.197 Y21.21
X27.107 Y21.552
X27.002 Y21.89
X26.884 Y22.224
X26.751 Y22.552
X26.605 Y22.874
X26.445 Y23.19
X26.273 Y23.499
X26.087 Y23.801
X25.889 Y24.094
X25.679 Y24.379
X25.457 Y24.655
X25.223 Y24.922
X24.978 Y25.178
X24.723 Y25.424
X24.457 Y25.659
X24.182 Y25.883
X23.897 Y26.095
X23.604 Y26.296
X23.302 Y26.483
X22.993 Y26.658
X22.676 Y26.82
X22.353 Y26.969
X22.023 Y27.104
X21.688 Y27.225
X21.347 Y27.332
X21.003 Y27.425
X20.654 Y27.503
X20.302 Y27.566
X19.948 Y27.615
X19.592 Y27.649
X19.234 Y27.667
X18.876 Y27.671
X18.517 Y27.66
X18.159 Y27.633
X17.803 Y27.592
X17.448 Y27.535
X17.095 Y27.464
X16.746 Y27.378
X16.4 Y27.277
X16.059 Y27.162
X15.723 Y27.032
X15.392 Y26.889
X15.067 Y26.731
X14.75 Y26.56
X14.439 Y26.375
X14.136 Y26.178
X13.842 Y25.968
X13.557 Y25.745
X13.281 Y25.511
X13.015 Y25.265
X12.759 Y25.008
X12.515 Y24.741
X12.282 Y24.463
X12.06 Y24.176
X11.851 Y23.88
X11.655 Y23.575
X11.471 Y23.262
X11.3 Y22.941
X11.144 Y22.613
X11.001 Y22.279
X10.872 Y21.94
X10.757 Y21.594
X10.657 Y21.245
X10.572 Y20.891
X10.502 Y20.534
X10.447 Y20.175
X10.407 Y19.813
X10.382 Y19.45
X10.373 Y19.086
X10.378 Y18.722
X10.399 Y18.359
X10.436 Y17.996
X10.487 Y17.636
X10.554 Y17.277
X10.635 Y16.922
X10.732 Y16.571
X10.843 Y16.224
X10.969 Y15.882
X11.109 Y15.545
X11.263 Y15.215
X11.43 Y14.891
X11.611 Y14.575
X11.806 Y14.267
X12.013 Y13.967
X12.233 Y13.676
X12.464 Y13.394
X12.707 Y13.122
X12.962 Y12.861
X13.227 Y12.611
X13.503 Y12.372
X13.788 Y12.145
X14.083 Y11.929
X14.386 Y11.727
X14.698 Y11.537
X15.018 Y11.361
X15.344 Y11.198
X15.678 Y11.049
X16.017 Y10.914
X16.362 Y10.794
X16.712 Y10.688
X17.066 Y10.597
X17.424 Y10.52
X17.785 Y10.459
X18.148 Y10.413
X18.513 Y10.382
X18.879 Y10.367
X19.246
X19.613 Y10.382
X19.979 Y10.413
X20.344 Y10.459
X20.707 Y10.521
X21.067 Y10.598
X21.424 Y10.69
X21.777 Y10.797
X22.126 Y10.919
X22.469 Y11.055
X22.807 Y11.206
X23.139 Y11.372
X23.463 Y11.551
X23.78 Y11.744
X24.089 Y11.95
X24.39 Y12.169
X24.681 Y12.4
X24.962 Y12.644
X25.233 Y12.9
X25.493 Y13.167
X25.742 Y13.445
X25.979 Y13.733
X26.203 Y14.031
X26.415 Y14.338
X26.615 Y14.654
X26.8 Y14.979
X26.972 Y15.31
X27.13 Y15.649
X27.273 Y15.994
X27.402 Y16.345
X27.516 Y16.701
X27.615 Y17.061
X27.699 Y17.426
X27.767 Y17.793
X27.82 Y18.163
X27.857 Y18.535
X27.879 Y18.907
X27.885 Y19.281
X27.875 Y19.654
X27.85 Y20.026
X27.808 Y20.397
X27.752 Y20.766
X27.68 Y21.132
X27.592 Y21.495
X27.49 Y21.854
X27.372 Y22.208
X27.24 Y22.557
X27.093 Y22.9
X26.932 Y23.236
X26.757 Y23.565
X26.568 Y23.887
X26.366 Y24.201
X26.151 Y24.506
X25.923 Y24.802
X25.683 Y25.087
X25.431 Y25.363
X25.167 Y25.628
X24.893 Y25.882
X24.608 Y26.124
X24.313 Y26.354
X24.008 Y26.571
X23.695 Y26.776
X23.373 Y26.967
X23.043 Y27.144
X22.705 Y27.308
X22.361 Y27.458
X22.011 Y27.593
X21.655 Y27.713
X21.294 Y27.818
X20.929 Y27.908
X20.56 Y27.983
X20.188 Y28.042
X19.814 Y28.086
X19.438 Y28.113
X19.06 Y28.125
X18.683 Y28.121
X18.305 Y28.101
X17.929 Y28.066
X17.554 Y28.014
X17.182 Y27.947
X16.812 Y27.864
X16.446 Y27.766
X16.085 Y27.652
X15.728 Y27.523
X15.376 Y27.379
X15.031 Y27.221
X14.693 Y27.048
X14.362 Y26.86
X14.039 Y26.659
X13.725 Y26.445
X13.419 Y26.217
X13.124 Y25.977
X12.839 Y25.724
X12.564 Y25.46
X12.301 Y25.184
X12.049 Y24.897
X11.81 Y24.6
X11.583 Y24.292
X11.37 Y23.976
X11.169 Y23.65
X10.983 Y23.317
X10.81 Y22.976
X10.653 Y22.627
X10.509 Y22.273
X10.381 Y21.912
X10.268 Y21.547
X10.171 Y21.176
X10.089 Y20.802
X10.023 Y20.425
X9.973 Y20.046
X9.939 Y19.664
X9.92 Y19.281
X9.918 Y18.898
X9.932 Y18.515
X9.962 Y18.133
X10.009 Y17.753
X10.071 Y17.374
X10.149 Y16.999
X10.242 Y16.627
X10.352 Y16.26
X10.476 Y15.897
X10.616 Y15.54
X10.771 Y15.189
X10.94 Y14.844
X11.123 Y14.507
X11.321 Y14.179
X11.532 Y13.858
X11.757 Y13.547
X11.994 Y13.246
X12.244 Y12.954
X12.506 Y12.674
X12.78 Y12.404
X13.064 Y12.147
X13.359 Y11.901
X13.665 Y11.669
X13.979 Y11.449
X14.303 Y11.242
X14.636 Y11.05
X14.976 Y10.871
X15.323 Y10.707
X15.677 Y10.557
X16.038 Y10.423
X16.403 Y10.303
X16.774 Y10.2
X17.148 Y10.111
X17.527 Y10.039
X17.908 Y9.982
X18.291 Y9.942
X18.676 Y9.918
X19.062 Y9.909
X19.448 Y9.917
X19.834 Y9.942
X20.218 Y9.982
X20.601 Y10.039
X20.982 Y10.112
X21.359 Y10.2
X21.733 Y10.305
X22.102 Y10.425
X22.467 Y10.561
X22.825 Y10.712
X23.177 Y10.879
X23.522 Y11.06
X23.86 Y11.255
X24.189 Y11.465
X24.509 Y11.689
X24.82 Y11.926
X25.121 Y12.176
X25.412 Y12.438
X25.691 Y12.713
X25.958 Y12.999
X26.214 Y13.297
X26.457 Y13.605
X26.686 Y13.923
X26.903 Y14.251
X27.105 Y14.587
X27.293 Y14.932
X27.466 Y15.285
X27.625 Y15.644
X27.768 Y16.01
X27.896 Y16.381
X28.008 Y16.758
X28.104 Y17.139
X28.184 Y17.524
X28.248 Y17.911
X28.295 Y18.301
X28.326 Y18.692
X28.341 Y19.085
X28.339 Y19.477
X28.32 Y19.87
X28.285 Y20.26
X28.234 Y20.649
X28.166 Y21.036
X28.083 Y21.419
X27.983 Y21.799
X27.867 Y22.174
X27.736 Y22.543
X27.589 Y22.907
X27.427 Y23.264
X27.251 Y23.615
X27.059 Y23.957
X26.854 Y24.291
X26.634 Y24.617
X26.401 Y24.933
X26.155 Y25.238
X25.896 Y25.534
X25.625 Y25.818
X25.343 Y26.091
X25.048 Y26.352
X24.743 Y26.6
X24.428 Y26.835
X24.103 Y27.057
X23.769 Y27.265
X23.426 Y27.459
X23.075 Y27.639
X22.717 Y27.804
X22.352 Y27.953
X21.981 Y28.088
X21.604 Y28.206
X21.222 Y28.309
X20.836 Y28.396
X20.447 Y28.466
X20.055 Y28.52
X19.66 Y28.558
X19.264 Y28.579
X18.868 Y28.583
X18.471 Y28.57
X18.075 Y28.541
X17.68 Y28.496
X17.287 Y28.433
X16.897 Y28.354
X16.511 Y28.259
X16.128 Y28.148
X15.751 Y28.02
X15.378 Y27.877
X15.013 Y27.718
X14.653 Y27.544
X14.302 Y27.355
X13.958 Y27.151
X13.623 Y26.933
X13.298 Y26.701
X12.982 Y26.455
X12.677 Y26.196
X12.383 Y25.924
X12.1 Y25.64
X11.83 Y25.345
X11.572 Y25.038
X11.327 Y24.72
X11.095 Y24.393
X10.878 Y24.056
X10.675 Y23.709
X10.486 Y23.355
X10.313 Y22.993
X10.154 Y22.624
X10.012 Y22.248
X9.885 Y21.867
X9.775 Y21.48
X9.68 Y21.089
X9.602 Y20.695
X9.541 Y20.297
X9.497 Y19.898
X9.469 Y19.496
X9.459 Y19.094
X9.465 Y18.691
X9.488 Y18.29
X9.528 Y17.889
X9.585 Y17.49
X9.658 Y17.095
X9.748 Y16.702
X9.855 Y16.314
X9.978 Y15.93
X10.116 Y15.552
X10.271 Y15.18
X10.441 Y14.815
X10.626 Y14.457
X10.826 Y14.107
X11.041 Y13.766
X11.27 Y13.434
X11.512 Y13.113
X11.768 Y12.801
X12.037 Y12.501
X12.318 Y12.212
X12.611 Y11.935
X12.916 Y11.671
X13.231 Y11.42
X13.557 Y11.182
X13.892 Y10.958
X14.237 Y10.748
X14.59 Y10.553
X14.951 Y10.373
X15.32 Y10.208
X15.695 Y10.059
X16.076 Y9.925
X16.463 Y9.808
X16.854 Y9.707
X17.25 Y9.623
X17.648 Y9.555
X18.05 Y9.504
X18.453 Y9.47
X18.858 Y9.452
X19.264
X19.669 Y9.469
X20.074 Y9.503
X20.477 Y9.554
X20.878 Y9.622
X21.276 Y9.707
X21.67 Y9.808
X22.06 Y9.926
X22.445 Y10.061
X22.825 Y10.211
X23.198 Y10.378
X23.564 Y10.56
X23.922 Y10.758
X24.272 Y10.97
X24.613 Y11.198
X24.945 Y11.439
X25.266 Y11.695
X25.576 Y11.964
X25.875 Y12.246
X26.162 Y12.54
X26.436 Y12.846
X26.698 Y13.164
X26.946 Y13.492
X27.18 Y13.831
X27.399 Y14.18
X27.604 Y14.537
X27.794 Y14.903
X27.968 Y15.276
X28.127 Y15.657
X28.269 Y16.044
X28.395 Y16.436
X28.504 Y16.834
X28.596 Y17.235
X28.672 Y17.64
X28.73 Y18.048
X28.772 Y18.458
X28.796 Y18.87
X28.802 Y19.281
X28.792 Y19.693
X28.764 Y20.104
X28.718 Y20.513
X28.656 Y20.92
X28.577 Y21.324
X28.481 Y21.725
X28.368 Y22.121
X28.238 Y22.511
X28.092 Y22.896
X27.93 Y23.275
X27.753 Y23.646
X27.56 Y24.01
X27.351 Y24.365
X27.128 Y24.711
X26.891 Y25.048
X26.64 Y25.374
X26.375 Y25.69
X26.097 Y25.994
X25.806 Y26.287
X25.503 Y26.567
X25.189 Y26.834
X24.864 Y27.088
X24.528 Y27.328
X24.182 Y27.553
X23.826 Y27.765
X23.462 Y27.961
X23.09 Y28.141
X22.711 Y28.306
X22.325 Y28.455
X21.932 Y28.588
X21.534 Y28.704
X21.132 Y28.804
X20.725 Y28.886
X20.315 Y28.952
X19.902 Y29
X19.488 Y29.031
X19.072 Y29.044
X18.656 Y29.04
X18.24 Y29.018
X17.825 Y28.979
X17.412 Y28.922
X17.001 Y28.848
X16.594 Y28.757
X16.191 Y28.649
X15.792 Y28.524
X15.399 Y28.382
X15.012 Y28.224
X14.632 Y28.049
X14.259 Y27.859
X13.894 Y27.652
X13.538 Y27.431
X13.192 Y27.195
X12.856 Y26.944
X12.53 Y26.68
X12.216 Y26.402
X11.914 Y26.11
X11.624 Y25.807
X11.346 Y25.491
X11.083 Y25.164
X10.833 Y24.825
X10.598 Y24.477
X10.377 Y24.119
X10.171 Y23.751
X9.982 Y23.376
X9.808 Y22.992
X9.65 Y22.602
X9.509 Y22.205
X9.384 Y21.803
X9.277 Y21.395
X9.186 Y20.983
X9.113 Y20.568
X9.058 Y20.15
X9.02 Y19.73
X9 Y19.309
X8.998 Y18.887
X9.013 Y18.466
X9.046 Y18.045
X9.097 Y17.626
X9.165 Y17.21
X9.25 Y16.796
X9.353 Y16.387
X9.473 Y15.982
X9.61 Y15.583
X9.764 Y15.189
X9.934 Y14.803
X10.12 Y14.424
X10.322 Y14.053
X10.54 Y13.691
X10.772 Y13.338
X11.019 Y12.995
X11.28 Y12.663
X11.555 Y12.343
X11.844 Y12.034
X12.145 Y11.737
X12.458 Y11.453
X12.783 Y11.183
X13.119 Y10.927
X13.465 Y10.684
X13.822 Y10.457
X14.187 Y10.245
X14.562 Y10.048
X14.944 Y9.867
X15.334 Y9.702
X15.731 Y9.554
X16.133 Y9.423
X16.541 Y9.308
X16.953 Y9.211
X17.37 Y9.131
X17.789 Y9.069
X18.211 Y9.024
X18.635 Y8.997
X19.06 Y8.988
X19.485 Y8.996
X19.909 Y9.023
X20.332 Y9.067
X20.754 Y9.13
X21.172 Y9.209
X21.588 Y9.307
X21.999 Y9.422
X22.405 Y9.554
X22.806 Y9.703
X23.2 Y9.869
X23.587 Y10.052
X23.967 Y10.251
X24.338 Y10.466
X24.7 Y10.696
X25.052 Y10.942
X25.394 Y11.202
X25.725 Y11.477
X26.044 Y11.765
X26.351 Y12.067
X26.645 Y12.382
X26.925 Y12.708
X27.192 Y13.047
X27.445 Y13.396
X27.682 Y13.756
X27.905 Y14.125
X28.112 Y14.504
X28.302 Y14.891
X28.476 Y15.286
X28.634 Y15.688
X28.774 Y16.096
X28.898 Y16.51
X29.003 Y16.928
X29.091 Y17.351
X29.162 Y17.776
X29.214 Y18.205
X29.248 Y18.635
X29.264 Y19.066
X29.262 Y19.497
X29.242 Y19.928
X29.204 Y20.358
X29.148 Y20.785
X29.074 Y21.21
X28.982 Y21.631
X28.872 Y22.048
X28.745 Y22.46
X28.601 Y22.867
X28.44 Y23.267
X28.262 Y23.66
X28.068 Y24.045
X27.858 Y24.421
X27.632 Y24.789
X27.391 Y25.146
X27.135 Y25.494
X26.865 Y25.83
X26.581 Y26.155
X26.283 Y26.467
X25.972 Y26.767
X25.649 Y27.054
X25.314 Y27.327
X24.967 Y27.585
X24.61 Y27.829
X24.243 Y28.058
X23.867 Y28.272
X23.481 Y28.469
X23.088 Y28.65
X22.687 Y28.815
X22.279 Y28.962
X21.865 Y29.093
X21.446 Y29.206
X21.022 Y29.301
X20.595 Y29.379
X20.164 Y29.438
X19.731 Y29.48
X19.296 Y29.503
X18.861 Y29.508
X18.425 Y29.494
X17.99 Y29.462
X17.557 Y29.412
X17.126 Y29.344
X16.698 Y29.258
X16.273 Y29.153
X15.853 Y29.031
X15.439 Y28.892
X15.031 Y28.735
X14.629 Y28.56
X14.235 Y28.369
X13.849 Y28.162
X13.472 Y27.938
X13.104 Y27.699
X12.747 Y27.444
X12.4 Y27.175
X12.065 Y26.891
X11.743 Y26.593
X11.433 Y26.282
X11.136 Y25.957
X10.853 Y25.621
X10.584 Y25.273
X10.33 Y24.913
X10.091 Y24.544
X9.868 Y24.164
X9.661 Y23.776
X9.471 Y23.378
X9.297 Y22.973
X9.141 Y22.562
X9.001 Y22.143
X8.88 Y21.72
X8.776 Y21.291
X8.691 Y20.858
X8.624 Y20.422
X8.575 Y19.984
X8.544 Y19.544
X8.532 Y19.103
X8.539 Y18.661
X8.564 Y18.221
X8.608 Y17.781
X8.67 Y17.344
X8.751 Y16.91
X8.849 Y16.48
X8.966 Y16.054
X9.1 Y15.633
X9.252 Y15.218
X9.422 Y14.81
X9.608 Y14.41
X9.811 Y14.017
X10.03 Y13.634
X10.265 Y13.259
X10.516 Y12.896
X10.782 Y12.543
X11.063 Y12.201
X11.357 Y11.871
X11.665 Y11.555
X11.987 Y11.251
X12.321 Y10.961
X12.666 Y10.685
X13.023 Y10.424
X13.391 Y10.179
X13.769 Y9.948
X14.156 Y9.734
X14.552 Y9.537
X14.956 Y9.356
X15.367 Y9.192
X15.785 Y9.046
X16.209 Y8.917
X16.638 Y8.806
X17.072 Y8.713
X17.509 Y8.639
X17.949 Y8.582
X18.392 Y8.545
X18.836 Y8.526
X19.28
X19.724 Y8.544
X20.168 Y8.581
X20.61 Y8.637
X21.049 Y8.711
X21.485 Y8.804
X21.918 Y8.915
X22.345 Y9.044
X22.767 Y9.191
X23.183 Y9.356
X23.591 Y9.538
X23.992 Y9.737
X24.385 Y9.954
X24.768 Y10.186
X25.142 Y10.435
X25.505 Y10.7
X25.856 Y10.979
X26.196 Y11.273
X26.524 Y11.582
X26.838 Y11.904
X27.138 Y12.239
X27.425 Y12.587
X27.696 Y12.946
X27.952 Y13.317
X28.193 Y13.698
X28.417 Y14.089
X28.625 Y14.49
X28.816 Y14.898
X28.989 Y15.315
X29.145 Y15.738
X29.283 Y16.167
X29.403 Y16.602
X29.504 Y17.042
X29.587 Y17.485
X29.651 Y17.932
X29.697 Y18.381
X29.723 Y18.831
X29.73 Y19.282
X29.719 Y19.732
X29.689 Y20.182
X29.639 Y20.63
X29.571 Y21.076
X29.484 Y21.518
X29.379 Y21.957
X29.256 Y22.39
X29.114 Y22.818
X28.955 Y23.239
X28.778 Y23.654
X28.583 Y24.061
X28.372 Y24.459
X28.144 Y24.848
X27.9 Y25.227
X27.64 Y25.596
X27.365 Y25.953
X27.075 Y26.299
X26.771 Y26.632
X26.453 Y26.952
X26.122 Y27.259
X25.778 Y27.551
X25.422 Y27.829
X25.054 Y28.092
X24.676 Y28.339
X24.287 Y28.571
X23.889 Y28.786
X23.481 Y28.983
X23.066 Y29.164
X22.643 Y29.328
X22.214 Y29.473
X21.779 Y29.6
X21.338 Y29.709
X20.893 Y29.8
X20.445 Y29.871
X19.993 Y29.924
X19.54 Y29.958
X19.085 Y29.973
X18.63 Y29.968
X18.175 Y29.945
X17.721 Y29.902
X17.27 Y29.84
X16.821 Y29.76
X16.375 Y29.66
X15.934 Y29.542
X15.498 Y29.405
X15.068 Y29.25
X14.645 Y29.077
X14.229 Y28.887
X13.822 Y28.679
X13.423 Y28.453
X13.034 Y28.212
X12.655 Y27.954
X12.288 Y27.68
X11.932 Y27.391
X11.588 Y27.087
X11.257 Y26.769
X10.94 Y26.437
X10.637 Y26.092
X10.349 Y25.734
X10.076 Y25.365
X9.818 Y24.984
X9.577 Y24.593
X9.353 Y24.191
X9.145 Y23.781
X8.955 Y23.362
X8.782 Y22.936
X8.628 Y22.502
X8.491 Y22.062
X8.374 Y21.617
X8.275 Y21.167
X8.195 Y20.714
X8.134 Y20.257
X8.093 Y19.798
X8.071 Y19.338
X8.068 Y18.877
X8.084 Y18.416
X8.12 Y17.957
X8.175 Y17.499
X8.25 Y17.044
X8.343 Y16.592
X8.456 Y16.145
X8.587 Y15.703
X8.736 Y15.266
X8.904 Y14.837
X9.089 Y14.414
X9.293 Y14
X9.513 Y13.595
X9.751 Y13.199
X10.004 Y12.814
X10.274 Y12.439
X10.559 Y12.076
X10.86 Y11.726
X11.174 Y11.388
X11.503 Y11.064
X11.845 Y10.754
X12.2 Y10.458
X12.567 Y10.178
X12.945 Y9.913
X13.335 Y9.665
X13.734 Y9.433
X14.143 Y9.218
X14.561 Y9.02
X14.987 Y8.84
X15.42 Y8.678
X15.86 Y8.534
X16.305 Y8.409
X16.755 Y8.302
X17.21 Y8.215
X17.668 Y8.146
X18.129 Y8.097
X18.592 Y8.068
X19.056 Y8.057
X19.52 Y8.067
X19.984 Y8.096
X20.446 Y8.144
X20.906 Y8.212
X21.363 Y8.299
X21.816 Y8.405
X22.265 Y8.53
X22.709 Y8.674
X23.146 Y8.837
X23.576 Y9.018
X23.999 Y9.218
X24.413 Y9.434
X24.818 Y9.669
X25.213 Y9.92
X25.598 Y10.188
X25.971 Y10.472
X26.332 Y10.771
X26.68 Y11.085
X27.015 Y11.415
X27.336 Y11.757
X27.642 Y12.114
X27.933 Y12.483
X28.209 Y12.864
X28.468 Y13.256
X28.711 Y13.659
X28.936 Y14.072
X29.144 Y14.494
X29.335 Y14.924
X29.507 Y15.362
X29.66 Y15.807
X29.795 Y16.258
X29.91 Y16.715
X30.006 Y17.176
X30.083 Y17.64
X30.14 Y18.107
X30.178 Y18.576
X30.195 Y19.046
X30.193 Y19.517
X30.172 Y19.987
X30.13 Y20.455
X30.069 Y20.922
X29.988 Y21.385
X29.888 Y21.845
X29.769 Y22.3
X29.631 Y22.749
X29.474 Y23.193
X29.298 Y23.629
X29.104 Y24.057
X28.893 Y24.478
X28.664 Y24.888
X28.417 Y25.289
X28.155 Y25.68
X27.876 Y26.059
X27.581 Y26.426
X27.271 Y26.78
X26.946 Y27.121
X26.607 Y27.448
X26.255 Y27.761
X25.89 Y28.059
X25.512 Y28.341
X25.123 Y28.607
X24.722 Y28.857
X24.312 Y29.09
X23.892 Y29.305
X23.463 Y29.503
X23.025 Y29.683
X22.581 Y29.844
X22.13 Y29.986
X21.673 Y30.11
X21.211 Y30.214
X20.745 Y30.298
X20.275 Y30.363
X19.803 Y30.409
X19.329 Y30.434
X18.855 Y30.439
X18.38 Y30.425
X17.906 Y30.391
X17.434 Y30.336
X16.964 Y30.262
X16.497 Y30.168
X16.035 Y30.055
X15.578 Y29.922
X15.126 Y29.77
X14.681 Y29.599
X14.243 Y29.409
X13.814 Y29.201
X13.393 Y28.976
X12.982 Y28.732
X12.582 Y28.472
X12.193 Y28.194
X11.815 Y27.901
X11.45 Y27.592
X11.099 Y27.267
X10.761 Y26.928
X10.437 Y26.575
X10.129 Y26.209
X9.836 Y25.83
X9.559 Y25.439
X9.299 Y25.036
X9.056 Y24.623
X8.831 Y24.2
X8.623 Y23.768
X8.434 Y23.327
X8.263 Y22.878
X8.111 Y22.423
X7.979 Y21.962
X7.866 Y21.495
X7.773 Y21.024
X7.699 Y20.549
X7.646 Y20.072
X7.613 Y19.593
X7.6 Y19.112
X7.607 Y18.632
X7.634 Y18.152
X7.681 Y17.674
X7.749 Y17.198
X7.836 Y16.725
X7.943 Y16.256
X8.07 Y15.792
X8.216 Y15.334
X8.382 Y14.883
X8.566 Y14.438
X8.769 Y14.002
X8.989 Y13.575
X9.228 Y13.157
X9.484 Y12.75
X9.757 Y12.354
X10.046 Y11.969
X10.351 Y11.597
X10.672 Y11.238
X11.007 Y10.893
X11.357 Y10.562
X11.72 Y10.247
X12.097 Y9.946
X12.485 Y9.662
X12.886 Y9.394
X13.297 Y9.144
X13.718 Y8.91
X14.149 Y8.695
X14.589 Y8.498
X15.037 Y8.319
X15.492 Y8.16
X15.953 Y8.019
X16.42 Y7.899
X16.892 Y7.797
X17.368 Y7.716
X17.847 Y7.655
X18.329 Y7.614
X18.812 Y7.593
X19.296 Y7.592
X19.779 Y7.612
X20.262 Y7.652
X20.743 Y7.713
X21.221 Y7.793
X21.695 Y7.894
X22.166 Y8.014
X22.631 Y8.155
X23.09 Y8.315
X23.542 Y8.494
X23.987 Y8.692
X24.423 Y8.909
X24.85 Y9.144
X25.267 Y9.397
X25.673 Y9.667
X26.068 Y9.954
X26.45 Y10.258
X26.82 Y10.578
X27.176 Y10.913
X27.518 Y11.263
X27.844 Y11.627
X28.156 Y12.005
X28.451 Y12.396
X28.73 Y12.799
X28.991 Y13.213
X29.236 Y13.638
X29.462 Y14.073
X29.669 Y14.517
X29.858 Y14.97
X30.027 Y15.43
X30.177 Y15.896
X30.308 Y16.369
X30.418 Y16.847
X30.508 Y17.329
X30.578 Y17.814
X30.628 Y18.302
X30.657 Y18.791
X30.665 Y19.281
X30.653 Y19.771
X30.62 Y20.26
X30.566 Y20.747
X30.492 Y21.232
X30.398 Y21.713
X30.284 Y22.189
X30.15 Y22.661
X29.996 Y23.126
X29.823 Y23.584
X29.631 Y24.035
X29.42 Y24.477
X29.19 Y24.91
X28.943 Y25.333
X28.677 Y25.746
X28.395 Y26.146
X28.096 Y26.535
X27.781 Y26.911
X27.451 Y27.273
X27.105 Y27.622
X26.745 Y27.955
X26.371 Y28.273
X25.984 Y28.576
X25.585 Y28.862
X25.173 Y29.13
X24.751 Y29.382
X24.318 Y29.616
X23.876 Y29.831
X23.425 Y30.028
X22.965 Y30.205
X22.499 Y30.363
X22.026 Y30.502
X21.547 Y30.62
X21.064 Y30.719
X20.576 Y30.797
X20.086 Y30.854
X19.593 Y30.891
X19.099 Y30.907
X18.605 Y30.903
X18.111 Y30.878
X17.618 Y30.831
X17.127 Y30.765
X16.64 Y30.677
X16.156 Y30.569
X15.677 Y30.441
X15.203 Y30.293
X14.736 Y30.125
X14.277 Y29.937
X13.825 Y29.73
X13.382 Y29.504
X12.949 Y29.26
X12.527 Y28.998
X12.116 Y28.718
X11.716 Y28.421
X11.33 Y28.107
X10.956 Y27.777
X10.597 Y27.432
X10.253 Y27.072
X9.924 Y26.697
X9.611 Y26.309
X9.314 Y25.908
X9.035 Y25.495
X8.773 Y25.07
X8.528 Y24.635
X8.303 Y24.19
X8.096 Y23.735
X7.909 Y23.272
X7.741 Y22.801
X7.593 Y22.324
X7.465 Y21.841
X7.358 Y21.353
X7.271 Y20.861
X7.205 Y20.365
X7.159 Y19.867
X7.135 Y19.367
X7.132 Y18.867
X7.15 Y18.367
X7.188 Y17.868
X7.248 Y17.372
X7.329 Y16.878
X7.43 Y16.388
X7.552 Y15.902
X7.694 Y15.422
X7.856 Y14.949
X8.037 Y14.482
X8.239 Y14.024
X8.459 Y13.574
X8.698 Y13.134
X8.956 Y12.705
X9.231 Y12.286
X9.524 Y11.88
X9.833 Y11.486
X10.159 Y11.105
X10.5 Y10.739
X10.857 Y10.387
X11.228 Y10.05
X11.613 Y9.729
X12.011 Y9.425
X12.422 Y9.138
X12.844 Y8.868
X13.277 Y8.616
X13.721 Y8.382
X14.174 Y8.167
X14.636 Y7.971
X15.106 Y7.795
X15.583 Y7.639
X16.067 Y7.503
X16.555 Y7.387
X17.049 Y7.292
X17.546 Y7.218
X18.046 Y7.165
X18.548 Y7.132
X19.051 Y7.121
X19.555 Y7.131
X20.058 Y7.162
X20.559 Y7.214
X21.058 Y7.287
X21.554 Y7.382
X22.046 Y7.497
X22.533 Y7.633
X23.014 Y7.789
X23.488 Y7.965
X23.955 Y8.161
X24.413 Y8.377
X24.862 Y8.612
X25.302 Y8.866
X25.73 Y9.138
X26.147 Y9.428
X26.551 Y9.736
X26.943 Y10.06
X27.32 Y10.401
X27.683 Y10.757
X28.031 Y11.129
X28.363 Y11.515
X28.679 Y11.914
X28.978 Y12.327
X29.259 Y12.752
X29.522 Y13.189
X29.766 Y13.636
X29.992 Y14.093
X30.198 Y14.56
X30.385 Y15.034
X30.551 Y15.516
X30.697 Y16.005
X30.823 Y16.499
X30.927 Y16.999
X31.01 Y17.502
X31.072 Y18.008
X31.113 Y18.516
X31.133 Y19.026
X31.131 Y19.536
X31.107 Y20.045
X31.063 Y20.553
X30.996 Y21.059
X30.909 Y21.561
X30.801 Y22.059
X30.672 Y22.552
X30.522 Y23.039
X30.352 Y23.52
X30.162 Y23.993
X29.952 Y24.457
X29.723 Y24.913
X29.475 Y25.358
X29.208 Y25.793
X28.924 Y26.216
X28.621 Y26.627
X28.302 Y27.025
X27.966 Y27.409
X27.614 Y27.779
X27.247 Y28.133
X26.866 Y28.472
X26.47 Y28.795
X26.061 Y29.101
X25.639 Y29.39
X25.205 Y29.661
X24.761 Y29.913
X24.305 Y30.147
X23.841 Y30.361
X23.367 Y30.556
X22.886 Y30.731
X22.397 Y30.885
X21.902 Y31.019
X21.402 Y31.132
X20.897 Y31.224
X20.388 Y31.295
X19.877 Y31.344
X19.364 Y31.372
X18.85 Y31.378
X18.335 Y31.362
X17.822 Y31.325
X17.311 Y31.266
X16.802 Y31.186
X16.297 Y31.085
X15.796 Y30.962
X15.301 Y30.818
X14.812 Y30.654
X14.33 Y30.469
X13.856 Y30.264
X13.391 Y30.039
X12.935 Y29.795
X12.49 Y29.532
X12.057 Y29.25
X11.635 Y28.95
X11.227 Y28.632
X10.832 Y28.298
X10.451 Y27.947
X10.085 Y27.58
X9.735 Y27.198
X9.401 Y26.802
X9.084 Y26.392
X8.784 Y25.968
X8.502 Y25.533
X8.239 Y25.086
X7.995 Y24.628
X7.77 Y24.16
X7.565 Y23.683
X7.38 Y23.198
X7.216 Y22.705
X7.072 Y22.206
X6.95 Y21.701
X6.849 Y21.191
X6.769 Y20.678
X6.711 Y20.161
X6.675 Y19.642
X6.661 Y19.123
X6.668 Y18.603
X6.697 Y18.083
X6.748 Y17.566
X6.821 Y17.051
X6.916 Y16.539
X7.031 Y16.032
X7.168 Y15.53
X7.326 Y15.034
X7.505 Y14.546
X7.704 Y14.065
X7.923 Y13.593
X8.162 Y13.13
X8.42 Y12.678
X8.697 Y12.237
X8.992 Y11.808
X9.305 Y11.392
X9.635 Y10.99
X9.982 Y10.601
X10.345 Y10.228
X10.723 Y9.87
X11.116 Y9.528
X11.523 Y9.203
X11.943 Y8.895
X12.376 Y8.605
X12.821 Y8.334
X13.277 Y8.081
X13.743 Y7.848
X14.219 Y7.635
X14.703 Y7.441
X15.196 Y7.268
X15.695 Y7.116
X16.2 Y6.985
X16.711 Y6.876
X17.225 Y6.787
X17.744 Y6.721
X18.265 Y6.676
X18.787 Y6.654
X19.311 Y6.653
X19.834 Y6.674
X20.356 Y6.717
X20.876 Y6.782
X21.393 Y6.869
X21.906 Y6.978
X22.415 Y7.108
X22.918 Y7.26
X23.414 Y7.432
X23.903 Y7.626
X24.384 Y7.84
X24.856 Y8.074
X25.317 Y8.328
X25.768 Y8.601
X26.207 Y8.893
X26.634 Y9.204
X27.048 Y9.532
X27.447 Y9.877
X27.832 Y10.24
X28.201 Y10.618
X28.555 Y11.011
X28.891 Y11.419
X29.211 Y11.841
X29.512 Y12.276
X29.737 Y12.633
X29.746 Y12.648
X29.814 Y12.767
X30.151 Y13.423
X30.332 Y13.762
X30.521 Y14.154
X30.601 Y14.34
X30.607 Y14.353
G3 X30.023 Y14.601 I-0.299 J0.106
G1 X29.261 Y13.077
G3 X29.814 Y12.767 I0.284 J-0.142
G1 X30.298 Y13.605
X30.36 Y13.74
X30.527 Y14.154
X30.641 Y14.442
X30.707 Y14.61
X30.838 Y14.945
X30.967 Y15.28
X31.017 Y15.448
X31.365 Y16.972
X31.392 Y17.123
X31.45 Y17.626
X31.533 Y18.725
X31.535 Y18.799
Y19.301
X31.533 Y19.375
X31.45 Y20.474
X31.392 Y20.977
X31.365 Y21.128
X31.017 Y22.652
X30.967 Y22.82
X30.773 Y23.323
X30.576 Y23.825
X30.441 Y24.16
X30.36 Y24.36
X30.298 Y24.495
X29.522 Y25.838
X29.354 Y26.125
X29.325 Y26.171
X28.517 Y27.185
X28.388 Y27.344
X28.182 Y27.586
X27.511 Y28.208
X27.344 Y28.364
X27.174 Y28.517
X26.795 Y28.852
X26.674 Y28.947
X25.668 Y29.633
X25.583 Y29.69
X25.166 Y29.933
X25.006 Y30.025
X23.962 Y30.527
X23.825 Y30.59
X23.582 Y30.695
X23.49 Y30.729
X22.317 Y31.091
X22.15 Y31.14
X21.647 Y31.269
X21.479 Y31.298
X20.474 Y31.45
X19.972 Y31.506
X19.804 Y31.514
X18.296
X18.128 Y31.506
X17.626 Y31.45
X16.621 Y31.298
X16.453 Y31.269
X15.95 Y31.14
X15.783 Y31.091
X14.61 Y30.729
X14.518 Y30.695
X14.275 Y30.59
X14.138 Y30.527
X13.094 Y30.025
X12.934 Y29.933
X12.517 Y29.69
X12.432 Y29.633
X11.426 Y28.947
X11.305 Y28.852
X10.924 Y28.515
X10.74 Y28.349
X10.018 Y27.679
X9.918 Y27.586
X9.712 Y27.344
X9.576 Y27.176
X8.775 Y26.171
X8.746 Y26.125
X8.479 Y25.668
X7.802 Y24.495
X7.74 Y24.36
X7.573 Y23.946
X7.459 Y23.658
X7.327 Y23.323
X7.133 Y22.82
X7.083 Y22.652
X6.735 Y21.128
X6.708 Y20.977
X6.65 Y20.474
X6.567 Y19.375
X6.565 Y19.301
Y18.799
X6.567 Y18.725
X6.65 Y17.626
X6.708 Y17.123
X6.735 Y16.972
X7.083 Y15.448
X7.133 Y15.28
X7.327 Y14.777
X7.524 Y14.275
X7.659 Y13.94
X7.74 Y13.74
X7.802 Y13.605
X8.578 Y12.262
X8.746 Y11.975
X8.775 Y11.929
X9.583 Y10.915
X9.712 Y10.756
X9.918 Y10.514
X10.589 Y9.892
X10.756 Y9.736
X10.926 Y9.583
X11.305 Y9.248
X11.426 Y9.153
X12.432 Y8.467
X12.517 Y8.41
X12.934 Y8.167
X13.094 Y8.075
X14.138 Y7.573
X14.275 Y7.51
X14.518 Y7.405
X14.61 Y7.371
X15.783 Y7.009
X15.95 Y6.96
X16.453 Y6.831
X16.621 Y6.802
X17.626 Y6.65
X18.128 Y6.594
X18.296 Y6.586
X19.804
X19.972 Y6.594
X20.474 Y6.65
X21.479 Y6.802
X21.647 Y6.831
X22.15 Y6.96
X22.317 Y7.009
X23.49 Y7.371
X23.582 Y7.405
X23.825 Y7.51
X23.962 Y7.573
X25.006 Y8.075
X25.166 Y8.167
X25.583 Y8.41
X25.668 Y8.467
X26.674 Y9.153
X26.795 Y9.248
X27.176 Y9.585
X27.36 Y9.751
X28.082 Y10.421
X28.182 Y10.514
X28.388 Y10.756
X28.524 Y10.924
X29.325 Y11.929
X29.354 Y11.975
X29.621 Y12.432
X29.746 Y12.648
G3 X29.641 Y13.061 I-0.28 J0.149
G1 X29.589 Y13.079 Z-9.995
X29.54 Y13.097 Z-9.981
X29.493 Y13.113 Z-9.958
X29.465 Y13.114 Z-9.94
X29.421 Y13.105 Z-9.9
X29.386 Y13.097 Z-9.853
X29.359 Y13.092 Z-9.8
X29.343 Y13.088 Z-9.742
X29.337 Y13.087 Z-9.683
G0 Z3.01
X9.874 Y23.97
Z-8.365
G1 Z-8.682 F500
X9.868 Y23.976 Z-8.753
X9.851 Y23.992 Z-8.82
X9.824 Y24.018 Z-8.88
X9.788 Y24.054 Z-8.931
X9.745 Y24.096 Z-8.969
X9.697 Y24.143 Z-8.992
X9.647 Y24.192 Z-9
G3 X8.274 Y25.272 I-5.668 J-5.795
G1 X8.252 Y25.284
X8.109 Y25.239
X7.985 Y25.155
X7.871 Y25.058
X7.766 Y24.951
X7.669 Y24.836
X7.58 Y24.715
X7.481 Y24.569
X7.361 Y24.374
X7.213 Y24.11
X7.059 Y23.805
X6.957 Y23.581
X6.858 Y23.338
X6.733 Y22.987
X6.554 Y22.408
X6.427 Y21.927
X6.337 Y21.517
X6.258 Y21.07
X6.165 Y20.37
X6.12 Y19.872
X6.1 Y19.473
X6.097 Y18.908
X6.122 Y18.21
X6.155 Y17.781
X6.206 Y17.357
X6.325 Y16.629
X6.446 Y16.041
X6.533 Y15.697
X6.683 Y15.187
X6.922 Y14.489
X7.056 Y14.144
X7.213 Y13.783
X7.5 Y13.192
X7.851 Y12.543
X8.001 Y12.284
X8.226 Y11.93
X8.625 Y11.358
X8.975 Y10.899
X9.19 Y10.639
X9.538 Y10.255
X10.056 Y9.729
X10.443 Y9.366
X10.744 Y9.107
X11.263 Y8.698
X11.702 Y8.38
X12.12 Y8.104
X12.535 Y7.854
X13.183 Y7.5
X13.601 Y7.293
X13.944 Y7.142
X14.511 Y6.918
X15.174 Y6.689
X15.611 Y6.559
X16.051 Y6.447
X16.695 Y6.312
X17.248 Y6.22
X17.606 Y6.176
X18.173 Y6.13
X18.91 Y6.102
X19.314 Y6.1
X19.771 Y6.117
X20.435 Y6.17
X20.936 Y6.232
X21.381 Y6.306
X21.862 Y6.406
X22.577 Y6.587
X22.998 Y6.709
X23.368 Y6.834
X23.885 Y7.032
X24.483 Y7.291
X24.959 Y7.52
X25.335 Y7.722
X25.961 Y8.092
X26.362 Y8.353
X26.704 Y8.597
X27.136 Y8.932
X27.699 Y9.409
X27.984 Y9.665
X28.264 Y9.939
X28.655 Y10.356
X29.136 Y10.914
X29.325 Y11.152
X29.578 Y11.499
X29.985 Y12.112
X30.333 Y12.686
X30.513 Y13.013
X30.751 Y13.491
X31.051 Y14.165
X31.184 Y14.498
X31.312 Y14.86
X31.497 Y15.464
X31.671 Y16.13
X31.765 Y16.56
X31.845 Y17.023
X31.939 Y17.744
X31.983 Y18.251
X32.001 Y18.651
X32.003 Y19.239
X31.976 Y19.938
X31.944 Y20.338
X31.889 Y20.776
X31.768 Y21.504
X31.652 Y22.066
X31.565 Y22.413
X31.412 Y22.928
X31.173 Y23.625
X31.042 Y23.964
X30.882 Y24.328
X30.59 Y24.928
X30.238 Y25.577
X30.088 Y25.835
X29.854 Y26.2
X29.442 Y26.787
X29.113 Y27.216
X28.892 Y27.481
X28.53 Y27.879
X28.011 Y28.404
X27.646 Y28.744
X27.339 Y29.007
X26.808 Y29.424
X26.378 Y29.734
X25.966 Y30.005
X25.541 Y30.26
X24.893 Y30.613
X24.487 Y30.812
X24.139 Y30.966
X23.557 Y31.193
X22.9 Y31.419
X22.477 Y31.545
X22.029 Y31.658
X21.381 Y31.793
X20.838 Y31.882
X20.477 Y31.926
X19.897 Y31.972
X19.159 Y31.999
X18.758 Y32
X18.3 Y31.981
X17.62 Y31.925
X17.141 Y31.865
X16.694 Y31.79
X16.202 Y31.686
X15.488 Y31.503
X15.083 Y31.385
X14.713 Y31.259
X14.182 Y31.055
X13.597 Y30.8
X13.124 Y30.571
X12.742 Y30.365
X12.108 Y29.988
X11.73 Y29.742
X11.385 Y29.496
X10.949 Y29.156
X10.386 Y28.679
X10.11 Y28.429
X9.83 Y28.154
X9.435 Y27.733
X8.953 Y27.173
X8.763 Y26.933
X8.331 Y26.335
X7.844 Y25.78
X7.628 Y25.527
X7.436 Y25.282
X7.285 Y25.071
X7.244 Y25.01
X7.206 Y24.946
X7.172 Y24.88
X6.989 Y24.495
X6.919 Y24.328
X6.524 Y23.323
X6.361 Y22.82
X6.315 Y22.652
X5.971 Y21.144
X5.942 Y20.977
X5.897 Y20.439
X5.824 Y19.469
X5.815 Y19.301
Y18.799
X5.824 Y18.631
X5.9 Y17.626
X5.942 Y17.123
X5.971 Y16.956
X6.315 Y15.448
X6.361 Y15.28
X6.524 Y14.777
X6.919 Y13.772
X6.989 Y13.605
X7.238 Y13.083
X7.908 Y11.921
X8.005 Y11.762
X8.243 Y11.4
X8.353 Y11.259
X9.155 Y10.254
X9.317 Y10.086
X9.643 Y9.751
X9.751 Y9.648
X10.421 Y9.027
X10.756 Y8.718
X10.924 Y8.59
X11.929 Y7.905
X12.441 Y7.573
X12.599 Y7.484
X13.94 Y6.838
X14.163 Y6.735
X14.275 Y6.691
X15.783 Y6.226
X15.95 Y6.177
X16.496 Y6.065
X17.626 Y5.894
X18.128 Y5.844
X18.296 Y5.836
X19.804
X19.972 Y5.844
X20.474 Y5.894
X21.604 Y6.065
X22.15 Y6.177
X22.338 Y6.232
X23.825 Y6.691
X23.937 Y6.735
X24.16 Y6.838
X25.501 Y7.484
X25.659 Y7.573
X26.175 Y7.908
X27.176 Y8.59
X27.344 Y8.718
X27.846 Y9.181
X28.349 Y9.648
X28.457 Y9.751
X28.852 Y10.156
X28.945 Y10.254
X29.747 Y11.259
X29.857 Y11.4
X30.095 Y11.762
X30.197 Y11.929
X30.862 Y13.083
X31.111 Y13.605
X31.181 Y13.772
X31.576 Y14.777
X31.739 Y15.28
X31.785 Y15.448
X32.129 Y16.956
X32.158 Y17.123
X32.203 Y17.661
X32.276 Y18.631
X32.285 Y18.799
Y19.301
X32.276 Y19.469
X32.2 Y20.474
X32.158 Y20.977
X32.129 Y21.144
X31.785 Y22.652
X31.739 Y22.82
X31.576 Y23.323
X31.181 Y24.328
X31.111 Y24.495
X30.862 Y25.017
X30.192 Y26.179
X30.095 Y26.338
X29.857 Y26.7
X29.747 Y26.841
X28.945 Y27.846
X28.783 Y28.014
X28.457 Y28.349
X28.349 Y28.452
X27.679 Y29.073
X27.344 Y29.382
X27.176 Y29.51
X26.171 Y30.195
X25.659 Y30.527
X25.501 Y30.616
X24.16 Y31.262
X23.937 Y31.365
X23.825 Y31.409
X22.317 Y31.874
X22.15 Y31.923
X21.604 Y32.035
X20.474 Y32.206
X19.972 Y32.256
X19.804 Y32.264
X18.296
X18.128 Y32.256
X17.626 Y32.206
X16.496 Y32.035
X15.95 Y31.923
X15.762 Y31.868
X14.275 Y31.409
X14.163 Y31.365
X13.94 Y31.262
X12.599 Y30.616
X12.441 Y30.527
X11.925 Y30.192
X10.924 Y29.51
X10.756 Y29.382
X10.254 Y28.919
X9.751 Y28.452
X9.643 Y28.349
X9.248 Y27.944
X9.155 Y27.846
X8.353 Y26.841
X8.243 Y26.7
X8.005 Y26.338
X7.903 Y26.171
X7.238 Y25.017
X7.172 Y24.88
X7.152 Y24.818
X7.146 Y24.754
Y24.753
G3 X7.309 Y24.476 I0.318 J0
G1 X7.362 Y24.462 Z-8.995
X7.413 Y24.449 Z-8.981
X7.46 Y24.436 Z-8.958
X7.463 Z-8.956
X7.514 Y24.449 Z-8.917
X7.556 Y24.459 Z-8.868
X7.588 Y24.467 Z-8.811
X7.607 Y24.472 Z-8.748
X7.613 Y24.474 Z-8.683
G0 Z3.01
X28.555 Y24.916
Z-7.365
G1 Z-7.682 F500
X28.562 Y24.918 Z-7.753
X28.585 Y24.924 Z-7.82
X28.621 Y24.934 Z-7.88
X28.67 Y24.948 Z-7.931
X28.728 Y24.964 Z-7.969
X28.792 Y24.982 Z-7.992
X28.86 Y25.001 Z-8
G3 X30.482 Y25.65 I-2.184 J7.806
G1 X30.523 Y25.674
X30.536 Y25.824
X30.52 Y25.973
X30.489 Y26.12
X30.447 Y26.263
X30.395 Y26.404
X30.336 Y26.542
X30.258 Y26.701
X30.149 Y26.905
X29.986 Y27.178
X29.813 Y27.442
X29.649 Y27.671
X29.419 Y27.966
X29.167 Y28.261
X28.758 Y28.702
X28.288 Y29.169
X28.041 Y29.393
X27.692 Y29.686
X27.126 Y30.121
X26.585 Y30.502
X26.283 Y30.696
X25.79 Y30.984
X25.138 Y31.329
X24.786 Y31.503
X24.441 Y31.655
X23.866 Y31.881
X23.169 Y32.121
X22.706 Y32.261
X22.279 Y32.371
X21.57 Y32.522
X20.983 Y32.621
X20.592 Y32.671
X20.049 Y32.716
X19.311 Y32.747
X18.835 Y32.752
X18.371 Y32.738
X17.769 Y32.694
X17.086 Y32.614
X16.619 Y32.54
X16.177 Y32.451
X15.461 Y32.275
X14.849 Y32.099
X14.504 Y31.984
X14.003 Y31.793
X13.325 Y31.502
X12.949 Y31.326
X12.548 Y31.118
X12.031 Y30.821
X11.407 Y30.427
X11.103 Y30.221
X10.77 Y29.975
X10.245 Y29.552
X9.735 Y29.103
X9.365 Y28.749
X9.025 Y28.395
X8.536 Y27.842
X8.251 Y27.494
X7.997 Y27.156
X7.669 Y26.68
X7.276 Y26.055
X7.01 Y25.595
X6.804 Y25.201
X6.505 Y24.568
X6.277 Y24.024
X6.123 Y23.61
X5.967 Y23.13
X5.768 Y22.419
X5.645 Y21.917
X5.57 Y21.546
X5.483 Y20.993
X5.398 Y20.26
X5.36 Y19.745
X5.345 Y19.316
X5.352 Y18.62
X5.389 Y17.899
X5.42 Y17.565
X5.489 Y17.06
X5.619 Y16.334
X5.726 Y15.833
X5.844 Y15.381
X6.015 Y14.819
X6.234 Y14.196
X6.429 Y13.707
X6.61 Y13.304
X6.94 Y12.644
X7.268 Y12.049
X7.469 Y11.717
X7.765 Y11.273
X8.199 Y10.677
X8.475 Y10.33
X8.808 Y9.944
X9.271 Y9.452
X9.799 Y8.936
X10.057 Y8.703
X10.424 Y8.398
X11.011 Y7.951
X11.534 Y7.585
X11.846 Y7.386
X12.364 Y7.086
X13.017 Y6.743
X13.342 Y6.584
X13.703 Y6.427
X14.315 Y6.19
X15.004 Y5.955
X15.467 Y5.819
X15.935 Y5.703
X16.646 Y5.557
X17.217 Y5.466
X17.598 Y5.42
X18.206 Y5.374
X18.943 Y5.35
X19.39 Y5.349
X19.839 Y5.368
X20.535 Y5.426
X21.165 Y5.505
X21.554 Y5.571
X22.048 Y5.676
X22.763 Y5.86
X23.275 Y6.009
X23.626 Y6.127
X24.148 Y6.327
X24.825 Y6.621
X25.189 Y6.793
X25.597 Y7.007
X26.146 Y7.325
X26.768 Y7.722
X27.037 Y7.907
X27.389 Y8.171
X27.941 Y8.622
X28.45 Y9.075
X28.772 Y9.387
X29.137 Y9.771
X29.622 Y10.328
X29.904 Y10.678
X30.156 Y11.018
X30.52 Y11.556
X30.901 Y12.174
X31.16 Y12.635
X31.376 Y13.061
X31.676 Y13.721
X31.885 Y14.238
X32.023 Y14.624
X32.202 Y15.201
X32.39 Y15.914
X32.475 Y16.275
X32.552 Y16.682
X32.647 Y17.332
X32.716 Y18.002
X32.746 Y18.488
X32.756 Y18.969
X32.739 Y19.707
X32.705 Y20.267
X32.669 Y20.621
X32.588 Y21.182
X32.452 Y21.907
X32.345 Y22.386
X32.231 Y22.81
X32.031 Y23.447
X31.83 Y24.003
X31.641 Y24.463
X31.333 Y25.134
X31.106 Y25.835
X30.995 Y26.144
X30.879 Y26.427
X30.745 Y26.718
X30.714 Y26.774
X30.695 Y26.808
X30.674 Y26.841
X30.36 Y27.271
X29.857 Y27.902
X29.501 Y28.349
X29.347 Y28.517
X29.016 Y28.852
X28.839 Y29.019
X27.846 Y29.939
X27.679 Y30.067
X27.503 Y30.192
X26.171 Y31.1
X26.002 Y31.197
X25.836 Y31.285
X24.495 Y31.931
X24.328 Y32.001
X23.993 Y32.131
X23.825 Y32.193
X22.317 Y32.658
X22.15 Y32.706
X21.479 Y32.81
X20.474 Y32.962
X19.972 Y33.007
X19.804 Y33.014
X18.296
X18.128 Y33.007
X17.626 Y32.962
X16.453 Y32.785
X15.946 Y32.705
X15.783 Y32.658
X14.275 Y32.193
X14.107 Y32.131
X13.772 Y32.001
X13.605 Y31.931
X12.264 Y31.285
X12.097 Y31.197
X11.929 Y31.1
X10.589 Y30.186
X10.421 Y30.067
X10.254 Y29.939
X9.248 Y29.007
X9.081 Y28.848
X8.746 Y28.509
X8.599 Y28.349
X7.798 Y27.344
X7.74 Y27.271
X7.426 Y26.841
X7.405 Y26.808
X6.735 Y25.647
X6.653 Y25.501
X6.4 Y25.039
X6.379 Y24.998
X5.721 Y23.323
X5.675 Y23.155
X5.562 Y22.719
X5.317 Y21.647
X5.248 Y21.312
X5.214 Y21.144
X5.187 Y20.977
X5.074 Y19.469
X5.065 Y19.301
Y18.799
X5.074 Y18.631
X5.187 Y17.123
X5.214 Y16.956
X5.282 Y16.621
X5.317 Y16.453
X5.562 Y15.381
X5.675 Y14.945
X5.721 Y14.777
X6.379 Y13.102
X6.4 Y13.061
X6.653 Y12.599
X6.747 Y12.432
X7.405 Y11.292
X7.426 Y11.259
X7.74 Y10.829
X8.243 Y10.198
X8.599 Y9.751
X8.753 Y9.583
X9.084 Y9.248
X9.261 Y9.081
X10.254 Y8.161
X10.421 Y8.033
X10.597 Y7.908
X11.929 Y7
X12.098 Y6.903
X12.264 Y6.815
X13.605 Y6.169
X13.772 Y6.099
X14.107 Y5.969
X14.275 Y5.907
X15.783 Y5.442
X15.95 Y5.394
X16.621 Y5.29
X17.626 Y5.138
X18.128 Y5.093
X18.296 Y5.086
X19.804
X19.972 Y5.093
X20.474 Y5.138
X21.647 Y5.315
X22.154 Y5.395
X22.317 Y5.442
X23.825 Y5.907
X23.993 Y5.969
X24.328 Y6.099
X24.495 Y6.169
X25.836 Y6.815
X26.003 Y6.903
X26.171 Y7
X27.511 Y7.914
X27.679 Y8.033
X27.846 Y8.161
X28.852 Y9.093
X29.019 Y9.252
X29.354 Y9.591
X29.501 Y9.751
X30.302 Y10.756
X30.36 Y10.829
X30.674 Y11.259
X30.695 Y11.292
X31.365 Y12.453
X31.447 Y12.599
X31.7 Y13.061
X31.721 Y13.102
X32.379 Y14.777
X32.425 Y14.945
X32.538 Y15.381
X32.783 Y16.453
X32.852 Y16.788
X32.886 Y16.956
X32.913 Y17.123
X33.026 Y18.631
X33.035 Y18.799
Y19.301
X33.026 Y19.469
X32.913 Y20.977
X32.886 Y21.144
X32.818 Y21.479
X32.783 Y21.647
X32.538 Y22.719
X32.425 Y23.155
X32.379 Y23.323
X31.721 Y24.998
X31.7 Y25.039
X31.447 Y25.501
X31.353 Y25.668
X30.714 Y26.774
G3 X30.304 Y26.891 I-0.269 J-0.168
G1 X30.262 Y26.855 Z-7.995
X30.222 Y26.821 Z-7.981
X30.185 Y26.788 Z-7.958
X30.168 Y26.742 Z-7.922
X30.153 Y26.704 Z-7.878
X30.141 Y26.673 Z-7.827
X30.133 Y26.652 Z-7.771
X30.129 Y26.642 Z-7.711
Y26.641 Z-7.682
G0 Z3.01
X29.537 Y13.373
Z-6.365
G1 Z-6.682 F500
X29.543 Y13.368 Z-6.753
X29.56 Y13.351 Z-6.82
X29.587 Y13.325 Z-6.88
X29.623 Y13.29 Z-6.931
X29.666 Y13.248 Z-6.969
X29.714 Y13.201 Z-6.992
X29.764 Y13.151 Z-7
G3 X31.137 Y12.072 I5.668 J5.795
G1 X31.179 Y12.048
X31.313 Y12.114
X31.434 Y12.203
X31.545 Y12.304
X31.65 Y12.411
X31.747 Y12.526
X31.836 Y12.646
X31.935 Y12.792
X32.056 Y12.988
X32.211 Y13.265
X32.417 Y13.672
X32.53 Y13.922
X32.655 Y14.231
X32.785 Y14.595
X32.965 Y15.177
X33.153 Y15.89
X33.237 Y16.269
X33.315 Y16.702
X33.414 Y17.433
X33.476 Y18.079
X33.5 Y18.55
X33.506 Y19.081
X33.483 Y19.819
X33.454 Y20.314
X33.41 Y20.742
X33.328 Y21.305
X33.192 Y22.031
X33.063 Y22.61
X32.962 Y22.988
X32.768 Y23.611
X32.518 Y24.305
X32.389 Y24.632
X32.193 Y25.072
X31.865 Y25.733
X31.51 Y26.379
X31.273 Y26.772
X30.989 Y27.201
X30.556 Y27.799
X30.272 Y28.167
X29.953 Y28.544
X29.564 Y28.968
X29.043 Y29.491
X28.698 Y29.82
X28.404 Y30.077
X27.949 Y30.443
X27.355 Y30.881
X26.982 Y31.141
X26.661 Y31.347
X26.15 Y31.644
X25.497 Y31.988
X25.012 Y32.222
X24.614 Y32.394
X23.966 Y32.642
X23.267 Y32.877
X22.97 Y32.969
X22.559 Y33.078
X21.877 Y33.228
X21.158 Y33.354
X20.705 Y33.414
X20.203 Y33.459
X19.466 Y33.495
X18.881 Y33.505
X18.402 Y33.492
X17.845 Y33.454
X17.111 Y33.374
X16.633 Y33.307
X16.271 Y33.241
X15.689 Y33.11
X14.977 Y32.918
X14.438 Y32.752
X14.038 Y32.611
X13.395 Y32.353
X12.722 Y32.049
X12.383 Y31.883
X11.986 Y31.666
X11.354 Y31.286
X10.739 Y30.885
X10.457 Y30.683
X10.034 Y30.352
X9.472 Y29.874
X8.974 Y29.418
X8.697 Y29.143
X8.267 Y28.678
X7.789 Y28.115
X7.5 Y27.749
X7.243 Y27.393
X6.837 Y26.777
X6.455 Y26.145
X6.291 Y25.853
X6.079 Y25.435
X5.772 Y24.764
X5.541 Y24.206
X5.389 Y23.79
X5.224 Y23.272
X5.03 Y22.56
X4.887 Y21.959
X4.815 Y21.588
X4.723 Y20.976
X4.644 Y20.242
X4.607 Y19.72
X4.594 Y19.278
X4.604 Y18.54
X4.642 Y17.838
X4.682 Y17.422
X4.755 Y16.896
X4.887 Y16.17
X5.026 Y15.53
X5.121 Y15.168
X5.3 Y14.586
X5.546 Y13.891
X5.671 Y13.565
X5.851 Y13.148
X6.123 Y12.585
X6.471 Y11.935
X6.67 Y11.585
X6.914 Y11.194
X7.269 Y10.674
X7.711 Y10.083
X7.999 Y9.727
X8.324 Y9.358
X8.834 Y8.826
X9.357 Y8.321
X9.64 Y8.069
X10.055 Y7.732
X10.646 Y7.29
X11.096 Y6.973
X11.416 Y6.767
X11.908 Y6.48
X12.56 Y6.134
X13.046 Y5.897
X13.452 Y5.72
X14.067 Y5.482
X14.766 Y5.245
X15.088 Y5.143
X15.478 Y5.038
X16.105 Y4.897
X16.831 Y4.765
X17.332 Y4.694
X17.79 Y4.649
X18.526 Y4.608
X19.188 Y4.595
X19.673 Y4.607
X20.212 Y4.642
X20.946 Y4.721
X21.459 Y4.791
X21.819 Y4.857
X22.392 Y4.985
X23.105 Y5.177
X23.645 Y5.342
X24.049 Y5.484
X24.679 Y5.736
X25.352 Y6.039
X25.699 Y6.209
X26.087 Y6.418
X26.72 Y6.797
X27.338 Y7.2
X27.612 Y7.395
X28.016 Y7.707
X28.58 Y8.183
X29.088 Y8.644
X29.371 Y8.924
X29.78 Y9.363
X30.26 Y9.923
X30.579 Y10.324
X31.014 Y10.921
X31.488 Y11.486
X31.732 Y11.765
X31.926 Y12.007
X32.113 Y12.262
X32.159 Y12.331
X32.189 Y12.38
X32.219 Y12.432
X32.312 Y12.599
X32.37 Y12.71
X32.919 Y14.107
X32.983 Y14.275
X33.165 Y14.777
X33.208 Y14.953
X33.551 Y16.453
X33.582 Y16.621
X33.639 Y16.956
X33.663 Y17.123
X33.776 Y18.631
X33.785 Y18.799
Y19.301
X33.776 Y19.469
X33.663 Y20.977
X33.639 Y21.144
X33.582 Y21.479
X33.551 Y21.647
X33.206 Y23.155
X33.165 Y23.323
X32.983 Y23.825
X32.919 Y23.993
X32.37 Y25.39
X32.312 Y25.501
X32.203 Y25.696
X31.251 Y27.344
X31.197 Y27.42
X30.025 Y28.891
X29.911 Y29.019
X29.522 Y29.407
X28.495 Y30.36
X28.349 Y30.489
X28.182 Y30.627
X28.093 Y30.695
X26.506 Y31.777
X26.338 Y31.868
X26.171 Y31.953
X26.002 Y32.035
X24.958 Y32.538
X24.495 Y32.759
X24.328 Y32.821
X22.82 Y33.286
X22.652 Y33.334
X22.317 Y33.422
X22.15 Y33.465
X20.474 Y33.717
X19.972 Y33.758
X19.804 Y33.764
X18.296
X18.128 Y33.758
X17.626 Y33.717
X15.95 Y33.465
X15.783 Y33.422
X15.448 Y33.334
X15.28 Y33.286
X13.772 Y32.821
X13.605 Y32.759
X12.934 Y32.438
X12.097 Y32.035
X11.929 Y31.953
X11.762 Y31.867
X11.594 Y31.777
X10.007 Y30.695
X9.918 Y30.627
X9.751 Y30.489
X9.605 Y30.36
X8.578 Y29.407
X8.189 Y29.019
X8.075 Y28.891
X6.903 Y27.42
X6.849 Y27.344
X5.881 Y25.668
X5.788 Y25.501
X5.73 Y25.39
X5.181 Y23.993
X5.117 Y23.825
X4.935 Y23.323
X4.892 Y23.147
X4.549 Y21.647
X4.518 Y21.479
X4.461 Y21.144
X4.437 Y20.977
X4.324 Y19.469
X4.315 Y19.301
Y18.799
X4.324 Y18.631
X4.437 Y17.123
X4.461 Y16.956
X4.518 Y16.621
X4.549 Y16.453
X4.894 Y14.945
X4.935 Y14.777
X5.117 Y14.275
X5.181 Y14.107
X5.73 Y12.71
X5.788 Y12.599
X5.897 Y12.404
X6.849 Y10.756
X6.903 Y10.68
X8.075 Y9.209
X8.189 Y9.081
X8.578 Y8.693
X9.605 Y7.74
X9.751 Y7.611
X9.918 Y7.473
X10.007 Y7.405
X11.594 Y6.323
X11.762 Y6.232
X11.929 Y6.147
X12.098 Y6.065
X13.142 Y5.562
X13.605 Y5.341
X13.772 Y5.279
X15.28 Y4.814
X15.448 Y4.766
X15.783 Y4.678
X15.95 Y4.635
X17.626 Y4.383
X18.128 Y4.342
X18.296 Y4.336
X19.804
X19.972 Y4.342
X20.474 Y4.383
X22.15 Y4.635
X22.317 Y4.678
X22.652 Y4.766
X22.82 Y4.814
X24.328 Y5.279
X24.495 Y5.341
X25.166 Y5.662
X26.003 Y6.065
X26.171 Y6.147
X26.338 Y6.233
X26.506 Y6.323
X28.093 Y7.405
X28.182 Y7.473
X28.349 Y7.611
X28.495 Y7.74
X29.522 Y8.693
X29.911 Y9.081
X30.025 Y9.209
X31.197 Y10.68
X31.251 Y10.756
X32.189 Y12.38
G3 X32.084 Y12.794 I-0.28 J0.149
G1 X32.033 Y12.812 Z-6.995
X31.983 Y12.829 Z-6.981
X31.937 Y12.846 Z-6.958
X31.909 Y12.847 Z-6.94
X31.865 Y12.838 Z-6.9
X31.829 Y12.83 Z-6.853
X31.803 Y12.825 Z-6.8
X31.787 Y12.821 Z-6.742
X31.781 Y12.82 Z-6.683
G0 Z3.01
X10.697 Y9.566
Z-5.365
G1 Z-5.682 F500
X10.69 Y9.562 Z-5.753
X10.671 Y9.549 Z-5.82
X10.639 Y9.529 Z-5.88
X10.597 Y9.502 Z-5.931
X10.546 Y9.469 Z-5.969
X10.49 Y9.433 Z-5.992
X10.43 Y9.395 Z-6
G3 X9.072 Y8.297 I4.388 J-6.815
G1 X9.037 Y8.258
X9.052 Y8.109
X9.106 Y7.969
X9.176 Y7.836
X9.256 Y7.709
X9.344 Y7.588
X9.44 Y7.473
X9.551 Y7.35
X9.702 Y7.199
X9.915 Y7.002
X10.239 Y6.728
X10.605 Y6.442
X10.853 Y6.266
X11.144 Y6.076
X11.596 Y5.808
X12.246 Y5.458
X12.734 Y5.214
X13.063 Y5.067
X13.598 Y4.854
X14.295 Y4.61
X14.923 Y4.411
X15.293 Y4.311
X15.909 Y4.171
X16.635 Y4.039
X17.178 Y3.957
X17.607 Y3.91
X18.311 Y3.864
X19.049 Y3.846
X19.576 Y3.851
X20.033 Y3.874
X20.768 Y3.943
X21.473 Y4.036
X21.938 Y4.117
X22.465 Y4.232
X23.179 Y4.419
X23.81 Y4.604
X24.161 Y4.722
X24.697 Y4.929
X25.373 Y5.224
X25.935 Y5.486
X26.261 Y5.655
X26.775 Y5.95
X27.399 Y6.344
X27.849 Y6.643
X28.174 Y6.879
X28.637 Y7.245
X29.195 Y7.727
X29.677 Y8.169
X29.954 Y8.446
X30.395 Y8.924
X30.871 Y9.488
X31.136 Y9.812
X31.36 Y10.112
X31.703 Y10.615
X32.093 Y11.241
X32.386 Y11.736
X32.562 Y12.063
X32.823 Y12.602
X33.116 Y13.279
X33.343 Y13.849
X33.473 Y14.221
X33.664 Y14.851
X33.849 Y15.565
X33.974 Y16.121
X34.05 Y16.542
X34.151 Y17.273
X34.222 Y18.007
X34.25 Y18.507
X34.257 Y19.016
X34.237 Y19.753
X34.201 Y20.368
X34.152 Y20.85
X34.073 Y21.404
X33.937 Y22.129
X33.821 Y22.673
X33.709 Y23.106
X33.54 Y23.664
X33.296 Y24.361
X33.102 Y24.873
X32.954 Y25.22
X32.702 Y25.748
X32.357 Y26.4
X32.058 Y26.933
X31.866 Y27.244
X31.536 Y27.731
X31.098 Y28.324
X30.798 Y28.709
X30.492 Y29.071
X30.091 Y29.505
X29.569 Y30.026
X29.144 Y30.428
X28.862 Y30.674
X28.387 Y31.053
X27.792 Y31.489
X27.375 Y31.781
X27.037 Y31.996
X26.523 Y32.295
X25.87 Y32.638
X25.36 Y32.891
X25.021 Y33.041
X24.462 Y33.262
X23.765 Y33.503
X23.156 Y33.695
X22.776 Y33.797
X22.135 Y33.94
X21.409 Y34.071
X20.868 Y34.15
X20.435 Y34.195
X19.699 Y34.24
X18.961 Y34.255
X18.452 Y34.247
X17.952 Y34.217
X17.218 Y34.143
X16.6 Y34.06
X16.135 Y33.978
X15.591 Y33.858
X14.877 Y33.669
X14.283 Y33.494
X13.93 Y33.374
X13.389 Y33.165
X12.713 Y32.87
X12.161 Y32.612
X11.833 Y32.441
X11.315 Y32.144
X10.691 Y31.75
X10.249 Y31.456
X9.924 Y31.22
X9.461 Y30.853
X8.902 Y30.37
X8.422 Y29.93
X8.145 Y29.653
X7.703 Y29.173
X7.226 Y28.609
X6.964 Y28.287
X6.74 Y27.987
X6.396 Y27.484
X6.006 Y26.858
X5.713 Y26.364
X5.538 Y26.037
X5.277 Y25.497
X4.983 Y24.82
X4.757 Y24.251
X4.627 Y23.878
X4.435 Y23.248
X4.251 Y22.534
X4.126 Y21.979
X4.05 Y21.557
X3.949 Y20.826
X3.878 Y20.092
X3.85 Y19.592
X3.843 Y19.083
X3.863 Y18.346
X3.899 Y17.732
X3.948 Y17.25
X4.027 Y16.696
X4.163 Y15.97
X4.279 Y15.427
X4.391 Y14.994
X4.56 Y14.436
X4.804 Y13.739
X4.998 Y13.227
X5.146 Y12.88
X5.398 Y12.352
X5.743 Y11.7
X6.042 Y11.167
X6.234 Y10.856
X6.563 Y10.369
X7.002 Y9.776
X7.302 Y9.391
X7.608 Y9.029
X8.108 Y8.487
X8.413 Y8.051
X8.466 Y7.98
X8.525 Y7.913
X8.588 Y7.85
X9.081 Y7.393
X9.261 Y7.238
X9.667 Y6.903
X9.751 Y6.841
X11.259 Y5.813
X11.389 Y5.73
X11.426 Y5.711
X13.102 Y4.904
X13.605 Y4.698
X13.772 Y4.639
X15.28 Y4.174
X15.448 Y4.127
X15.731 Y4.054
X15.783 Y4.043
X17.626 Y3.766
X18.128 Y3.729
X18.296 Y3.724
X19.804
X19.972 Y3.729
X20.474 Y3.766
X22.317 Y4.043
X22.369 Y4.054
X22.652 Y4.127
X22.82 Y4.174
X24.328 Y4.639
X24.495 Y4.698
X24.998 Y4.904
X26.674 Y5.711
X26.711 Y5.73
X26.841 Y5.813
X28.349 Y6.841
X28.433 Y6.903
X28.852 Y7.249
X29.019 Y7.393
X30.192 Y8.481
X30.295 Y8.578
X30.568 Y8.913
X30.703 Y9.081
X31.638 Y10.254
X31.759 Y10.421
X31.868 Y10.599
X32.636 Y11.929
X32.822 Y12.264
X32.915 Y12.432
X32.983 Y12.599
X33.574 Y14.107
X33.637 Y14.275
X33.793 Y14.777
X33.833 Y14.945
X34.178 Y16.453
X34.205 Y16.621
X34.254 Y16.956
X34.275 Y17.123
X34.388 Y18.631
X34.397 Y18.799
Y19.301
X34.388 Y19.469
X34.275 Y20.977
X34.254 Y21.144
X34.205 Y21.479
X34.178 Y21.647
X33.833 Y23.155
X33.793 Y23.323
X33.637 Y23.825
X33.574 Y23.993
X32.983 Y25.501
X32.915 Y25.668
X32.705 Y26.047
X32.636 Y26.171
X31.862 Y27.511
X31.759 Y27.679
X31.638 Y27.846
X30.695 Y29.029
X30.36 Y29.443
X30.295 Y29.522
X30.116 Y29.69
X29.019 Y30.707
X28.839 Y30.862
X28.433 Y31.197
X28.349 Y31.259
X26.841 Y32.287
X26.711 Y32.37
X26.674 Y32.389
X24.998 Y33.196
X24.495 Y33.402
X24.328 Y33.461
X22.82 Y33.926
X22.652 Y33.973
X22.369 Y34.046
X22.317 Y34.057
X20.474 Y34.334
X19.972 Y34.371
X19.804 Y34.376
X18.296
X18.128 Y34.371
X17.626 Y34.334
X15.783 Y34.057
X15.731 Y34.046
X15.448 Y33.973
X15.28 Y33.926
X13.772 Y33.461
X13.605 Y33.402
X13.102 Y33.196
X11.426 Y32.389
X11.389 Y32.37
X11.259 Y32.287
X9.751 Y31.259
X9.667 Y31.197
X9.248 Y30.851
X9.081 Y30.707
X7.908 Y29.619
X7.805 Y29.522
X7.532 Y29.187
X7.397 Y29.019
X6.462 Y27.846
X6.341 Y27.679
X6.232 Y27.501
X5.464 Y26.171
X5.278 Y25.836
X5.185 Y25.668
X5.117 Y25.501
X4.526 Y23.993
X4.463 Y23.825
X4.307 Y23.323
X4.267 Y23.155
X3.922 Y21.647
X3.895 Y21.479
X3.846 Y21.144
X3.825 Y20.977
X3.712 Y19.469
X3.703 Y19.301
Y18.799
X3.712 Y18.631
X3.825 Y17.123
X3.846 Y16.956
X3.895 Y16.621
X3.922 Y16.453
X4.267 Y14.945
X4.307 Y14.777
X4.463 Y14.275
X4.526 Y14.107
X5.117 Y12.599
X5.185 Y12.432
X5.395 Y12.053
X5.464 Y11.929
X6.238 Y10.589
X6.341 Y10.421
X6.462 Y10.254
X7.405 Y9.071
X7.74 Y8.657
X7.805 Y8.578
X7.984 Y8.41
X8.588 Y7.85
G3 X9.014 Y7.86 I0.208 J0.24
G1 X9.043 Y7.906 Z-5.995
X9.071 Y7.951 Z-5.981
X9.098 Y7.993 Z-5.958
X9.106 Y8.046 Z-5.918
X9.113 Y8.09 Z-5.869
X9.11 Y8.123 Z-5.811
X9.108 Y8.143 Z-5.748
X9.107 Y8.15 Z-5.683
G0 Z3.01
X19.29 Y20.539
Z-7.5
G3 X18.811 Y17.561 Z-7.665 I-0.24 J-1.489 F150
X19.29 Y20.539 Z-7.831 I0.24 J1.489
X18.811 Y17.561 Z-7.996 I-0.24 J-1.489
X19.29 Y20.539 Z-8.162 I0.24 J1.489
X18.811 Y17.561 Z-8.327 I-0.24 J-1.489
X19.29 Y20.539 Z-8.493 I0.24 J1.489
X18.811 Y17.561 Z-8.658 I-0.24 J-1.489
X19.29 Y20.539 Z-8.824 I0.24 J1.489
X18.811 Y17.561 Z-8.989 I-0.24 J-1.489
X19.29 Y20.539 Z-9.155 I0.24 J1.489
X18.811 Y17.561 Z-9.32 I-0.24 J-1.489
X19.29 Y20.539 Z-9.485 I0.24 J1.489
X18.811 Y17.561 Z-9.651 I-0.24 J-1.489
X19.29 Y20.539 Z-9.816 I0.24 J1.489
X18.811 Y17.561 Z-9.982 I-0.24 J-1.489
X19.29 Y20.539 Z-10.147 I0.24 J1.489
X18.811 Y17.561 Z-10.313 I-0.24 J-1.489
X19.29 Y20.539 Z-10.478 I0.24 J1.489
X18.811 Y17.561 Z-10.644 I-0.24 J-1.489
X19.29 Y20.539 Z-10.809 I0.24 J1.489
X18.811 Y17.561 Z-10.974 I-0.24 J-1.489
X19.29 Y20.539 Z-11.14 I0.24 J1.489
X18.811 Y17.561 Z-11.305 I-0.24 J-1.489
X19.29 Y20.539 Z-11.471 I0.24 J1.489
X18.811 Y17.561 Z-11.636 I-0.24 J-1.489
X19.29 Y20.539 Z-11.802 I0.24 J1.489
X18.811 Y17.561 Z-11.967 I-0.24 J-1.489
X19.29 Y20.539 Z-12.133 I0.24 J1.489
X18.811 Y17.561 Z-12.298 I-0.24 J-1.489
X19.29 Y20.539 Z-12.464 I0.24 J1.489
X18.811 Y17.561 Z-12.629 I-0.24 J-1.489
X19.29 Y20.539 Z-12.794 I0.24 J1.489
X18.811 Y17.561 Z-12.96 I-0.24 J-1.489
X19.29 Y20.539 Z-13.125 I0.24 J1.489
X18.811 Y17.561 Z-13.291 I-0.24 J-1.489
X19.29 Y20.539 Z-13.456 I0.24 J1.489
X18.811 Y17.561 Z-13.622 I-0.24 J-1.489
X19.29 Y20.539 Z-13.787 I0.24 J1.489
X18.811 Y17.561 Z-13.953 I-0.24 J-1.489
X19.29 Y20.539 Z-14.118 I0.24 J1.489
X18.811 Y17.561 Z-14.284 I-0.24 J-1.489
X19.29 Y20.539 Z-14.449 I0.24 J1.489
X18.811 Y17.561 Z-14.614 I-0.24 J-1.489
X19.29 Y20.539 Z-14.78 I0.24 J1.489
X18.811 Y17.561 Z-14.945 I-0.24 J-1.489
X19.29 Y20.539 Z-15.111 I0.24 J1.489
X18.811 Y17.561 Z-15.276 I-0.24 J-1.489
X19.29 Y20.539 Z-15.442 I0.24 J1.489
X18.811 Y17.561 Z-15.607 I-0.24 J-1.489
X19.29 Y20.539 Z-15.773 I0.24 J1.489
X18.811 Y17.561 Z-15.938 I-0.24 J-1.489
X19.29 Y20.539 Z-16.103 I0.24 J1.489
X18.811 Y17.561 Z-16.269 I-0.24 J-1.489
X19.29 Y20.539 Z-16.434 I0.24 J1.489
X18.811 Y17.561 Z-16.6 I-0.24 J-1.489
X19.29 Y20.539 Z-16.765 I0.24 J1.489
X18.811 Y17.561 Z-16.931 I-0.24 J-1.489
X19.29 Y20.539 Z-17.096 I0.24 J1.489
X18.811 Y17.561 Z-17.262 I-0.24 J-1.489
X19.29 Y20.539 Z-17.427 I0.24 J1.489
X18.811 Y17.561 Z-17.593 I-0.24 J-1.489
X19.29 Y20.539 Z-17.758 I0.24 J1.489
X18.811 Y17.561 Z-17.923 I-0.24 J-1.489
X19.29 Y20.539 Z-18.089 I0.24 J1.489
X18.811 Y17.561 Z-18.254 I-0.24 J-1.489
X19.29 Y20.539 Z-18.42 I0.24 J1.489
X18.811 Y17.561 Z-18.585 I-0.24 J-1.489
X19.29 Y20.539 Z-18.751 I0.24 J1.489
X18.811 Y17.561 Z-18.916 I-0.24 J-1.489
X19.29 Y20.539 Z-19.082 I0.24 J1.489
X18.811 Y17.561 Z-19.247 I-0.24 J-1.489
X19.29 Y20.539 Z-19.413 I0.24 J1.489
X18.811 Y17.561 Z-19.578 I-0.24 J-1.489
X19.29 Y20.539 Z-19.743 I0.24 J1.489
X18.811 Y17.561 Z-19.909 I-0.24 J-1.489
X20.558 Y19.05 Z-20 I0.24 J1.489
X17.542 Y19.05 I-1.508 J0
X20.558 Y19.05 I1.508 J0
G1 X20.572 Y19.571 F500
X20.57 Y19.721
X20.537 Y19.867
X20.483 Y20.007
X20.412 Y20.139
X20.325 Y20.261
X20.226 Y20.374
X20.116 Y20.476
X19.996 Y20.566
X19.868 Y20.645
X19.734 Y20.712
X19.594 Y20.767
X19.45 Y20.809
X19.303 Y20.838
X19.154 Y20.855
X19.004 Y20.858
X18.855 Y20.85
X18.706 Y20.828
X18.56 Y20.794
X18.417 Y20.748
X18.279 Y20.691
X18.146 Y20.621
X18.019 Y20.542
X17.899 Y20.451
X17.787 Y20.352
X17.683 Y20.243
X17.589 Y20.126
X17.505 Y20.002
X17.432 Y19.871
X17.37 Y19.734
X17.319 Y19.593
X17.28 Y19.448
X17.253 Y19.301
X17.238 Y19.152
X17.236 Y19.002
X17.246 Y18.852
X17.269 Y18.704
X17.304 Y18.558
X17.35 Y18.415
X17.409 Y18.277
X17.478 Y18.144
X17.558 Y18.017
X17.649 Y17.898
X17.749 Y17.786
X17.857 Y17.683
X17.975 Y17.589
X18.099 Y17.505
X18.23 Y17.432
X18.366 Y17.369
X18.507 Y17.319
X18.652 Y17.28
X18.8 Y17.253
X18.949 Y17.238
X19.099 Y17.236
X19.249 Y17.246
X19.397 Y17.269
X19.543 Y17.304
X19.686 Y17.35
X19.824 Y17.409
X19.957 Y17.478
X20.083 Y17.558
X20.203 Y17.649
X20.315 Y17.749
X20.418 Y17.858
X20.512 Y17.975
X20.596 Y18.099
X20.669 Y18.23
X20.731 Y18.367
X20.782 Y18.508
X20.825 Y18.651
X20.861 Y18.798
X20.891 Y18.945
X20.914 Y19.093
X20.928 Y19.242
X20.931 Y19.392
X20.923 Y19.542
X20.902 Y19.691
X20.869 Y19.837
X20.823 Y19.98
X20.765 Y20.118
X20.694 Y20.251
X20.613 Y20.377
X20.521 Y20.495
X20.42 Y20.606
X20.31 Y20.708
X20.193 Y20.801
X20.068 Y20.885
X19.937 Y20.958
X19.801 Y21.021
X19.66 Y21.073
X19.516 Y21.115
X19.37 Y21.146
X19.221 Y21.166
X19.071 Y21.176
X18.921 Y21.174
X18.772 Y21.161
X18.624 Y21.138
X18.478 Y21.104
X18.334 Y21.059
X18.194 Y21.005
X18.059 Y20.941
X17.928 Y20.867
X17.803 Y20.784
X17.684 Y20.693
X17.572 Y20.593
X17.467 Y20.486
X17.37 Y20.371
X17.281 Y20.251
X17.201 Y20.124
X17.131 Y19.991
X17.069 Y19.854
X17.018 Y19.714
X16.976 Y19.57
X16.945 Y19.423
X16.923 Y19.274
X16.913 Y19.125
Y18.975
X16.924 Y18.825
X16.945 Y18.677
X16.976 Y18.53
X17.017 Y18.386
X17.069 Y18.245
X17.13 Y18.108
X17.201 Y17.976
X17.281 Y17.849
X17.37 Y17.728
X17.466 Y17.613
X17.571 Y17.505
X17.683 Y17.406
X17.801 Y17.314
X17.926 Y17.231
X18.057 Y17.157
X18.192 Y17.091
X18.331 Y17.036
X18.474 Y16.99
X18.62 Y16.955
X18.768 Y16.93
X18.917 Y16.916
X19.067 Y16.912
X19.217 Y16.918
X19.366 Y16.935
X19.513 Y16.962
X19.659 Y17
X19.801 Y17.048
X19.939 Y17.105
X20.073 Y17.172
X20.203 Y17.249
X20.326 Y17.334
X20.443 Y17.427
X20.554 Y17.529
X20.656 Y17.638
X20.751 Y17.754
X20.838 Y17.877
X20.917 Y18.004
X20.988 Y18.137
X21.051 Y18.272
X21.108 Y18.411
X21.157 Y18.553
X21.198 Y18.698
X21.23 Y18.844
X21.254 Y18.992
X21.269 Y19.141
X21.275 Y19.291
X21.271 Y19.441
X21.257 Y19.59
X21.232 Y19.738
X21.198 Y19.885
X21.154 Y20.028
X21.1 Y20.168
X21.036 Y20.304
X20.963 Y20.434
X20.881 Y20.56
X20.79 Y20.679
X20.691 Y20.793
X20.585 Y20.899
X20.473 Y20.997
X20.353 Y21.088
X20.228 Y21.171
X20.097 Y21.244
X19.962 Y21.31
X19.823 Y21.366
X19.681 Y21.413
X19.536 Y21.452
X19.389 Y21.48
X19.24 Y21.499
X19.09 Y21.509
X18.94
X18.79 Y21.5
X18.641 Y21.481
X18.494 Y21.454
X18.349 Y21.417
X18.206 Y21.371
X18.066 Y21.317
X17.93 Y21.254
X17.798 Y21.182
X17.671 Y21.103
X17.548 Y21.016
X17.431 Y20.922
X17.321 Y20.821
X17.216 Y20.713
X17.119 Y20.6
X17.028 Y20.48
X16.945 Y20.355
X16.87 Y20.225
X16.802 Y20.091
X16.743 Y19.953
X16.693 Y19.812
X16.651 Y19.668
X16.618 Y19.522
X16.594 Y19.374
X16.578 Y19.225
X16.572 Y19.075
X16.575 Y18.925
X16.587 Y18.775
X16.608 Y18.627
X16.638 Y18.48
X16.677 Y18.335
X16.725 Y18.193
X16.781 Y18.054
X16.845 Y17.918
X16.918 Y17.787
X16.998 Y17.66
X17.086 Y17.538
X17.181 Y17.422
X17.283 Y17.312
X17.391 Y17.209
X17.506 Y17.112
X17.626 Y17.022
X17.751 Y16.939
X17.881 Y16.864
X18.015 Y16.798
X18.154 Y16.739
X18.295 Y16.689
X18.439 Y16.648
X18.586 Y16.615
X18.734 Y16.592
X18.883 Y16.577
X19.033 Y16.572
X19.183 Y16.575
X19.332 Y16.588
X19.481 Y16.609
X19.628 Y16.64
X19.772 Y16.679
X19.915 Y16.727
X20.053 Y16.784
X20.189 Y16.849
X20.32 Y16.921
X20.446 Y17.002
X20.568 Y17.09
X20.683 Y17.186
X20.793 Y17.288
X20.897 Y17.396
X20.994 Y17.51
X21.085 Y17.629
X21.17 Y17.753
X21.248 Y17.881
X21.319 Y18.013
X21.383 Y18.149
X21.441 Y18.288
X21.491 Y18.429
X21.533 Y18.573
X21.568 Y18.719
X21.595 Y18.866
X21.613 Y19.015
X21.624 Y19.165
X21.626 Y19.315
X21.62 Y19.465
X21.605 Y19.614
X21.581 Y19.762
X21.549 Y19.909
X21.509 Y20.053
X21.46 Y20.195
X21.402 Y20.333
X21.337 Y20.468
X21.264 Y20.599
X21.183 Y20.725
X21.094 Y20.847
X20.999 Y20.963
X20.897 Y21.073
X20.789 Y21.177
X20.676 Y21.274
X20.556 Y21.365
X20.432 Y21.449
X20.302 Y21.525
X20.169 Y21.594
X20.032 Y21.655
X19.892 Y21.709
X19.749 Y21.754
X19.604 Y21.792
X19.457 Y21.821
X19.308 Y21.842
X19.159 Y21.855
X19.009 Y21.859
X18.859 Y21.855
X18.709 Y21.843
X18.561 Y21.823
X18.413 Y21.795
X18.268 Y21.759
X18.125 Y21.714
X17.984 Y21.663
X17.846 Y21.603
X17.712 Y21.536
X17.581 Y21.463
X17.455 Y21.382
X17.333 Y21.295
X17.215 Y21.201
X17.104 Y21.101
X16.997 Y20.995
X16.897 Y20.884
X16.802 Y20.768
X16.714 Y20.646
X16.632 Y20.521
X16.557 Y20.391
X16.49 Y20.257
X16.429 Y20.119
X16.376 Y19.979
X16.331 Y19.836
X16.293 Y19.691
X16.262 Y19.544
X16.24 Y19.396
X16.225 Y19.247
X16.219 Y19.097
X16.22 Y18.947
X16.23 Y18.797
X16.247 Y18.648
X16.272 Y18.5
X16.305 Y18.354
X16.346 Y18.209
X16.394 Y18.067
X16.449 Y17.928
X16.512 Y17.792
X16.583 Y17.659
X16.66 Y17.531
X16.744 Y17.406
X16.834 Y17.287
X16.93 Y17.172
X17.033 Y17.062
X17.141 Y16.958
X17.254 Y16.86
X17.373 Y16.768
X17.496 Y16.682
X17.623 Y16.603
X17.755 Y16.531
X17.89 Y16.466
X18.028 Y16.408
X18.17 Y16.358
X18.313 Y16.315
X18.459 Y16.28
X18.607 Y16.253
X18.756 Y16.233
X18.905 Y16.222
X19.055 Y16.218
X19.205 Y16.222
X19.355 Y16.234
X19.503 Y16.254
X19.651 Y16.282
X19.796 Y16.318
X19.94 Y16.361
X20.081 Y16.412
X20.219 Y16.47
X20.354 Y16.536
X20.485 Y16.608
X20.613 Y16.687
X20.736 Y16.773
X20.854 Y16.865
X20.968 Y16.963
X21.076 Y17.067
X21.179 Y17.176
X21.277 Y17.289
X21.37 Y17.408
X21.456 Y17.53
X21.537 Y17.657
X21.611 Y17.787
X21.679 Y17.921
X21.741 Y18.057
X21.796 Y18.197
X21.845 Y18.339
X21.887 Y18.483
X21.921 Y18.629
X21.949 Y18.776
X21.97 Y18.925
X21.983 Y19.074
X21.989 Y19.224
X21.987 Y19.374
X21.977 Y19.524
X21.961 Y19.673
X21.937 Y19.821
X21.905 Y19.967
X21.866 Y20.112
X21.819 Y20.255
X21.765 Y20.395
X21.704 Y20.532
X21.637 Y20.666
X21.562 Y20.796
X21.481 Y20.922
X21.394 Y21.044
X21.3 Y21.161
X21.2 Y21.273
X21.095 Y21.38
X20.984 Y21.481
X20.869 Y21.577
X20.749 Y21.667
X20.624 Y21.75
X20.496 Y21.828
X20.363 Y21.899
X20.228 Y21.962
X20.089 Y22.019
X19.948 Y22.07
X19.804 Y22.113
X19.658 Y22.148
X19.511 Y22.177
X19.363 Y22.199
X19.213 Y22.213
X19.063 Y22.22
X18.913 Y22.219
X18.764 Y22.212
X18.614 Y22.197
X18.466 Y22.174
X18.319 Y22.145
X18.173 Y22.109
X18.03 Y22.065
X17.888 Y22.015
X17.75 Y21.959
X17.614 Y21.895
X17.481 Y21.825
X17.352 Y21.749
X17.226 Y21.667
X17.105 Y21.579
X16.987 Y21.485
X16.875 Y21.386
X16.767 Y21.282
X16.664 Y21.173
X16.567 Y21.059
X16.475 Y20.94
X16.389 Y20.817
X16.309 Y20.691
X16.234 Y20.56
X16.166 Y20.427
X16.104 Y20.29
X16.049 Y20.151
X16.001 Y20.009
X15.959 Y19.865
X15.924 Y19.719
X15.896 Y19.571
X15.875 Y19.423
X15.861 Y19.273
X15.854 Y19.124
Y18.974
X15.86 Y18.824
X15.875 Y18.674
X15.896 Y18.526
X15.924 Y18.379
X15.959 Y18.233
X16 Y18.089
X16.049 Y17.947
X16.104 Y17.807
X16.165 Y17.67
X16.233 Y17.536
X16.307 Y17.406
X16.387 Y17.279
X16.473 Y17.156
X16.565 Y17.037
X16.662 Y16.923
X16.764 Y16.813
X16.871 Y16.709
X16.983 Y16.609
X17.1 Y16.515
X17.221 Y16.426
X17.346 Y16.343
X17.475 Y16.266
X17.607 Y16.196
X17.743 Y16.131
X17.881 Y16.073
X18.022 Y16.021
X18.165 Y15.977
X18.31 Y15.938
X18.457 Y15.907
X18.605 Y15.883
X18.754 Y15.865
X18.903 Y15.855
X19.053 Y15.852
X19.203 Y15.855
X19.353 Y15.866
X19.502 Y15.884
X19.65 Y15.908
X19.796 Y15.94
X19.941 Y15.978
X20.085 Y16.024
X20.225 Y16.075
X20.364 Y16.134
X20.499 Y16.198
X20.631 Y16.269
X20.76 Y16.346
X20.885 Y16.429
X21.006 Y16.517
X21.124 Y16.611
X21.236 Y16.709
X21.345 Y16.813
X21.449 Y16.921
X21.548 Y17.034
X21.642 Y17.151
X21.73 Y17.272
X21.814 Y17.396
X21.892 Y17.524
X21.965 Y17.656
X22.031 Y17.79
X22.092 Y17.927
X22.147 Y18.067
X22.196 Y18.208
X22.239 Y18.352
X22.276 Y18.498
X22.306 Y18.645
X22.33 Y18.793
X22.347 Y18.942
X22.357 Y19.091
X22.361 Y19.241
X22.359 Y19.391
X22.349 Y19.541
X22.333 Y19.69
X22.311 Y19.838
X22.281 Y19.985
X22.245 Y20.131
X22.203 Y20.275
X22.154 Y20.417
X22.099 Y20.556
X22.037 Y20.693
X21.969 Y20.827
X21.896 Y20.958
X21.816 Y21.085
X21.731 Y21.208
X21.64 Y21.328
X21.544 Y21.443
X21.443 Y21.553
X21.337 Y21.659
X21.226 Y21.761
X21.111 Y21.857
X20.992 Y21.948
X20.868 Y22.033
X20.741 Y22.113
X20.611 Y22.187
X20.477 Y22.255
X20.341 Y22.317
X20.202 Y22.373
X20.06 Y22.423
X19.917 Y22.467
X19.771 Y22.504
X19.625 Y22.535
X19.477 Y22.559
X19.328 Y22.577
X19.178 Y22.588
X19.028 Y22.593
X18.878 Y22.591
X18.728 Y22.583
X18.579 Y22.568
X18.431 Y22.547
X18.283 Y22.52
X18.137 Y22.486
X17.992 Y22.446
X17.85 Y22.4
X17.709 Y22.347
X17.571 Y22.289
X17.435 Y22.225
X17.303 Y22.155
X17.173 Y22.079
X17.047 Y21.998
X16.924 Y21.912
X16.805 Y21.821
X16.69 Y21.725
X16.579 Y21.624
X16.473 Y21.518
X16.371 Y21.408
X16.274 Y21.293
X16.181 Y21.174
X16.094 Y21.052
X16.012 Y20.926
X15.936 Y20.797
X15.865 Y20.665
X15.799 Y20.53
X15.74 Y20.392
X15.686 Y20.252
X15.638 Y20.11
X15.597 Y19.965
X15.561 Y19.818
X15.531 Y19.67
X15.508 Y19.522
X15.491 Y19.373
X15.481 Y19.223
X15.476 Y19.073
X15.479 Y18.923
X15.487 Y18.773
X15.502 Y18.623
X15.523 Y18.474
X15.55 Y18.325
X15.584 Y18.178
X15.623 Y18.033
X15.669 Y17.89
X15.721 Y17.749
X15.778 Y17.611
X15.841 Y17.475
X15.911 Y17.341
X15.986 Y17.21
X16.066 Y17.082
X16.152 Y16.957
X16.243 Y16.837
X16.338 Y16.721
X16.438 Y16.609
X16.543 Y16.502
X16.652 Y16.399
X16.765 Y16.301
X16.884 Y16.207
X17.006 Y16.118
X17.132 Y16.034
X17.261 Y15.955
X17.393 Y15.883
X17.527 Y15.816
X17.664 Y15.755
X17.803 Y15.699
X17.945 Y15.65
X18.089 Y15.607
X18.235 Y15.569
X18.383 Y15.538
X18.533 Y15.513
X18.683 Y15.494
X18.832 Y15.482
X18.982 Y15.476
X19.132
X19.282 Y15.483
X19.431 Y15.495
X19.581 Y15.515
X19.73 Y15.54
X19.878 Y15.572
X20.025 Y15.611
X20.171 Y15.655
X20.314 Y15.705
X20.454 Y15.762
X20.593 Y15.824
X20.729 Y15.892
X20.863 Y15.967
X20.995 Y16.047
X21.125 Y16.134
X21.252 Y16.227
X21.375 Y16.326
X21.494 Y16.43
X21.61 Y16.539
X21.721 Y16.654
X21.827 Y16.773
X21.929 Y16.897
X22.025 Y17.026
X22.117 Y17.159
X22.202 Y17.296
X22.283 Y17.437
X22.357 Y17.581
X22.425 Y17.727
X22.486 Y17.876
X22.541 Y18.027
X22.59 Y18.179
X22.632 Y18.334
X22.667 Y18.489
X22.696 Y18.646
X22.718 Y18.804
X22.733 Y18.961
X22.742 Y19.119
X22.744 Y19.277
X22.74 Y19.434
X22.729 Y19.591
X22.711 Y19.747
X22.687 Y19.903
X22.656 Y20.057
X22.619 Y20.209
X22.576 Y20.36
X22.526 Y20.509
X22.47 Y20.654
X22.409 Y20.796
X22.342 Y20.936
X22.269 Y21.072
X22.191 Y21.205
X22.106 Y21.335
X22.016 Y21.462
X21.921 Y21.586
X21.82 Y21.705
X21.714 Y21.82
X21.604 Y21.931
X21.488 Y22.037
X21.369 Y22.138
X21.245 Y22.234
X21.116 Y22.325
X20.984 Y22.411
X20.849 Y22.491
X20.709 Y22.566
X20.567 Y22.634
X20.422 Y22.697
X20.274 Y22.754
X20.124 Y22.804
X19.972 Y22.848
X19.817 Y22.886
X19.661 Y22.917
X19.503 Y22.942
X19.343 Y22.96
X19.182 Y22.971
X19.021 Y22.976
X18.859 Y22.974
X18.697 Y22.965
X18.537 Y22.95
X18.376 Y22.927
X18.217 Y22.898
X18.058 Y22.862
X17.901 Y22.82
X17.745 Y22.77
X17.592 Y22.714
X17.44 Y22.652
X17.291 Y22.583
X17.146 Y22.508
X17.003 Y22.427
X16.865 Y22.34
X16.729 Y22.248
X16.598 Y22.149
X16.47 Y22.045
X16.347 Y21.935
X16.228 Y21.82
X16.115 Y21.701
X16.006 Y21.576
X15.903 Y21.447
X15.805 Y21.314
X15.713 Y21.177
X15.627 Y21.037
X15.547 Y20.892
X15.472 Y20.744
X15.404 Y20.593
X15.342 Y20.438
X15.287 Y20.282
X15.238 Y20.123
X15.197 Y19.963
X15.162 Y19.801
X15.133 Y19.638
X15.112 Y19.474
X15.097 Y19.308
X15.09 Y19.142
X15.089 Y18.975
X15.096 Y18.809
X15.109 Y18.643
X15.13 Y18.478
X15.157 Y18.315
X15.191 Y18.152
X15.232 Y17.991
X15.28 Y17.832
X15.334 Y17.675
X15.395 Y17.52
X15.463 Y17.367
X15.537 Y17.218
X15.617 Y17.072
X15.703 Y16.93
X15.794 Y16.791
X15.892 Y16.657
X15.995 Y16.526
X16.104 Y16.4
X16.218 Y16.279
X16.337 Y16.162
X16.461 Y16.05
X16.589 Y15.944
X16.722 Y15.843
X16.858 Y15.748
X16.999 Y15.659
X17.143 Y15.576
X17.29 Y15.499
X17.441 Y15.429
X17.594 Y15.364
X17.751 Y15.306
X17.91 Y15.255
X18.07 Y15.21
X18.232 Y15.172
X18.396 Y15.141
X18.56 Y15.117
X18.726 Y15.1
X18.892 Y15.09
X19.058 Y15.087
X19.225 Y15.091
X19.392 Y15.102
X19.558 Y15.12
X19.724 Y15.145
X19.888 Y15.176
X20.051 Y15.215
X20.213 Y15.261
X20.373 Y15.313
X20.531 Y15.373
X20.687 Y15.439
X20.84 Y15.512
X20.992 Y15.592
X21.14 Y15.678
X21.285 Y15.771
X21.426 Y15.87
X21.564 Y15.975
X21.698 Y16.087
X21.827 Y16.205
X21.952 Y16.328
X22.072 Y16.457
X22.186 Y16.591
X22.295 Y16.73
X22.399 Y16.873
X22.496 Y17.021
X22.587 Y17.173
X22.671 Y17.329
X22.749 Y17.488
X22.82 Y17.65
X22.884 Y17.814
X22.941 Y17.981
X22.991 Y18.15
X23.033 Y18.321
X23.069 Y18.493
X23.097 Y18.666
X23.117 Y18.84
X23.131 Y19.014
X23.137 Y19.189
X23.136 Y19.363
X23.127 Y19.537
X23.111 Y19.71
X23.088 Y19.883
X23.058 Y20.054
X23.02 Y20.223
X22.976 Y20.39
X22.925 Y20.554
X22.867 Y20.716
X22.802 Y20.876
X22.731 Y21.032
X22.653 Y21.186
X22.569 Y21.336
X22.478 Y21.483
X22.381 Y21.626
X22.278 Y21.764
X22.17 Y21.899
