%
(Test)
(A test program)
(T1  D=3.175 CR=0 - ZMIN=-3 - flat end mill)
G90 G94
G17
G21
G28 G91 Z0
G90

(Face1)
M9
T1 M6
S5000 M3
G54
G0 X100.564 Y1.329
Z16
Z5
G1 Z0.317 F1000
G18 G3 X100.246 Z0 I-0.318
G1 X98.5
X0
G17 G2 Y4.215 J1.443
G1 X98.5
G3 Y7.101 J1.443
G1 X0
G2 Y9.987 J1.443
G1 X98.5
G3 Y12.873 J1.443
G1 X0
G2 Y15.759 J1.443
G1 X98.5
G3 Y18.645 J1.443
G1 X0
G2 Y21.531 J1.443
G1 X98.5
G3 Y24.417 J1.443
G1 X0
G2 Y27.303 J1.443
G1 X98.5
G3 Y30.19 J1.443
G1 X0
G2 Y33.076 J1.443
G1 X98.5
G3 Y35.962 J1.443
G1 X0
G18 G3 X-0.317 Z0.317 K0.317
G0 Z16
G17

(2D Pocket1)
G0 X55.434 Y11.628
Z15
Z5
G1 Z2.817 F1000
X55.44 Y11.624 Z2.75 F333.3
X55.458 Y11.613 Z2.685
X55.488 Y11.595 Z2.626
X55.528 Y11.571 Z2.577
X55.577 Y11.542 Z2.538
X55.631 Y11.51 Z2.512
X55.664 Y11.491 Z2.504
X55.697 Y11.471 Z2.5
X55.865 Y11.375 Z2.493
X56.093 Y11.25 Z2.484
X56.313 Y11.138 Z2.476
X56.527 Y11.038 Z2.467
X56.733 Y10.95 Z2.459
X56.933 Y10.876 Z2.452
X57.133 Y10.811 Z2.445
X57.343 Y10.753 Z2.437
X57.562 Y10.703 Z2.429
X57.792 Y10.659 Z2.421
X58.032 Y10.621 Z2.413
X58.282 Y10.59 Z2.404
X58.542 Y10.564 Z2.395
X58.77 Y10.547 Z2.387
X58.721 Y10.563 Z2.385
X58.602 Y10.603 Z2.38
X58.498 Y10.642 Z2.377
X58.383 Y10.688 Z2.372
X58.271 Y10.737 Z2.368
X58.158 Y10.79 Z2.364
X58.052 Y10.843 Z2.36
X57.942 Y10.903 Z2.355
X57.848 Y10.957 Z2.351
X57.741 Y11.022 Z2.347
X57.659 Y11.075 Z2.344
X57.554 Y11.146 Z2.339
X57.485 Y11.195 Z2.336
X57.383 Y11.27 Z2.332
X57.325 Y11.314 Z2.329
X57.225 Y11.394 Z2.325
X57.176 Y11.434 Z2.323
X57.077 Y11.517 Z2.318
X57.039 Y11.55 Z2.316
X56.942 Y11.636 Z2.312
X56.912 Y11.663 Z2.31
X56.815 Y11.752 Z2.306
X56.794 Y11.771 Z2.305
X56.699 Y11.862 Z2.3
X56.684 Y11.876 Z2.299
X56.589 Y11.967 Z2.295
X56.581 Y11.974 Z2.294
X56.487 Y12.067 Z2.29
G2 X56.155 Y12.484 Z2.271 I1.455 J1.496
G1 X56.104 Y12.568 Z2.268
X56.052 Y12.656 Z2.264
X56.044 Y12.668
X55.994 Y12.753 Z2.26
X55.984 Y12.77
X55.935 Y12.855 Z2.256
X55.924 Y12.874 Z2.255
X55.875 Y12.96 Z2.252
X55.86 Y12.987 Z2.251
X55.813 Y13.073 Z2.247
X55.795 Y13.107 Z2.246
X55.75 Y13.194 Z2.243
X55.73 Y13.234 Z2.241
X55.687 Y13.321 Z2.238
X55.665 Y13.366 Z2.236
X55.624 Y13.454 Z2.233
X55.601 Y13.506 Z2.231
X55.578 Y13.56 Z2.229
X53.87 Y13.453 Z2.169
X53.899 Y13.392 Z2.166
X53.965 Y13.264 Z2.161
X54.041 Y13.131 Z2.156
X54.126 Y12.994 Z2.15
X54.221 Y12.85 Z2.144
X54.324 Y12.702 Z2.138
X54.437 Y12.548 Z2.131
X54.558 Y12.389 Z2.124
X54.686 Y12.225 Z2.117
X54.822 Y12.057 Z2.11
X54.902 Y11.959 Z2.105
X55.14 Y11.809 Z2.095
X55.389 Y11.655 Z2.085
X55.631 Y11.51 Z2.075
X55.865 Y11.375 Z2.066
X56.093 Y11.25 Z2.057
X56.313 Y11.138 Z2.048
X56.527 Y11.038 Z2.04
X56.733 Y10.95 Z2.032
X56.933 Y10.876 Z2.025
X57.133 Y10.811 Z2.017
X57.343 Y10.753 Z2.01
X57.562 Y10.703 Z2.002
X57.792 Y10.659 Z1.994
X58.032 Y10.621 Z1.985
X58.282 Y10.59 Z1.976
X58.542 Y10.564 Z1.967
X58.77 Y10.547 Z1.959
X58.721 Y10.563 Z1.957
X58.602 Y10.603 Z1.953
X58.498 Y10.642 Z1.949
X58.383 Y10.688 Z1.945
X58.271 Y10.737 Z1.941
X58.158 Y10.79 Z1.936
X58.052 Y10.843 Z1.932
X57.942 Y10.903 Z1.928
X57.848 Y10.957 Z1.924
X57.741 Y11.022 Z1.92
X57.659 Y11.075 Z1.916
X57.554 Y11.146 Z1.912
X57.485 Y11.195 Z1.909
X57.383 Y11.27 Z1.904
X57.325 Y11.314 Z1.902
X57.225 Y11.394 Z1.897
X57.176 Y11.434 Z1.895
X57.077 Y11.517 Z1.891
X57.039 Y11.55 Z1.889
X56.942 Y11.636 Z1.884
X56.912 Y11.663 Z1.883
X56.815 Y11.752 Z1.878
X56.794 Y11.771 Z1.877
X56.699 Y11.862 Z1.873
X56.684 Y11.876 Z1.872
X56.589 Y11.967 Z1.867
X56.581 Y11.974
X56.487 Y12.067 Z1.862
G2 X56.155 Y12.484 Z1.844 I1.455 J1.496
G1 X56.104 Y12.568 Z1.84
X56.052 Y12.656 Z1.837
X56.044 Y12.668 Z1.836
X55.994 Y12.753 Z1.833
X55.984 Y12.77 Z1.832
X55.935 Y12.855 Z1.829
X55.924 Y12.874 Z1.828
X55.875 Y12.96 Z1.825
X55.86 Y12.987 Z1.823
X55.813 Y13.073 Z1.82
X55.795 Y13.107 Z1.819
X55.75 Y13.194 Z1.815
X55.73 Y13.234 Z1.814
X55.687 Y13.321 Z1.81
X55.665 Y13.366 Z1.809
X55.624 Y13.454 Z1.805
X55.601 Y13.506 Z1.803
X55.578 Y13.56 Z1.801
X53.87 Y13.453 Z1.741
X53.899 Y13.392 Z1.739
X53.965 Y13.264 Z1.734
X54.041 Y13.131 Z1.729
X54.126 Y12.994 Z1.723
X54.221 Y12.85 Z1.717
X54.324 Y12.702 Z1.711
X54.437 Y12.548 Z1.704
X54.558 Y12.389 Z1.697
X54.686 Y12.225 Z1.69
X54.822 Y12.057 Z1.682
X54.902 Y11.959 Z1.678
X55.14 Y11.809 Z1.668
X55.389 Y11.655 Z1.658
X55.631 Y11.51 Z1.648
X55.865 Y11.375 Z1.638
X56.093 Y11.25 Z1.629
X56.313 Y11.138 Z1.621
X56.527 Y11.038 Z1.613
X56.733 Y10.95 Z1.605
X56.933 Y10.876 Z1.597
X57.133 Y10.811 Z1.59
X57.343 Y10.753 Z1.582
X57.562 Y10.703 Z1.574
X57.792 Y10.659 Z1.566
X58.032 Y10.621 Z1.558
X58.282 Y10.59 Z1.549
X58.542 Y10.564 Z1.54
X58.77 Y10.547 Z1.532
X58.721 Y10.563 Z1.53
X58.602 Y10.603 Z1.526
X58.498 Y10.642 Z1.522
X58.383 Y10.688 Z1.518
X58.271 Y10.737 Z1.513
X58.158 Y10.79 Z1.509
X58.052 Y10.843 Z1.505
X57.942 Y10.903 Z1.5
X57.848 Y10.957 Z1.497
X57.741 Y11.022 Z1.492
X57.659 Y11.075 Z1.489
X57.554 Y11.146 Z1.484
X57.485 Y11.195 Z1.481
X57.383 Y11.27 Z1.477
X57.325 Y11.314 Z1.474
X57.225 Y11.394 Z1.47
X57.176 Y11.434 Z1.468
X57.077 Y11.517 Z1.463
X57.039 Y11.55 Z1.462
X56.942 Y11.636 Z1.457
X56.912 Y11.663 Z1.456
X56.815 Y11.752 Z1.451
X56.794 Y11.771 Z1.45
X56.699 Y11.862 Z1.445
X56.684 Y11.876
X56.589 Y11.967 Z1.44
X56.581 Y11.974
X56.487 Y12.067 Z1.435
G2 X56.155 Y12.484 Z1.416 I1.455 J1.496
G1 X56.104 Y12.568 Z1.413
X56.052 Y12.656 Z1.409
X56.044 Y12.668
X55.994 Y12.753 Z1.406
X55.984 Y12.77 Z1.405
X55.935 Y12.855 Z1.401
X55.924 Y12.874
X55.875 Y12.96 Z1.397
X55.86 Y12.987 Z1.396
X55.813 Y13.073 Z1.393
X55.795 Y13.107 Z1.391
X55.75 Y13.194 Z1.388
X55.73 Y13.234 Z1.386
X55.687 Y13.321 Z1.383
X55.665 Y13.366 Z1.381
X55.624 Y13.454 Z1.378
X55.601 Y13.506 Z1.376
X55.578 Y13.56 Z1.374
X53.87 Y13.453 Z1.314
X53.899 Y13.392 Z1.312
X53.965 Y13.264 Z1.307
X54.041 Y13.131 Z1.301
X54.126 Y12.994 Z1.296
X54.221 Y12.85 Z1.29
X54.324 Y12.702 Z1.283
X54.437 Y12.548 Z1.277
X54.558 Y12.389 Z1.27
X54.686 Y12.225 Z1.262
X54.822 Y12.057 Z1.255
X54.902 Y11.959 Z1.25
X55.14 Y11.809 Z1.241
X55.389 Y11.655 Z1.23
X55.631 Y11.51 Z1.221
X55.865 Y11.375 Z1.211
X56.093 Y11.25 Z1.202
X56.313 Y11.138 Z1.193
X56.527 Y11.038 Z1.185
X56.733 Y10.95 Z1.177
X56.933 Y10.876 Z1.17
X57.133 Y10.811 Z1.163
X57.343 Y10.753 Z1.155
X57.562 Y10.703 Z1.147
X57.792 Y10.659 Z1.139
X58.032 Y10.621 Z1.13
X58.282 Y10.59 Z1.122
X58.542 Y10.564 Z1.113
X58.77 Y10.547 Z1.105
X58.721 Y10.563 Z1.103
X58.602 Y10.603 Z1.098
X58.498 Y10.642 Z1.095
X58.383 Y10.688 Z1.09
X58.271 Y10.737 Z1.086
X58.158 Y10.79 Z1.082
X58.052 Y10.843 Z1.077
X57.942 Y10.903 Z1.073
X57.848 Y10.957 Z1.069
X57.741 Y11.022 Z1.065
X57.659 Y11.075 Z1.061
X57.554 Y11.146 Z1.057
X57.485 Y11.195 Z1.054
X57.383 Y11.27 Z1.05
X57.325 Y11.314 Z1.047
X57.225 Y11.394 Z1.043
X57.176 Y11.434 Z1.04
X57.077 Y11.517 Z1.036
X57.039 Y11.55 Z1.034
X56.942 Y11.636 Z1.03
X56.912 Y11.663 Z1.028
X56.815 Y11.752 Z1.024
X56.794 Y11.771 Z1.023
X56.699 Y11.862 Z1.018
X56.684 Y11.876 Z1.017
X56.589 Y11.967 Z1.013
X56.581 Y11.974 Z1.012
X56.487 Y12.067 Z1.008
G2 X56.155 Y12.484 Z0.989 I1.455 J1.496
G1 X56.104 Y12.568 Z0.986
X56.052 Y12.656 Z0.982
X56.044 Y12.668
X55.994 Y12.753 Z0.978
X55.984 Y12.77 Z0.977
X55.935 Y12.855 Z0.974
X55.924 Y12.874 Z0.973
X55.875 Y12.96 Z0.97
X55.86 Y12.987 Z0.969
X55.813 Y13.073 Z0.965
X55.795 Y13.107 Z0.964
X55.75 Y13.194 Z0.961
X55.73 Y13.234 Z0.959
X55.687 Y13.321 Z0.956
X55.665 Y13.366 Z0.954
X55.624 Y13.454 Z0.95
X55.601 Y13.506 Z0.948
X55.578 Y13.56 Z0.946
X53.87 Y13.453 Z0.887
X53.899 Y13.392 Z0.884
X53.965 Y13.264 Z0.879
X54.041 Y13.131 Z0.874
X54.126 Y12.994 Z0.868
X54.221 Y12.85 Z0.862
X54.324 Y12.702 Z0.856
X54.437 Y12.548 Z0.849
X54.558 Y12.389 Z0.842
X54.686 Y12.225 Z0.835
X54.822 Y12.057 Z0.828
X54.902 Y11.959 Z0.823
X55.14 Y11.809 Z0.813
X55.389 Y11.655 Z0.803
X55.631 Y11.51 Z0.793
X55.865 Y11.375 Z0.784
X56.093 Y11.25 Z0.775
X56.313 Y11.138 Z0.766
X56.527 Y11.038 Z0.758
X56.733 Y10.95 Z0.75
X56.933 Y10.876 Z0.743
X57.133 Y10.811 Z0.735
X57.343 Y10.753 Z0.728
X57.562 Y10.703 Z0.72
X57.792 Y10.659 Z0.712
X58.032 Y10.621 Z0.703
X58.282 Y10.59 Z0.694
X58.542 Y10.564 Z0.685
X58.77 Y10.547 Z0.677
X58.721 Y10.563 Z0.675
X58.602 Y10.603 Z0.671
X58.498 Y10.642 Z0.667
X58.383 Y10.688 Z0.663
X58.271 Y10.737 Z0.659
X58.158 Y10.79 Z0.654
X58.052 Y10.843 Z0.65
X57.942 Y10.903 Z0.646
X57.848 Y10.957 Z0.642
X57.741 Y11.022 Z0.637
X57.659 Y11.075 Z0.634
X57.554 Y11.146 Z0.63
X57.485 Y11.195 Z0.627
X57.383 Y11.27 Z0.622
X57.325 Y11.314 Z0.62
X57.225 Y11.394 Z0.615
X57.176 Y11.434 Z0.613
X57.077 Y11.517 Z0.609
X57.039 Y11.55 Z0.607
X56.942 Y11.636 Z0.602
X56.912 Y11.663 Z0.601
X56.815 Y11.752 Z0.596
X56.794 Y11.771 Z0.595
X56.699 Y11.862 Z0.591
X56.684 Y11.876 Z0.59
X56.589 Y11.967 Z0.585
X56.581 Y11.974
X56.487 Y12.067 Z0.58
G2 X56.155 Y12.484 Z0.562 I1.455 J1.496
G1 X56.104 Y12.568 Z0.558
X56.052 Y12.656 Z0.555
X56.044 Y12.668 Z0.554
X55.994 Y12.753 Z0.551
X55.984 Y12.77 Z0.55
X55.935 Y12.855 Z0.547
X55.924 Y12.874 Z0.546
X55.875 Y12.96 Z0.542
X55.86 Y12.987 Z0.541
X55.813 Y13.073 Z0.538
X55.795 Y13.107 Z0.537
X55.75 Y13.194 Z0.533
X55.73 Y13.234 Z0.532
X55.687 Y13.321 Z0.528
X55.665 Y13.366 Z0.526
X55.624 Y13.454 Z0.523
X55.601 Y13.506 Z0.521
X55.578 Y13.56 Z0.519
X53.87 Y13.453 Z0.459
X53.899 Y13.392 Z0.457
X53.965 Y13.264 Z0.452
X54.041 Y13.131 Z0.447
X54.126 Y12.994 Z0.441
X54.221 Y12.85 Z0.435
X54.324 Y12.702 Z0.429
X54.437 Y12.548 Z0.422
X54.558 Y12.389 Z0.415
X54.686 Y12.225 Z0.408
X54.822 Y12.057 Z0.4
X54.902 Y11.959 Z0.396
X55.14 Y11.809 Z0.386
X55.389 Y11.655 Z0.376
X55.631 Y11.51 Z0.366
X55.865 Y11.375 Z0.356
X56.093 Y11.25 Z0.347
X56.313 Y11.138 Z0.339
X56.527 Y11.038 Z0.33
X56.733 Y10.95 Z0.323
X56.933 Y10.876 Z0.315
X57.133 Y10.811 Z0.308
X57.343 Y10.753 Z0.3
X57.562 Y10.703 Z0.292
X57.792 Y10.659 Z0.284
X58.032 Y10.621 Z0.276
X58.282 Y10.59 Z0.267
X58.542 Y10.564 Z0.258
X58.77 Y10.547 Z0.25
X58.721 Y10.563 Z0.248
X58.602 Y10.603 Z0.244
X58.498 Y10.642 Z0.24
X58.383 Y10.688 Z0.235
X58.271 Y10.737 Z0.231
X58.158 Y10.79 Z0.227
X58.052 Y10.843 Z0.223
X57.942 Y10.903 Z0.218
X57.848 Y10.957 Z0.214
X57.741 Y11.022 Z0.21
X57.659 Y11.075 Z0.207
X57.554 Y11.146 Z0.202
X57.485 Y11.195 Z0.199
X57.383 Y11.27 Z0.195
X57.325 Y11.314 Z0.192
X57.225 Y11.394 Z0.188
X57.176 Y11.434 Z0.186
X57.077 Y11.517 Z0.181
X57.039 Y11.55 Z0.179
X56.942 Y11.636 Z0.175
X56.912 Y11.663 Z0.173
X56.815 Y11.752 Z0.169
X56.794 Y11.771 Z0.168
X56.699 Y11.862 Z0.163
X56.684 Y11.876
X56.589 Y11.967 Z0.158
X56.581 Y11.974
X56.487 Y12.067 Z0.153
G2 X56.155 Y12.484 Z0.134 I1.455 J1.496
G1 X56.104 Y12.568 Z0.131
X56.052 Y12.656 Z0.127
X56.044 Y12.668
X55.994 Y12.753 Z0.123
X55.984 Y12.77
X55.935 Y12.855 Z0.119
X55.924 Y12.874 Z0.118
X55.875 Y12.96 Z0.115
X55.86 Y12.987 Z0.114
X55.813 Y13.073 Z0.111
X55.795 Y13.107 Z0.109
X55.75 Y13.194 Z0.106
X55.73 Y13.234 Z0.104
X55.687 Y13.321 Z0.101
X55.665 Y13.366 Z0.099
X55.624 Y13.454 Z0.096
X55.601 Y13.506 Z0.094
X55.578 Y13.56 Z0.092
X53.87 Y13.453 Z0.032
X53.899 Y13.392 Z0.03
X53.965 Y13.264 Z0.025
X54.041 Y13.131 Z0.019
X54.126 Y12.994 Z0.014
X54.221 Y12.85 Z0.008
X54.324 Y12.702 Z0.001
X54.437 Y12.548 Z-0.005
X54.558 Y12.389 Z-0.012
X54.686 Y12.225 Z-0.02
X54.822 Y12.057 Z-0.027
X54.902 Y11.959 Z-0.032
X55.14 Y11.809 Z-0.041
X55.389 Y11.655 Z-0.052
X55.631 Y11.51 Z-0.062
X55.865 Y11.375 Z-0.071
X56.093 Y11.25 Z-0.08
X56.313 Y11.138 Z-0.089
X56.527 Y11.038 Z-0.097
X56.733 Y10.95 Z-0.105
X56.933 Y10.876 Z-0.112
X57.133 Y10.811 Z-0.12
X57.343 Y10.753 Z-0.127
X57.562 Y10.703 Z-0.135
X57.792 Y10.659 Z-0.143
X58.032 Y10.621 Z-0.152
X58.282 Y10.59 Z-0.16
X58.542 Y10.564 Z-0.17
X58.77 Y10.547 Z-0.178
X58.721 Y10.563 Z-0.179
X58.602 Y10.603 Z-0.184
X58.498 Y10.642 Z-0.188
X58.383 Y10.688 Z-0.192
X58.271 Y10.737 Z-0.196
X58.158 Y10.79 Z-0.201
X58.052 Y10.843 Z-0.205
X57.942 Y10.903 Z-0.209
X57.848 Y10.957 Z-0.213
X57.741 Y11.022 Z-0.217
X57.659 Y11.075 Z-0.221
X57.554 Y11.146 Z-0.225
X57.485 Y11.195 Z-0.228
X57.383 Y11.27 Z-0.232
X57.325 Y11.314 Z-0.235
X57.225 Y11.394 Z-0.239
X57.176 Y11.434 Z-0.242
X57.077 Y11.517 Z-0.246
X57.039 Y11.55 Z-0.248
X56.942 Y11.636 Z-0.252
X56.912 Y11.663 Z-0.254
X56.815 Y11.752 Z-0.258
X56.794 Y11.771 Z-0.259
X56.699 Y11.862 Z-0.264
X56.684 Y11.876 Z-0.265
X56.589 Y11.967 Z-0.269
X56.581 Y11.974 Z-0.27
X56.487 Y12.067 Z-0.274
G2 X56.155 Y12.484 Z-0.293 I1.455 J1.496
G1 X56.104 Y12.568 Z-0.296
X56.052 Y12.656 Z-0.3
X56.044 Y12.668 Z-0.301
X55.994 Y12.753 Z-0.304
X55.984 Y12.77 Z-0.305
X55.935 Y12.855 Z-0.308
X55.924 Y12.874 Z-0.309
X55.875 Y12.96 Z-0.312
X55.86 Y12.987 Z-0.313
X55.813 Y13.073 Z-0.317
X55.795 Y13.107 Z-0.318
X55.75 Y13.194 Z-0.322
X55.73 Y13.234 Z-0.323
X55.687 Y13.321 Z-0.327
X55.665 Y13.366 Z-0.328
X55.624 Y13.454 Z-0.332
X55.601 Y13.506 Z-0.334
X55.578 Y13.56 Z-0.336
X53.87 Y13.453 Z-0.395
X53.899 Y13.392 Z-0.398
X53.965 Y13.264 Z-0.403
X54.041 Y13.131 Z-0.408
X54.126 Y12.994 Z-0.414
X54.221 Y12.85 Z-0.42
X54.324 Y12.702 Z-0.426
X54.437 Y12.548 Z-0.433
X54.558 Y12.389 Z-0.44
X54.686 Y12.225 Z-0.447
X54.822 Y12.057 Z-0.455
X54.902 Y11.959 Z-0.459
X55.14 Y11.809 Z-0.469
X55.389 Y11.655 Z-0.479
X55.631 Y11.51 Z-0.489
X55.865 Y11.375 Z-0.498
X56.093 Y11.25 Z-0.507
X56.313 Y11.138 Z-0.516
X56.527 Y11.038 Z-0.524
X56.733 Y10.95 Z-0.532
X56.933 Y10.876 Z-0.54
X57.133 Y10.811 Z-0.547
X57.343 Y10.753 Z-0.554
X57.562 Y10.703 Z-0.562
X57.792 Y10.659 Z-0.571
X58.032 Y10.621 Z-0.579
X58.282 Y10.59 Z-0.588
X58.542 Y10.564 Z-0.597
X58.77 Y10.547 Z-0.605
X58.721 Y10.563 Z-0.607
X58.602 Y10.603 Z-0.611
X58.498 Y10.642 Z-0.615
X58.383 Y10.688 Z-0.619
X58.271 Y10.737 Z-0.624
X58.158 Y10.79 Z-0.628
X58.052 Y10.843 Z-0.632
X57.942 Y10.903 Z-0.636
X57.848 Y10.957 Z-0.64
X57.741 Y11.022 Z-0.645
X57.659 Y11.075 Z-0.648
X57.554 Y11.146 Z-0.652
X57.485 Y11.195 Z-0.655
X57.383 Y11.27 Z-0.66
X57.325 Y11.314 Z-0.662
X57.225 Y11.394 Z-0.667
X57.176 Y11.434 Z-0.669
X57.077 Y11.517 Z-0.674
X57.039 Y11.55 Z-0.675
X56.942 Y11.636 Z-0.68
X56.912 Y11.663 Z-0.681
X56.815 Y11.752 Z-0.686
X56.794 Y11.771 Z-0.687
X56.699 Y11.862 Z-0.691
X56.684 Y11.876 Z-0.692
X56.589 Y11.967 Z-0.697
X56.581 Y11.974
X56.487 Y12.067 Z-0.702
G2 X56.155 Y12.484 Z-0.72 I1.455 J1.496
G1 X56.104 Y12.568 Z-0.724
X56.052 Y12.656 Z-0.727
X56.044 Y12.668 Z-0.728
X55.994 Y12.753 Z-0.731
X55.984 Y12.77 Z-0.732
X55.935 Y12.855 Z-0.735
X55.924 Y12.874 Z-0.736
X55.875 Y12.96 Z-0.74
X55.86 Y12.987 Z-0.741
X55.813 Y13.073 Z-0.744
X55.795 Y13.107 Z-0.746
X55.75 Y13.194 Z-0.749
X55.73 Y13.234 Z-0.751
X55.687 Y13.321 Z-0.754
X55.665 Y13.366 Z-0.756
X55.624 Y13.454 Z-0.759
X55.601 Y13.506 Z-0.761
X55.578 Y13.56 Z-0.763
X53.87 Y13.453 Z-0.823
X53.899 Y13.392 Z-0.825
X53.965 Y13.264 Z-0.83
X54.041 Y13.131 Z-0.836
X54.126 Y12.994 Z-0.841
X54.221 Y12.85 Z-0.847
X54.324 Y12.702 Z-0.854
X54.437 Y12.548 Z-0.86
X54.558 Y12.389 Z-0.867
X54.686 Y12.225 Z-0.874
X54.822 Y12.057 Z-0.882
X54.902 Y11.959 Z-0.886
X55.14 Y11.809 Z-0.896
X55.389 Y11.655 Z-0.906
X55.631 Y11.51 Z-0.916
X55.865 Y11.375 Z-0.926
X56.093 Y11.25 Z-0.935
X56.313 Y11.138 Z-0.943
X56.527 Y11.038 Z-0.952
X56.733 Y10.95 Z-0.959
X56.933 Y10.876 Z-0.967
X57.133 Y10.811 Z-0.974
X57.343 Y10.753 Z-0.982
X57.562 Y10.703 Z-0.99
X57.792 Y10.659 Z-0.998
X58.032 Y10.621 Z-1.006
X58.282 Y10.59 Z-1.015
X58.542 Y10.564 Z-1.024
X58.77 Y10.547 Z-1.032
X58.721 Y10.563 Z-1.034
X58.602 Y10.603 Z-1.038
X58.498 Y10.642 Z-1.042
X58.383 Y10.688 Z-1.047
X58.271 Y10.737 Z-1.051
X58.158 Y10.79 Z-1.055
X58.052 Y10.843 Z-1.059
X57.942 Y10.903 Z-1.064
X57.848 Y10.957 Z-1.068
X57.741 Y11.022 Z-1.072
X57.659 Y11.075 Z-1.075
X57.554 Y11.146 Z-1.08
X57.485 Y11.195 Z-1.083
X57.383 Y11.27 Z-1.087
X57.325 Y11.314 Z-1.09
X57.225 Y11.394 Z-1.094
X57.176 Y11.434 Z-1.096
X57.077 Y11.517 Z-1.101
X57.039 Y11.55 Z-1.103
X56.942 Y11.636 Z-1.107
X56.912 Y11.663 Z-1.109
X56.815 Y11.752 Z-1.113
X56.794 Y11.771 Z-1.114
X56.699 Y11.862 Z-1.119
X56.684 Y11.876 Z-1.12
X56.589 Y11.967 Z-1.124
X56.581 Y11.974
X56.487 Y12.067 Z-1.129
G2 X56.155 Y12.484 Z-1.148 I1.455 J1.496
G1 X56.104 Y12.568 Z-1.151
X56.052 Y12.656 Z-1.155
X56.044 Y12.668
X55.994 Y12.753 Z-1.159
X55.984 Y12.77
X55.935 Y12.855 Z-1.163
X55.924 Y12.874 Z-1.164
X55.875 Y12.96 Z-1.167
X55.86 Y12.987 Z-1.168
X55.813 Y13.073 Z-1.172
X55.795 Y13.107 Z-1.173
X55.75 Y13.194 Z-1.176
X55.73 Y13.234 Z-1.178
X55.687 Y13.321 Z-1.181
X55.665 Y13.366 Z-1.183
X55.624 Y13.454 Z-1.186
X55.601 Y13.506 Z-1.188
X55.578 Y13.56 Z-1.19
X53.87 Y13.453 Z-1.25
X53.899 Y13.392 Z-1.253
X53.965 Y13.264 Z-1.258
X54.041 Y13.131 Z-1.263
X54.126 Y12.994 Z-1.269
X54.221 Y12.85 Z-1.275
X54.324 Y12.702 Z-1.281
X54.437 Y12.548 Z-1.288
X54.558 Y12.389 Z-1.295
X54.686 Y12.225 Z-1.302
X54.822 Y12.057 Z-1.309
X54.902 Y11.959 Z-1.314
X55.14 Y11.809 Z-1.324
X55.389 Y11.655 Z-1.334
X55.631 Y11.51 Z-1.344
X55.865 Y11.375 Z-1.353
X56.093 Y11.25 Z-1.362
X56.313 Y11.138 Z-1.371
X56.527 Y11.038 Z-1.379
X56.733 Y10.95 Z-1.387
X56.933 Y10.876 Z-1.394
X57.133 Y10.811 Z-1.402
X57.343 Y10.753 Z-1.409
X57.562 Y10.703 Z-1.417
X57.792 Y10.659 Z-1.425
X58.032 Y10.621 Z-1.434
X58.282 Y10.59 Z-1.443
X58.542 Y10.564 Z-1.452
X58.77 Y10.547 Z-1.46
X58.721 Y10.563 Z-1.461
X58.602 Y10.603 Z-1.466
X58.498 Y10.642 Z-1.47
X58.383 Y10.688 Z-1.474
X58.271 Y10.737 Z-1.478
X58.158 Y10.79 Z-1.483
X58.052 Y10.843 Z-1.487
X57.942 Y10.903 Z-1.491
X57.848 Y10.957 Z-1.495
X57.741 Y11.022 Z-1.499
X57.659 Y11.075 Z-1.503
X57.554 Y11.146 Z-1.507
X57.485 Y11.195 Z-1.51
X57.383 Y11.27 Z-1.515
X57.325 Y11.314 Z-1.517
X57.225 Y11.394 Z-1.522
X57.176 Y11.434 Z-1.524
X57.077 Y11.517 Z-1.528
X57.039 Y11.55 Z-1.53
X56.942 Y11.636 Z-1.535
X56.912 Y11.663 Z-1.536
X56.815 Y11.752 Z-1.541
X56.794 Y11.771 Z-1.542
X56.699 Y11.862 Z-1.546
X56.684 Y11.876 Z-1.547
X56.589 Y11.967 Z-1.551
X56.581 Y11.974 Z-1.552
X56.487 Y12.067 Z-1.556
G2 X56.155 Y12.484 Z-1.575 I1.455 J1.496
G1 X56.104 Y12.568 Z-1.579
X56.052 Y12.656 Z-1.582
X56.044 Y12.668 Z-1.583
X55.994 Y12.753 Z-1.586
X55.984 Y12.77 Z-1.587
X55.935 Y12.855 Z-1.59
X55.924 Y12.874 Z-1.591
X55.875 Y12.96 Z-1.594
X55.86 Y12.987 Z-1.595
X55.813 Y13.073 Z-1.599
X55.795 Y13.107 Z-1.6
X55.75 Y13.194 Z-1.604
X55.73 Y13.234 Z-1.605
X55.687 Y13.321 Z-1.609
X55.665 Y13.366 Z-1.61
X55.624 Y13.454 Z-1.614
X55.601 Y13.506 Z-1.616
X55.578 Y13.56 Z-1.618
X53.87 Y13.453 Z-1.678
X53.899 Y13.392 Z-1.68
X53.965 Y13.264 Z-1.685
X54.041 Y13.131 Z-1.69
X54.126 Y12.994 Z-1.696
X54.221 Y12.85 Z-1.702
X54.324 Y12.702 Z-1.708
X54.437 Y12.548 Z-1.715
X54.558 Y12.389 Z-1.722
X54.686 Y12.225 Z-1.729
X54.822 Y12.057 Z-1.737
X54.902 Y11.959 Z-1.741
X55.14 Y11.809 Z-1.751
X55.389 Y11.655 Z-1.761
X55.631 Y11.51 Z-1.771
X55.865 Y11.375 Z-1.78
X56.093 Y11.25 Z-1.79
X56.313 Y11.138 Z-1.798
X56.527 Y11.038 Z-1.806
X56.733 Y10.95 Z-1.814
X56.933 Y10.876 Z-1.822
X57.133 Y10.811 Z-1.829
X57.343 Y10.753 Z-1.837
X57.562 Y10.703 Z-1.844
X57.792 Y10.659 Z-1.853
X58.032 Y10.621 Z-1.861
X58.282 Y10.59 Z-1.87
X58.542 Y10.564 Z-1.879
X58.77 Y10.547 Z-1.887
X58.721 Y10.563 Z-1.889
X58.602 Y10.603 Z-1.893
X58.498 Y10.642 Z-1.897
X58.383 Y10.688 Z-1.901
X58.271 Y10.737 Z-1.906
X58.158 Y10.79 Z-1.91
X58.052 Y10.843 Z-1.914
X57.942 Y10.903 Z-1.919
X57.848 Y10.957 Z-1.922
X57.741 Y11.022 Z-1.927
X57.659 Y11.075 Z-1.93
X57.554 Y11.146 Z-1.935
X57.485 Y11.195 Z-1.937
X57.383 Y11.27 Z-1.942
X57.325 Y11.314 Z-1.944
X57.225 Y11.394 Z-1.949
X57.176 Y11.434 Z-1.951
X57.077 Y11.517 Z-1.956
X57.039 Y11.55 Z-1.957
X56.942 Y11.636 Z-1.962
X56.912 Y11.663 Z-1.963
X56.815 Y11.752 Z-1.968
X56.794 Y11.771 Z-1.969
X56.699 Y11.862 Z-1.974
X56.684 Y11.876
X56.589 Y11.967 Z-1.979
X56.581 Y11.974
X56.487 Y12.067 Z-1.984
G2 X56.155 Y12.484 Z-2.003 I1.455 J1.496
G1 X56.104 Y12.568 Z-2.006
X56.052 Y12.656 Z-2.01
X56.044 Y12.668
X55.994 Y12.753 Z-2.013
X55.984 Y12.77 Z-2.014
X55.935 Y12.855 Z-2.018
X55.924 Y12.874
X55.875 Y12.96 Z-2.022
X55.86 Y12.987 Z-2.023
X55.813 Y13.073 Z-2.026
X55.795 Y13.107 Z-2.028
X55.75 Y13.194 Z-2.031
X55.73 Y13.234 Z-2.033
X55.687 Y13.321 Z-2.036
X55.665 Y13.366 Z-2.038
X55.624 Y13.454 Z-2.041
X55.601 Y13.506 Z-2.043
X55.578 Y13.56 Z-2.045
X53.87 Y13.453 Z-2.105
X53.899 Y13.392 Z-2.107
X53.965 Y13.264 Z-2.112
X54.041 Y13.131 Z-2.118
X54.126 Y12.994 Z-2.123
X54.221 Y12.85 Z-2.129
X54.324 Y12.702 Z-2.136
X54.437 Y12.548 Z-2.142
X54.558 Y12.389 Z-2.149
X54.686 Y12.225 Z-2.157
X54.822 Y12.057 Z-2.164
X54.902 Y11.959 Z-2.168
X55.14 Y11.809 Z-2.178
X55.389 Y11.655 Z-2.189
X55.631 Y11.51 Z-2.198
X55.865 Y11.375 Z-2.208
X56.093 Y11.25 Z-2.217
X56.313 Y11.138 Z-2.226
X56.527 Y11.038 Z-2.234
X56.733 Y10.95 Z-2.242
X56.933 Y10.876 Z-2.249
X57.133 Y10.811 Z-2.256
X57.343 Y10.753 Z-2.264
X57.562 Y10.703 Z-2.272
X57.792 Y10.659 Z-2.28
X58.032 Y10.621 Z-2.288
X58.282 Y10.59 Z-2.297
X58.542 Y10.564 Z-2.306
X58.77 Y10.547 Z-2.314
X58.721 Y10.563 Z-2.316
X58.602 Y10.603 Z-2.321
X58.498 Y10.642 Z-2.324
X58.383 Y10.688 Z-2.329
X58.271 Y10.737 Z-2.333
X58.158 Y10.79 Z-2.337
X58.052 Y10.843 Z-2.342
X57.942 Y10.903 Z-2.346
X57.848 Y10.957 Z-2.35
X57.741 Y11.022 Z-2.354
X57.659 Y11.075 Z-2.358
X57.554 Y11.146 Z-2.362
X57.485 Y11.195 Z-2.365
X57.383 Y11.27 Z-2.369
X57.325 Y11.314 Z-2.372
X57.225 Y11.394 Z-2.376
X57.176 Y11.434 Z-2.379
X57.077 Y11.517 Z-2.383
X57.039 Y11.55 Z-2.385
X56.942 Y11.636 Z-2.389
X56.912 Y11.663 Z-2.391
X56.815 Y11.752 Z-2.395
X56.794 Y11.771 Z-2.396
X56.699 Y11.862 Z-2.401
X56.684 Y11.876 Z-2.402
X56.589 Y11.967 Z-2.406
X56.581 Y11.974 Z-2.407
X56.487 Y12.067 Z-2.411
G2 X56.155 Y12.484 Z-2.43 I1.455 J1.496
G1 X56.104 Y12.568 Z-2.433
X56.052 Y12.656 Z-2.437
X56.044 Y12.668
X55.994 Y12.753 Z-2.441
X55.984 Y12.77
X55.935 Y12.855 Z-2.445
X55.924 Y12.874 Z-2.446
X55.875 Y12.96 Z-2.449
X55.86 Y12.987 Z-2.45
X55.813 Y13.073 Z-2.454
X55.795 Y13.107 Z-2.455
X55.75 Y13.194 Z-2.458
X55.73 Y13.234 Z-2.46
X55.687 Y13.321 Z-2.463
X55.665 Y13.366 Z-2.465
X55.624 Y13.454 Z-2.469
X55.601 Y13.506 Z-2.471
X55.578 Y13.56 Z-2.473
X54.793 Y13.511 Z-2.5
X53.87 Y13.453 F1000
X53.899 Y13.392
X53.965 Y13.264
X54.041 Y13.131
X54.126 Y12.994
X54.221 Y12.85
X54.324 Y12.702
X54.437 Y12.548
X54.558 Y12.389
X54.686 Y12.225
X54.822 Y12.057
X54.902 Y11.959
X55.14 Y11.809
X55.389 Y11.655
X55.631 Y11.51
X55.865 Y11.375
X56.093 Y11.25
X56.313 Y11.138
X56.527 Y11.038
X56.733 Y10.95
X56.933 Y10.876
X57.133 Y10.811
X57.343 Y10.753
X57.562 Y10.703
X57.792 Y10.659
X58.032 Y10.621
X58.282 Y10.59
X58.542 Y10.564
X58.77 Y10.547
X58.721 Y10.563
X58.602 Y10.603
X58.498 Y10.642
X58.383 Y10.688
X58.271 Y10.737
X58.158 Y10.79
X58.052 Y10.843
X57.942 Y10.903
X57.848 Y10.957
X57.741 Y11.022
X57.659 Y11.075
X57.554 Y11.146
X57.485 Y11.195
X57.383 Y11.27
X57.325 Y11.314
X57.225 Y11.394
X57.176 Y11.434
X57.077 Y11.517
X57.039 Y11.55
X56.942 Y11.636
X56.912 Y11.663
X56.815 Y11.752
X56.794 Y11.771
X56.699 Y11.862
X56.684 Y11.876
X56.589 Y11.967
X56.581 Y11.974
X56.487 Y12.067
G2 X56.155 Y12.484 I1.455 J1.496
G1 X56.104 Y12.568
X56.052 Y12.656
X56.044 Y12.668
X55.994 Y12.753
X55.984 Y12.77
X55.935 Y12.855
X55.924 Y12.874
X55.875 Y12.96
X55.86 Y12.987
X55.813 Y13.073
X55.795 Y13.107
X55.75 Y13.194
X55.73 Y13.234
X55.687 Y13.321
X55.665 Y13.366
X55.624 Y13.454
X55.601 Y13.506
X55.578 Y13.56
X54.793 Y13.511
X54.733 Y13.501 Z-2.488
X54.676 Y13.48 Z-2.476
X54.631 Y13.454 Z-2.441
X54.592 Y13.422 Z-2.407
X54.548 Y13.369 Z-2.304
X54.535 Y13.348 Z-2.183
G0 Z5
X57.681 Y20.873
G1 Z2.817 F1000
X57.675 Y20.877 Z2.75 F333.3
X57.656 Y20.886 Z2.686
X57.626 Y20.902 Z2.629
X57.589 Y20.922 Z2.583
X57.544 Y20.945 Z2.545
X57.525 Y20.956 Z2.533
X57.485 Y20.977 Z2.515
X57.444 Y21 Z2.504
X57.426 Y21.01 Z2.501
X57.411 Y21.018 Z2.5
X57.345 Y21.055 Z2.497
X57.334 Y21.061
X57.253 Y21.107 Z2.494
X57.168 Y21.156 Z2.49
G2 X56.755 Y21.464 Z2.472 I1.034 J1.814
G1 X56.724 Y21.494 Z2.471
X56.688 Y21.529 Z2.469
X56.674 Y21.543 Z2.468
X56.643 Y21.573 Z2.467
X56.629 Y21.588 Z2.466
X56.599 Y21.618 Z2.465
X56.572 Y21.645 Z2.463
X56.543 Y21.676 Z2.462
X56.514 Y21.707 Z2.46
X56.485 Y21.738 Z2.459
X56.451 Y21.775 Z2.457
X56.424 Y21.807 Z2.456
X56.382 Y21.856 Z2.453
X56.356 Y21.888 Z2.452
X56.312 Y21.943 Z2.449
X56.287 Y21.976 Z2.448
X56.24 Y22.039 Z2.445
X56.217 Y22.072 Z2.444
X56.162 Y22.153 Z2.44
X56.14 Y22.188 Z2.439
X56.087 Y22.276 Z2.435
X56.066 Y22.311 Z2.434
X56.013 Y22.41 Z2.43
X55.995 Y22.446 Z2.429
X55.947 Y22.548 Z2.425
X55.93 Y22.585 Z2.423
X55.89 Y22.685 Z2.419
X55.875 Y22.723 Z2.418
X55.845 Y22.809 Z2.415
X55.832 Y22.848 Z2.413
X55.807 Y22.929 Z2.411
X55.796 Y22.968 Z2.409
X55.778 Y23.038 Z2.407
X55.768 Y23.079 Z2.405
X55.754 Y23.136 Z2.403
X55.745 Y23.177 Z2.402
X55.736 Y23.224 Z2.4
X55.728 Y23.265 Z2.398
X55.72 Y23.308 Z2.397
X55.713 Y23.35 Z2.395
X55.708 Y23.375
X55.702 Y23.417 Z2.393
X55.698 Y23.438 Z2.392
X55.692 Y23.48 Z2.391
X55.685 Y23.528 Z2.389
G2 X55.677 Y24.075 Z2.37 I2.065 J0.303
G1 X55.684 Y24.129 Z2.368
X55.685 Y24.141
X55.692 Y24.195 Z2.366
X55.694 Y24.211 Z2.365
X55.701 Y24.265 Z2.363
X55.705 Y24.294 Z2.362
X55.713 Y24.348 Z2.36
X55.718 Y24.383 Z2.359
X55.727 Y24.436 Z2.357
X55.736 Y24.486 Z2.355
X55.746 Y24.539 Z2.354
X55.757 Y24.596 Z2.352
X55.769 Y24.648 Z2.35
X55.784 Y24.715 Z2.347
X55.797 Y24.766 Z2.345
X55.819 Y24.845 Z2.343
X55.834 Y24.896 Z2.341
X55.86 Y24.98 Z2.338
X55.877 Y25.029 Z2.336
X55.914 Y25.128 Z2.332
X55.933 Y25.176 Z2.33
X55.977 Y25.279 Z2.326
X55.999 Y25.326 Z2.325
X56.051 Y25.431 Z2.321
X56.075 Y25.477 Z2.319
X56.128 Y25.571 Z2.315
X56.155 Y25.615 Z2.313
X56.209 Y25.701 Z2.31
X56.238 Y25.744 Z2.308
X56.287 Y25.815 Z2.305
X56.318 Y25.857 Z2.303
X56.364 Y25.917 Z2.3
X56.396 Y25.959 Z2.298
X56.436 Y26.008 Z2.296
X56.47 Y26.048 Z2.294
X56.509 Y26.093 Z2.292
X56.545 Y26.134 Z2.29
X56.575 Y26.167 Z2.289
X56.611 Y26.206 Z2.287
X56.636 Y26.232 Z2.286
X56.673 Y26.272 Z2.284
X56.69 Y26.289 Z2.283
X56.729 Y26.328 Z2.281
X56.744 Y26.344 Z2.28
X56.783 Y26.382 Z2.278
X56.827 Y26.427 Z2.276
G2 X57.043 Y26.613 Z2.266 I1.47 J-1.482
G1 X57.017 Y26.605 Z2.265
X56.833 Y26.549 Z2.259
X56.645 Y26.489 Z2.252
X56.451 Y26.427 Z2.245
X56.401 Y26.411 Z2.243
X56.286 Y26.353 Z2.238
X56.168 Y26.293 Z2.234
X56.056 Y26.235 Z2.229
X55.95 Y26.179 Z2.225
X55.85 Y26.124 Z2.221
X55.758 Y26.071 Z2.217
X55.673 Y26.02 Z2.214
X55.594 Y25.97 Z2.211
X55.522 Y25.922 Z2.208
X55.457 Y25.875 Z2.205
X55.399 Y25.831 Z2.202
X55.345 Y25.787 Z2.2
X55.29 Y25.738 Z2.197
X55.232 Y25.683 Z2.195
X55.17 Y25.621 Z2.191
X55.104 Y25.553 Z2.188
X55.036 Y25.477 Z2.185
X54.963 Y25.395 Z2.181
X54.888 Y25.306 Z2.177
X54.809 Y25.21 Z2.172
X54.726 Y25.108 Z2.168
X54.654 Y25.018 Z2.164
X54.612 Y24.945 Z2.161
X54.556 Y24.844 Z2.157
X54.505 Y24.749 Z2.153
X54.457 Y24.658 Z2.149
X54.414 Y24.573 Z2.146
X54.375 Y24.494 Z2.143
X54.341 Y24.42 Z2.14
X54.311 Y24.351 Z2.138
X54.286 Y24.288 Z2.135
X54.265 Y24.232 Z2.133
X54.248 Y24.179 Z2.131
X54.233 Y24.127 Z2.129
X54.219 Y24.071 Z2.127
X54.205 Y24.007 Z2.125
X54.191 Y23.935 Z2.122
X54.178 Y23.856 Z2.12
X54.166 Y23.77 Z2.117
X54.154 Y23.676 Z2.113
X54.143 Y23.576 Z2.11
X54.133 Y23.469 Z2.106
X54.123 Y23.355 Z2.102
X54.117 Y23.288 Z2.1
X54.135 Y23.117 Z2.094
X54.153 Y22.954 Z2.088
X54.171 Y22.801 Z2.083
X54.191 Y22.659 Z2.077
X54.213 Y22.527 Z2.073
X54.235 Y22.408 Z2.069
X54.259 Y22.302 Z2.065
X54.284 Y22.207 Z2.061
X54.309 Y22.124 Z2.058
X54.334 Y22.054 Z2.056
X54.359 Y21.994 Z2.053
X54.387 Y21.936 Z2.051
X54.423 Y21.872 Z2.049
X54.467 Y21.8 Z2.046
X54.522 Y21.719 Z2.042
X54.586 Y21.631 Z2.038
X54.66 Y21.536 Z2.034
X54.744 Y21.434 Z2.03
X54.837 Y21.326 Z2.025
X54.94 Y21.211 Z2.019
X55.05 Y21.091 Z2.014
X55.125 Y21.01 Z2.01
X55.138 Y21.001 Z2.009
X55.354 Y20.861 Z2
X55.565 Y20.724 Z1.991
X55.771 Y20.594 Z1.983
X55.974 Y20.469 Z1.975
X56.173 Y20.35 Z1.967
X56.368 Y20.238 Z1.959
X56.559 Y20.133 Z1.951
X56.747 Y20.036 Z1.944
X56.932 Y19.946 Z1.936
X57.118 Y19.862 Z1.929
X57.308 Y19.783 Z1.922
X57.505 Y19.707 Z1.915
X57.709 Y19.633 Z1.907
X57.919 Y19.562 Z1.899
X58.134 Y19.494 Z1.892
X58.356 Y19.428 Z1.884
X58.584 Y19.364 Z1.875
X58.817 Y19.302 Z1.867
X59.056 Y19.24 Z1.858
X59.299 Y19.18 Z1.849
X59.548 Y19.12 Z1.841
X59.801 Y19.06 Z1.831
X60.033 Y19.006 Z1.823
X60.146 Y18.982 Z1.819
X60.291 Y18.952 Z1.814
X60.436 Y18.921 Z1.809
X60.447 Y18.919 Z1.808
X60.586 Y18.888 Z1.803
X60.601 Y18.885
X60.74 Y18.854 Z1.798
X60.759 Y18.849 Z1.797
X60.897 Y18.817 Z1.792
X60.917 Y18.812
X61.055 Y18.778 Z1.787
X61.082 Y18.771 Z1.786
X61.219 Y18.736 Z1.781
X61.247 Y18.728 Z1.78
X61.383 Y18.691 Z1.775
X61.415 Y18.682 Z1.774
X61.551 Y18.642 Z1.769
X61.587 Y18.631 Z1.767
X61.722 Y18.589 Z1.762
X61.763 Y18.576 Z1.761
X61.896 Y18.531 Z1.756
X61.937 Y18.517 Z1.754
X62.069 Y18.47 Z1.75
X62.116 Y18.453 Z1.748
X62.247 Y18.402 Z1.743
X62.296 Y18.383 Z1.741
X62.426 Y18.329 Z1.736
X62.477 Y18.307 Z1.734
X62.606 Y18.25 Z1.729
X62.65 Y18.229 Z1.728
X62.777 Y18.169 Z1.723
X62.816 Y18.15 Z1.721
X62.943 Y18.087 Z1.716
X62.976 Y18.07 Z1.715
X63.101 Y18.005 Z1.71
X63.129 Y17.99 Z1.709
X63.254 Y17.922 Z1.704
X63.274 Y17.911 Z1.703
X63.398 Y17.843 Z1.698
X63.415 Y17.833 Z1.697
X63.539 Y17.763 Z1.693
X63.549 Y17.757 Z1.692
X63.672 Y17.686 Z1.687
X63.8 Y17.612 Z1.682
G2 X64.253 Y17.258 Z1.662 I-1.045 J-1.807
G1 X64.301 Y17.209 Z1.659
X64.354 Y17.154 Z1.657
X64.365 Y17.143 Z1.656
X64.412 Y17.093 Z1.654
X64.43 Y17.074 Z1.653
X64.476 Y17.024 Z1.651
X64.498 Y17 Z1.649
X64.543 Y16.95 Z1.647
X64.57 Y16.919 Z1.646
X64.613 Y16.868 Z1.643
X64.648 Y16.827 Z1.641
X64.69 Y16.775 Z1.639
X64.729 Y16.726 Z1.637
X64.769 Y16.674 Z1.635
X64.809 Y16.619 Z1.632
X64.848 Y16.566 Z1.63
X64.895 Y16.498 Z1.627
X64.931 Y16.443 Z1.625
X64.978 Y16.367 Z1.622
X65.012 Y16.311 Z1.619
X65.061 Y16.225 Z1.616
X65.091 Y16.168 Z1.614
X65.142 Y16.066 Z1.61
X65.17 Y16.008 Z1.607
X65.213 Y15.909 Z1.604
X65.237 Y15.849 Z1.601
X65.272 Y15.756 Z1.598
X65.294 Y15.695 Z1.596
X65.322 Y15.608 Z1.592
X65.341 Y15.546 Z1.59
X65.363 Y15.469 Z1.587
X65.38 Y15.405 Z1.585
X65.395 Y15.341 Z1.583
X65.41 Y15.276 Z1.58
X65.422 Y15.221 Z1.578
X65.435 Y15.155 Z1.576
X65.444 Y15.106 Z1.574
X65.456 Y15.04 Z1.572
X65.461 Y15.007 Z1.571
X65.472 Y14.941 Z1.569
X65.477 Y14.911 Z1.567
X65.486 Y14.844 Z1.565
X65.489 Y14.825 Z1.564
X65.498 Y14.758 Z1.562
X65.508 Y14.681 Z1.559
G2 Y14.142 Z1.541 I-2.07 J-0.27
G1 X65.499 Y14.072 Z1.538
X65.489 Y13.993 Z1.535
X65.486 Y13.977
X65.477 Y13.908 Z1.532
X65.472 Y13.877 Z1.531
X65.461 Y13.807 Z1.529
X65.455 Y13.769 Z1.527
X65.443 Y13.701 Z1.525
X65.434 Y13.654 Z1.523
X65.42 Y13.586 Z1.521
X65.408 Y13.53 Z1.519
X65.393 Y13.463 Z1.516
X65.376 Y13.394 Z1.514
X65.358 Y13.328 Z1.512
X65.337 Y13.253 Z1.509
X65.317 Y13.188 Z1.506
X65.289 Y13.101 Z1.503
X65.266 Y13.037 Z1.501
X65.229 Y12.941 Z1.497
X65.204 Y12.878 Z1.495
X65.158 Y12.775 Z1.491
X65.13 Y12.715 Z1.489
X65.079 Y12.614 Z1.485
X65.047 Y12.555 Z1.482
X64.994 Y12.464 Z1.479
X64.959 Y12.407 Z1.476
X64.91 Y12.329 Z1.473
X64.872 Y12.273 Z1.471
X64.823 Y12.203 Z1.468
X64.782 Y12.148 Z1.465
X64.74 Y12.093 Z1.463
X64.698 Y12.039 Z1.461
X64.658 Y11.989 Z1.458
X64.613 Y11.936 Z1.456
X64.578 Y11.894 Z1.454
X64.532 Y11.842 Z1.452
X64.503 Y11.81 Z1.45
X64.456 Y11.759 Z1.448
X64.431 Y11.732 Z1.446
X64.382 Y11.681 Z1.444
X64.366 Y11.664 Z1.443
X64.317 Y11.614 Z1.441
X64.304 Y11.6 Z1.44
X64.254 Y11.55 Z1.438
X64.247 Y11.543 Z1.437
X64.196 Y11.492 Z1.435
G2 X63.849 Y11.212 Z1.419 I-1.476 J1.476
G1 X63.771 Y11.162 Z1.416
X63.762 Y11.157 Z1.415
X63.685 Y11.107 Z1.412
X63.673 Y11.1
X63.595 Y11.051 Z1.409
X63.573 Y11.037 Z1.408
X63.495 Y10.99 Z1.404
X63.467 Y10.973 Z1.403
X63.388 Y10.927 Z1.4
X63.351 Y10.906 Z1.399
X63.272 Y10.862 Z1.395
X63.228 Y10.837 Z1.394
X63.148 Y10.795 Z1.391
X63.096 Y10.768 Z1.389
X63.015 Y10.729 Z1.385
X62.953 Y10.699 Z1.383
X62.918 Y10.683 Z1.382
X62.997 Y10.7 Z1.379
X63.151 Y10.735 Z1.373
X63.309 Y10.775 Z1.368
X63.472 Y10.819 Z1.362
X63.639 Y10.867 Z1.356
X63.81 Y10.919 Z1.349
X63.986 Y10.974 Z1.343
X64.166 Y11.033 Z1.336
X64.35 Y11.095 Z1.33
X64.538 Y11.159 Z1.323
X64.588 Y11.176 Z1.321
X64.597 Y11.18 Z1.32
X64.735 Y11.252 Z1.315
X64.868 Y11.322 Z1.31
X64.994 Y11.389 Z1.305
X65.114 Y11.455 Z1.3
X65.227 Y11.52 Z1.295
X65.333 Y11.583 Z1.291
X65.431 Y11.644 Z1.287
X65.523 Y11.704 Z1.283
X65.607 Y11.763 Z1.28
X65.683 Y11.819 Z1.276
X65.753 Y11.875 Z1.273
X65.82 Y11.932 Z1.27
X65.888 Y11.994 Z1.267
X65.959 Y12.064 Z1.264
X66.034 Y12.141 Z1.26
X66.111 Y12.225 Z1.256
X66.192 Y12.316 Z1.252
X66.275 Y12.413 Z1.247
X66.361 Y12.518 Z1.242
X66.451 Y12.629 Z1.237
X66.543 Y12.746 Z1.232
X66.638 Y12.868 Z1.227
X66.715 Y13.004 Z1.221
X66.784 Y13.129 Z1.216
X66.848 Y13.249 Z1.212
X66.908 Y13.364 Z1.207
X66.963 Y13.474 Z1.203
X67.013 Y13.577 Z1.199
X67.058 Y13.675 Z1.195
X67.098 Y13.769 Z1.191
X67.132 Y13.857 Z1.188
X67.161 Y13.938 Z1.185
X67.186 Y14.015 Z1.182
X67.208 Y14.094 Z1.179
X67.229 Y14.178 Z1.176
X67.248 Y14.27 Z1.173
X67.266 Y14.369 Z1.17
X67.283 Y14.476 Z1.166
X67.299 Y14.59 Z1.162
X67.313 Y14.711 Z1.158
X67.326 Y14.84 Z1.153
X67.338 Y14.976 Z1.148
X67.349 Y15.118 Z1.143
X67.36 Y15.266 Z1.138
X67.362 Y15.285 Z1.137
X67.355 Y15.398 Z1.133
X67.347 Y15.514 Z1.129
X67.339 Y15.623 Z1.126
X67.33 Y15.728 Z1.122
X67.32 Y15.825 Z1.118
X67.309 Y15.916 Z1.115
X67.297 Y16.001 Z1.112
X67.285 Y16.078 Z1.11
X67.272 Y16.149 Z1.107
X67.258 Y16.214 Z1.105
X67.243 Y16.272 Z1.103
X67.227 Y16.328 Z1.101
X67.207 Y16.389 Z1.098
X67.184 Y16.456 Z1.096
X67.156 Y16.528 Z1.093
X67.125 Y16.604 Z1.09
X67.089 Y16.687 Z1.087
X67.048 Y16.776 Z1.084
X67.004 Y16.869 Z1.08
X66.956 Y16.968 Z1.076
X66.905 Y17.072 Z1.072
X66.874 Y17.133 Z1.07
X66.817 Y17.209 Z1.067
X66.739 Y17.311 Z1.062
X66.665 Y17.406 Z1.058
X66.594 Y17.496 Z1.054
X66.525 Y17.579 Z1.05
X66.46 Y17.656 Z1.047
X66.398 Y17.725 Z1.043
X66.338 Y17.789 Z1.04
X66.282 Y17.845 Z1.038
X66.23 Y17.895 Z1.035
X66.177 Y17.942 Z1.032
X66.119 Y17.99 Z1.03
X66.055 Y18.039 Z1.027
X65.984 Y18.091 Z1.024
X65.907 Y18.145 Z1.021
X65.825 Y18.2 Z1.017
X65.735 Y18.257 Z1.014
X65.639 Y18.316 Z1.01
X65.537 Y18.377 Z1.005
X65.43 Y18.44 Z1.001
X65.317 Y18.504 Z0.997
X65.199 Y18.571 Z0.992
X65.187 Y18.577 Z0.991
X65.073 Y18.624 Z0.987
X64.842 Y18.718 Z0.978
X64.614 Y18.81 Z0.97
X64.388 Y18.901 Z0.961
X64.164 Y18.988 Z0.953
X63.943 Y19.073 Z0.945
X63.724 Y19.155 Z0.936
X63.508 Y19.233 Z0.928
X63.293 Y19.307 Z0.92
X63.08 Y19.378 Z0.913
X62.866 Y19.446 Z0.905
X62.65 Y19.512 Z0.897
X62.43 Y19.575 Z0.889
X62.208 Y19.637 Z0.881
X61.982 Y19.696 Z0.873
X61.754 Y19.755 Z0.864
X61.523 Y19.812 Z0.856
X61.29 Y19.868 Z0.848
X61.054 Y19.922 Z0.839
X60.815 Y19.977 Z0.831
X60.574 Y20.03 Z0.822
X60.332 Y20.084 Z0.814
X60.086 Y20.137 Z0.805
X59.86 Y20.186 Z0.797
X59.79 Y20.2 Z0.794
X59.694 Y20.219 Z0.791
X59.596 Y20.238 Z0.787
X59.584 Y20.241
X59.493 Y20.259 Z0.784
X59.479 Y20.262 Z0.783
X59.388 Y20.282 Z0.78
X59.369 Y20.286 Z0.779
X59.279 Y20.306 Z0.776
X59.258 Y20.311 Z0.775
X59.167 Y20.332 Z0.772
X59.142 Y20.338 Z0.771
X59.052 Y20.36 Z0.768
X59.022 Y20.368 Z0.767
X58.932 Y20.391 Z0.763
X58.899 Y20.4 Z0.762
X58.81 Y20.425 Z0.759
X58.774 Y20.436 Z0.758
X58.686 Y20.462 Z0.755
X58.646 Y20.475 Z0.753
X58.559 Y20.503 Z0.75
X58.514 Y20.518 Z0.748
X58.427 Y20.548 Z0.745
X58.382 Y20.564 Z0.743
X58.296 Y20.596 Z0.74
X58.246 Y20.616 Z0.738
X58.161 Y20.65 Z0.735
X58.109 Y20.672 Z0.733
X58.024 Y20.708 Z0.73
X57.978 Y20.729 Z0.728
X57.894 Y20.768 Z0.725
X57.856 Y20.786 Z0.723
X57.773 Y20.827 Z0.72
X57.738 Y20.844 Z0.719
X57.656 Y20.886 Z0.716
X57.626 Y20.902 Z0.714
X57.544 Y20.945 Z0.711
X57.525 Y20.956 Z0.71
X57.444 Y21 Z0.707
X57.426 Y21.01 Z0.706
X57.345 Y21.055 Z0.703
X57.334 Y21.061
X57.253 Y21.107 Z0.7
X57.168 Y21.156 Z0.696
G2 X56.755 Y21.464 Z0.678 I1.034 J1.814
G1 X56.724 Y21.494 Z0.677
X56.688 Y21.529 Z0.675
X56.674 Y21.543 Z0.674
X56.643 Y21.573 Z0.673
X56.629 Y21.588 Z0.672
X56.599 Y21.618 Z0.67
X56.572 Y21.645 Z0.669
X56.543 Y21.676 Z0.668
X56.514 Y21.707 Z0.666
X56.485 Y21.738 Z0.665
X56.451 Y21.775 Z0.663
X56.424 Y21.807 Z0.661
X56.382 Y21.856 Z0.659
X56.356 Y21.888 Z0.658
X56.312 Y21.943 Z0.655
X56.287 Y21.976 Z0.654
X56.24 Y22.039 Z0.651
X56.217 Y22.072 Z0.65
X56.162 Y22.153 Z0.646
X56.14 Y22.188 Z0.645
X56.087 Y22.276 Z0.641
X56.066 Y22.311 Z0.64
X56.013 Y22.41 Z0.636
X55.995 Y22.446 Z0.634
X55.947 Y22.548 Z0.631
X55.93 Y22.585 Z0.629
X55.89 Y22.685 Z0.625
X55.875 Y22.723 Z0.624
X55.845 Y22.809 Z0.621
X55.832 Y22.848 Z0.619
X55.807 Y22.929 Z0.616
X55.796 Y22.968 Z0.615
X55.778 Y23.038 Z0.612
X55.768 Y23.079 Z0.611
X55.754 Y23.136 Z0.609
X55.745 Y23.177 Z0.607
X55.736 Y23.224 Z0.606
X55.728 Y23.265 Z0.604
X55.72 Y23.308 Z0.603
X55.713 Y23.35 Z0.601
X55.708 Y23.375 Z0.6
X55.702 Y23.417 Z0.599
X55.698 Y23.438 Z0.598
X55.692 Y23.48 Z0.597
X55.685 Y23.528 Z0.595
G2 X55.677 Y24.075 Z0.576 I2.065 J0.303
G1 X55.684 Y24.129 Z0.574
X55.685 Y24.141 Z0.573
X55.692 Y24.195 Z0.572
X55.694 Y24.211 Z0.571
X55.701 Y24.265 Z0.569
X55.705 Y24.294 Z0.568
X55.713 Y24.348 Z0.566
X55.718 Y24.383 Z0.565
X55.727 Y24.436 Z0.563
X55.736 Y24.486 Z0.561
X55.746 Y24.539 Z0.559
X55.757 Y24.596 Z0.557
X55.769 Y24.648 Z0.556
X55.784 Y24.715 Z0.553
X55.797 Y24.766 Z0.551
X55.819 Y24.845 Z0.548
X55.834 Y24.896 Z0.547
X55.86 Y24.98 Z0.544
X55.877 Y25.029 Z0.542
X55.914 Y25.128 Z0.538
X55.933 Y25.176 Z0.536
X55.977 Y25.279 Z0.532
X55.999 Y25.326 Z0.53
X56.051 Y25.431 Z0.526
X56.075 Y25.477 Z0.525
X56.128 Y25.571 Z0.521
X56.155 Y25.615 Z0.519
X56.209 Y25.701 Z0.515
X56.238 Y25.744 Z0.514
X56.287 Y25.815 Z0.511
X56.318 Y25.857 Z0.509
X56.364 Y25.917 Z0.506
X56.396 Y25.959 Z0.504
X56.436 Y26.008 Z0.502
X56.47 Y26.048 Z0.5
X56.509 Y26.093 Z0.498
X56.545 Y26.134 Z0.496
X56.575 Y26.167 Z0.495
X56.611 Y26.206 Z0.493
X56.636 Y26.232 Z0.492
X56.673 Y26.272 Z0.49
X56.69 Y26.289 Z0.489
X56.729 Y26.328 Z0.487
X56.744 Y26.344 Z0.486
X56.783 Y26.382 Z0.484
X56.827 Y26.427 Z0.482
G2 X57.043 Y26.613 Z0.472 I1.47 J-1.482
G1 X57.017 Y26.605 Z0.471
X56.833 Y26.549 Z0.464
X56.645 Y26.489 Z0.458
X56.451 Y26.427 Z0.45
X56.401 Y26.411 Z0.449
X56.286 Y26.353 Z0.444
X56.168 Y26.293 Z0.44
X56.056 Y26.235 Z0.435
X55.95 Y26.179 Z0.431
X55.85 Y26.124 Z0.427
X55.758 Y26.071 Z0.423
X55.673 Y26.02 Z0.42
X55.594 Y25.97 Z0.417
X55.522 Y25.922 Z0.413
X55.457 Y25.875 Z0.411
X55.399 Y25.831 Z0.408
X55.345 Y25.787 Z0.406
X55.29 Y25.738 Z0.403
X55.232 Y25.683 Z0.4
X55.17 Y25.621 Z0.397
X55.104 Y25.553 Z0.394
X55.036 Y25.477 Z0.39
X54.963 Y25.395 Z0.387
X54.888 Y25.306 Z0.383
X54.809 Y25.21 Z0.378
X54.726 Y25.108 Z0.374
X54.654 Y25.018 Z0.37
X54.612 Y24.945 Z0.367
X54.556 Y24.844 Z0.363
X54.505 Y24.749 Z0.359
X54.457 Y24.658 Z0.355
X54.414 Y24.573 Z0.352
X54.375 Y24.494 Z0.349
X54.341 Y24.42 Z0.346
X54.311 Y24.351 Z0.343
X54.286 Y24.288 Z0.341
X54.265 Y24.232 Z0.339
X54.248 Y24.179 Z0.337
X54.233 Y24.127 Z0.335
X54.219 Y24.071 Z0.333
X54.205 Y24.007 Z0.331
X54.191 Y23.935 Z0.328
X54.178 Y23.856 Z0.325
X54.166 Y23.77 Z0.322
X54.154 Y23.676 Z0.319
X54.143 Y23.576 Z0.316
X54.133 Y23.469 Z0.312
X54.123 Y23.355 Z0.308
X54.117 Y23.288 Z0.305
X54.135 Y23.117 Z0.299
X54.153 Y22.954 Z0.294
X54.171 Y22.801 Z0.288
X54.191 Y22.659 Z0.283
X54.213 Y22.527 Z0.279
X54.235 Y22.408 Z0.274
X54.259 Y22.302 Z0.271
X54.284 Y22.207 Z0.267
X54.309 Y22.124 Z0.264
X54.334 Y22.054 Z0.262
X54.359 Y21.994 Z0.259
X54.387 Y21.936 Z0.257
X54.423 Y21.872 Z0.255
X54.467 Y21.8 Z0.252
X54.522 Y21.719 Z0.248
X54.586 Y21.631 Z0.244
X54.66 Y21.536 Z0.24
X54.744 Y21.434 Z0.236
X54.837 Y21.326 Z0.231
X54.94 Y21.211 Z0.225
X55.05 Y21.091 Z0.219
X55.125 Y21.01 Z0.216
X55.138 Y21.001 Z0.215
X55.354 Y20.861 Z0.206
X55.565 Y20.724 Z0.197
X55.771 Y20.594 Z0.189
X55.974 Y20.469 Z0.18
X56.173 Y20.35 Z0.172
X56.368 Y20.238 Z0.165
X56.559 Y20.133 Z0.157
X56.747 Y20.036 Z0.15
X56.932 Y19.946 Z0.142
X57.118 Y19.862 Z0.135
X57.308 Y19.783 Z0.128
X57.505 Y19.707 Z0.121
X57.709 Y19.633 Z0.113
X57.919 Y19.562 Z0.105
X58.134 Y19.494 Z0.097
X58.356 Y19.428 Z0.089
X58.584 Y19.364 Z0.081
X58.817 Y19.302 Z0.073
X59.056 Y19.24 Z0.064
X59.299 Y19.18 Z0.055
X59.548 Y19.12 Z0.046
X59.801 Y19.06 Z0.037
X60.033 Y19.006 Z0.029
X60.146 Y18.982 Z0.025
X60.291 Y18.952 Z0.02
X60.436 Y18.921 Z0.015
X60.447 Y18.919 Z0.014
X60.586 Y18.888 Z0.009
X60.601 Y18.885
X60.74 Y18.854 Z0.004
X60.759 Y18.849 Z0.003
X60.897 Y18.817 Z-0.002
X60.917 Y18.812 Z-0.003
X61.055 Y18.778 Z-0.008
X61.082 Y18.771 Z-0.009
X61.219 Y18.736 Z-0.014
X61.247 Y18.728 Z-0.015
X61.383 Y18.691 Z-0.019
X61.415 Y18.682 Z-0.021
X61.551 Y18.642 Z-0.026
X61.587 Y18.631 Z-0.027
X61.722 Y18.589 Z-0.032
X61.763 Y18.576 Z-0.033
X61.896 Y18.531 Z-0.038
X61.937 Y18.517 Z-0.04
X62.069 Y18.47 Z-0.045
X62.116 Y18.453 Z-0.046
X62.247 Y18.402 Z-0.051
X62.296 Y18.383 Z-0.053
X62.426 Y18.329 Z-0.058
X62.477 Y18.307 Z-0.06
X62.606 Y18.25 Z-0.065
X62.65 Y18.229 Z-0.067
X62.777 Y18.169 Z-0.072
X62.816 Y18.15 Z-0.073
X62.943 Y18.087 Z-0.078
X62.976 Y18.07 Z-0.079
X63.101 Y18.005 Z-0.084
X63.129 Y17.99 Z-0.085
X63.254 Y17.922 Z-0.09
X63.274 Y17.911 Z-0.091
X63.398 Y17.843 Z-0.096
X63.415 Y17.833 Z-0.097
X63.539 Y17.763 Z-0.102
X63.549 Y17.757
X63.672 Y17.686 Z-0.107
X63.8 Y17.612 Z-0.112
G2 X64.253 Y17.258 Z-0.132 I-1.045 J-1.807
G1 X64.301 Y17.209 Z-0.135
X64.354 Y17.154 Z-0.137
X64.365 Y17.143 Z-0.138
X64.412 Y17.093 Z-0.14
X64.43 Y17.074 Z-0.141
X64.476 Y17.024 Z-0.144
X64.498 Y17 Z-0.145
X64.543 Y16.95 Z-0.147
X64.57 Y16.919 Z-0.149
X64.613 Y16.868 Z-0.151
X64.648 Y16.827 Z-0.153
X64.69 Y16.775 Z-0.155
X64.729 Y16.726 Z-0.157
X64.769 Y16.674 Z-0.16
X64.809 Y16.619 Z-0.162
X64.848 Y16.566 Z-0.164
X64.895 Y16.498 Z-0.167
X64.931 Y16.443 Z-0.169
X64.978 Y16.367 Z-0.173
X65.012 Y16.311 Z-0.175
X65.061 Y16.225 Z-0.178
X65.091 Y16.168 Z-0.181
X65.142 Y16.066 Z-0.185
X65.17 Y16.008 Z-0.187
X65.213 Y15.909 Z-0.191
X65.237 Y15.849 Z-0.193
X65.272 Y15.756 Z-0.196
X65.294 Y15.695 Z-0.199
X65.322 Y15.608 Z-0.202
X65.341 Y15.546 Z-0.204
X65.363 Y15.469 Z-0.207
X65.38 Y15.405 Z-0.209
X65.395 Y15.341 Z-0.211
X65.41 Y15.276 Z-0.214
X65.422 Y15.221 Z-0.216
X65.435 Y15.155 Z-0.218
X65.444 Y15.106 Z-0.22
X65.456 Y15.04 Z-0.222
X65.461 Y15.007 Z-0.223
X65.472 Y14.941 Z-0.226
X65.477 Y14.911 Z-0.227
X65.486 Y14.844 Z-0.229
X65.489 Y14.825 Z-0.23
X65.498 Y14.758 Z-0.232
X65.508 Y14.681 Z-0.235
G2 Y14.142 Z-0.254 I-2.07 J-0.27
G1 X65.499 Y14.072 Z-0.256
X65.489 Y13.993 Z-0.259
X65.486 Y13.977
X65.477 Y13.908 Z-0.262
X65.472 Y13.877 Z-0.263
X65.461 Y13.807 Z-0.265
X65.455 Y13.769 Z-0.267
X65.443 Y13.701 Z-0.269
X65.434 Y13.654 Z-0.271
X65.42 Y13.586 Z-0.273
X65.408 Y13.53 Z-0.275
X65.393 Y13.463 Z-0.278
X65.376 Y13.394 Z-0.28
X65.358 Y13.328 Z-0.283
X65.337 Y13.253 Z-0.285
X65.317 Y13.188 Z-0.288
X65.289 Y13.101 Z-0.291
X65.266 Y13.037 Z-0.293
X65.229 Y12.941 Z-0.297
X65.204 Y12.878 Z-0.299
X65.158 Y12.775 Z-0.303
X65.13 Y12.715 Z-0.305
X65.079 Y12.614 Z-0.309
X65.047 Y12.555 Z-0.312
X64.994 Y12.464 Z-0.315
X64.959 Y12.407 Z-0.318
X64.91 Y12.329 Z-0.321
X64.872 Y12.273 Z-0.323
X64.823 Y12.203 Z-0.326
X64.782 Y12.148 Z-0.329
X64.74 Y12.093 Z-0.331
X64.698 Y12.039 Z-0.334
X64.658 Y11.989 Z-0.336
X64.613 Y11.936 Z-0.338
X64.578 Y11.894 Z-0.34
X64.532 Y11.842 Z-0.343
X64.503 Y11.81 Z-0.344
X64.456 Y11.759 Z-0.346
X64.431 Y11.732 Z-0.348
X64.382 Y11.681 Z-0.35
X64.366 Y11.664 Z-0.351
X64.317 Y11.614 Z-0.353
X64.304 Y11.6 Z-0.354
X64.254 Y11.55 Z-0.357
X64.247 Y11.543
X64.196 Y11.492 Z-0.359
G2 X63.849 Y11.212 Z-0.375 I-1.476 J1.476
G1 X63.771 Y11.162 Z-0.378
X63.762 Y11.157 Z-0.379
X63.685 Y11.107 Z-0.382
X63.673 Y11.1
X63.595 Y11.051 Z-0.386
X63.573 Y11.037
X63.495 Y10.99 Z-0.39
X63.467 Y10.973 Z-0.391
X63.388 Y10.927 Z-0.394
X63.351 Y10.906 Z-0.395
X63.272 Y10.862 Z-0.399
X63.228 Y10.837 Z-0.4
X63.148 Y10.795 Z-0.404
X63.096 Y10.768 Z-0.406
X63.015 Y10.729 Z-0.409
X62.953 Y10.699 Z-0.411
X62.918 Y10.683 Z-0.413
X62.997 Y10.7 Z-0.415
X63.151 Y10.735 Z-0.421
X63.309 Y10.775 Z-0.427
X63.472 Y10.819 Z-0.432
X63.639 Y10.867 Z-0.439
X63.81 Y10.919 Z-0.445
X63.986 Y10.974 Z-0.451
X64.166 Y11.033 Z-0.458
X64.35 Y11.095 Z-0.465
X64.538 Y11.159 Z-0.472
X64.588 Y11.176 Z-0.473
X64.597 Y11.18 Z-0.474
X64.735 Y11.252 Z-0.479
X64.868 Y11.322 Z-0.484
X64.994 Y11.389 Z-0.489
X65.114 Y11.455 Z-0.494
X65.227 Y11.52 Z-0.499
X65.333 Y11.583 Z-0.503
X65.431 Y11.644 Z-0.507
X65.523 Y11.704 Z-0.511
X65.607 Y11.763 Z-0.514
X65.683 Y11.819 Z-0.518
X65.753 Y11.875 Z-0.521
X65.82 Y11.932 Z-0.524
X65.888 Y11.994 Z-0.527
X65.959 Y12.064 Z-0.531
X66.034 Y12.141 Z-0.534
X66.111 Y12.225 Z-0.538
X66.192 Y12.316 Z-0.543
X66.275 Y12.413 Z-0.547
X66.361 Y12.518 Z-0.552
X66.451 Y12.629 Z-0.557
X66.543 Y12.746 Z-0.562
X66.638 Y12.868 Z-0.567
X66.715 Y13.004 Z-0.573
X66.784 Y13.129 Z-0.578
X66.848 Y13.249 Z-0.583
X66.908 Y13.364 Z-0.587
X66.963 Y13.474 Z-0.591
X67.013 Y13.577 Z-0.595
X67.058 Y13.675 Z-0.599
X67.098 Y13.769 Z-0.603
X67.132 Y13.857 Z-0.606
X67.161 Y13.938 Z-0.609
X67.186 Y14.015 Z-0.612
X67.208 Y14.094 Z-0.615
X67.229 Y14.178 Z-0.618
X67.248 Y14.27 Z-0.621
X67.266 Y14.369 Z-0.625
X67.283 Y14.476 Z-0.628
X67.299 Y14.59 Z-0.632
X67.313 Y14.711 Z-0.637
X67.326 Y14.84 Z-0.641
X67.338 Y14.976 Z-0.646
X67.349 Y15.118 Z-0.651
X67.36 Y15.266 Z-0.656
X67.362 Y15.285 Z-0.657
X67.355 Y15.398 Z-0.661
X67.347 Y15.514 Z-0.665
X67.339 Y15.623 Z-0.669
X67.33 Y15.728 Z-0.672
X67.32 Y15.825 Z-0.676
X67.309 Y15.916 Z-0.679
X67.297 Y16.001 Z-0.682
X67.285 Y16.078 Z-0.685
X67.272 Y16.149 Z-0.687
X67.258 Y16.214 Z-0.689
X67.243 Y16.272 Z-0.692
X67.227 Y16.328 Z-0.694
X67.207 Y16.389 Z-0.696
X67.184 Y16.456 Z-0.698
X67.156 Y16.528 Z-0.701
X67.125 Y16.604 Z-0.704
X67.089 Y16.687 Z-0.707
X67.048 Y16.776 Z-0.71
X67.004 Y16.869 Z-0.714
X66.956 Y16.968 Z-0.718
X66.905 Y17.072 Z-0.722
X66.874 Y17.133 Z-0.724
X66.817 Y17.209 Z-0.728
X66.739 Y17.311 Z-0.732
X66.665 Y17.406 Z-0.736
X66.594 Y17.496 Z-0.74
X66.525 Y17.579 Z-0.744
X66.46 Y17.656 Z-0.748
X66.398 Y17.725 Z-0.751
X66.338 Y17.789 Z-0.754
X66.282 Y17.845 Z-0.757
X66.23 Y17.895 Z-0.759
X66.177 Y17.942 Z-0.762
X66.119 Y17.99 Z-0.764
X66.055 Y18.039 Z-0.767
X65.984 Y18.091 Z-0.77
X65.907 Y18.145 Z-0.773
X65.825 Y18.2 Z-0.777
X65.735 Y18.257 Z-0.781
X65.639 Y18.316 Z-0.785
X65.537 Y18.377 Z-0.789
X65.43 Y18.44 Z-0.793
X65.317 Y18.504 Z-0.798
X65.199 Y18.571 Z-0.802
X65.187 Y18.577 Z-0.803
X65.073 Y18.624 Z-0.807
X64.842 Y18.718 Z-0.816
X64.614 Y18.81 Z-0.824
X64.388 Y18.901 Z-0.833
X64.164 Y18.988 Z-0.841
X63.943 Y19.073 Z-0.85
X63.724 Y19.155 Z-0.858
X63.508 Y19.233 Z-0.866
X63.293 Y19.307 Z-0.874
X63.08 Y19.378 Z-0.882
X62.866 Y19.446 Z-0.889
X62.65 Y19.512 Z-0.897
X62.43 Y19.575 Z-0.905
X62.208 Y19.637 Z-0.913
X61.982 Y19.696 Z-0.921
X61.754 Y19.755 Z-0.93
X61.523 Y19.812 Z-0.938
X61.29 Y19.868 Z-0.946
X61.054 Y19.922 Z-0.955
X60.815 Y19.977 Z-0.963
X60.574 Y20.03 Z-0.972
X60.332 Y20.084 Z-0.981
X60.086 Y20.137 Z-0.989
X59.86 Y20.186 Z-0.998
X59.79 Y20.2 Z-1
X59.694 Y20.219 Z-1.003
X59.596 Y20.238 Z-1.007
X59.584 Y20.241
X59.493 Y20.259 Z-1.011
X59.479 Y20.262
X59.388 Y20.282 Z-1.014
X59.369 Y20.286 Z-1.015
X59.279 Y20.306 Z-1.018
X59.258 Y20.311 Z-1.019
X59.167 Y20.332 Z-1.022
X59.142 Y20.338 Z-1.023
X59.052 Y20.36 Z-1.026
X59.022 Y20.368 Z-1.027
X58.932 Y20.391 Z-1.031
X58.899 Y20.4 Z-1.032
X58.81 Y20.425 Z-1.035
X58.774 Y20.436 Z-1.036
X58.686 Y20.462 Z-1.04
X58.646 Y20.475 Z-1.041
X58.559 Y20.503 Z-1.044
X58.514 Y20.518 Z-1.046
X58.427 Y20.548 Z-1.049
X58.382 Y20.564 Z-1.051
X58.296 Y20.596 Z-1.054
X58.246 Y20.616 Z-1.056
X58.161 Y20.65 Z-1.059
X58.109 Y20.672 Z-1.061
X58.024 Y20.708 Z-1.064
X57.978 Y20.729 Z-1.066
X57.894 Y20.768 Z-1.069
X57.856 Y20.786 Z-1.071
X57.773 Y20.827 Z-1.074
X57.738 Y20.844 Z-1.075
X57.656 Y20.886 Z-1.079
X57.626 Y20.902 Z-1.08
X57.544 Y20.945 Z-1.083
X57.525 Y20.956 Z-1.084
X57.444 Y21 Z-1.087
X57.426 Y21.01 Z-1.088
X57.345 Y21.055 Z-1.091
X57.334 Y21.061
X57.253 Y21.107 Z-1.095
X57.168 Y21.156 Z-1.098
G2 X56.755 Y21.464 Z-1.116 I1.034 J1.814
G1 X56.724 Y21.494 Z-1.118
X56.688 Y21.529 Z-1.119
X56.674 Y21.543 Z-1.12
X56.643 Y21.573 Z-1.122
X56.629 Y21.588
X56.599 Y21.618 Z-1.124
X56.572 Y21.645 Z-1.125
X56.543 Y21.676 Z-1.127
X56.514 Y21.707 Z-1.128
X56.485 Y21.738 Z-1.13
X56.451 Y21.775 Z-1.131
X56.424 Y21.807 Z-1.133
X56.382 Y21.856 Z-1.135
X56.356 Y21.888 Z-1.136
X56.312 Y21.943 Z-1.139
X56.287 Y21.976 Z-1.14
X56.24 Y22.039 Z-1.143
X56.217 Y22.072 Z-1.145
X56.162 Y22.153 Z-1.148
X56.14 Y22.188 Z-1.149
X56.087 Y22.276 Z-1.153
X56.066 Y22.311 Z-1.154
X56.013 Y22.41 Z-1.158
X55.995 Y22.446 Z-1.16
X55.947 Y22.548 Z-1.164
X55.93 Y22.585 Z-1.165
X55.89 Y22.685 Z-1.169
X55.875 Y22.723 Z-1.17
X55.845 Y22.809 Z-1.173
X55.832 Y22.848 Z-1.175
X55.807 Y22.929 Z-1.178
X55.796 Y22.968 Z-1.179
X55.778 Y23.038 Z-1.182
X55.768 Y23.079 Z-1.183
X55.754 Y23.136 Z-1.185
X55.745 Y23.177 Z-1.187
X55.736 Y23.224 Z-1.188
X55.728 Y23.265 Z-1.19
X55.72 Y23.308 Z-1.191
X55.713 Y23.35 Z-1.193
X55.708 Y23.375 Z-1.194
X55.702 Y23.417 Z-1.195
X55.698 Y23.438 Z-1.196
X55.692 Y23.48 Z-1.198
X55.685 Y23.528 Z-1.199
G2 X55.677 Y24.075 Z-1.218 I2.065 J0.303
G1 X55.684 Y24.129 Z-1.22
X55.685 Y24.141 Z-1.221
X55.692 Y24.195 Z-1.223
X55.694 Y24.211
X55.701 Y24.265 Z-1.225
X55.705 Y24.294 Z-1.226
X55.713 Y24.348 Z-1.228
X55.718 Y24.383 Z-1.229
X55.727 Y24.436 Z-1.231
X55.736 Y24.486 Z-1.233
X55.746 Y24.539 Z-1.235
X55.757 Y24.596 Z-1.237
X55.769 Y24.648 Z-1.239
X55.784 Y24.715 Z-1.241
X55.797 Y24.766 Z-1.243
X55.819 Y24.845 Z-1.246
X55.834 Y24.896 Z-1.248
X55.86 Y24.98 Z-1.251
X55.877 Y25.029 Z-1.252
X55.914 Y25.128 Z-1.256
X55.933 Y25.176 Z-1.258
X55.977 Y25.279 Z-1.262
X55.999 Y25.326 Z-1.264
X56.051 Y25.431 Z-1.268
X56.075 Y25.477 Z-1.27
X56.128 Y25.571 Z-1.273
X56.155 Y25.615 Z-1.275
X56.209 Y25.701 Z-1.279
X56.238 Y25.744 Z-1.281
X56.287 Y25.815 Z-1.284
X56.318 Y25.857 Z-1.285
X56.364 Y25.917 Z-1.288
X56.396 Y25.959 Z-1.29
X56.436 Y26.008 Z-1.292
X56.47 Y26.048 Z-1.294
X56.509 Y26.093 Z-1.296
X56.545 Y26.134 Z-1.298
X56.575 Y26.167 Z-1.299
X56.611 Y26.206 Z-1.301
X56.636 Y26.232 Z-1.303
X56.673 Y26.272 Z-1.304
X56.69 Y26.289 Z-1.305
X56.729 Y26.328 Z-1.307
X56.744 Y26.344 Z-1.308
X56.783 Y26.382 Z-1.31
X56.827 Y26.427 Z-1.312
G2 X57.043 Y26.613 Z-1.322 I1.47 J-1.482
G1 X57.017 Y26.605 Z-1.323
X56.833 Y26.549 Z-1.33
X56.645 Y26.489 Z-1.337
X56.451 Y26.427 Z-1.344
X56.401 Y26.411 Z-1.346
X56.286 Y26.353 Z-1.35
X56.168 Y26.293 Z-1.355
X56.056 Y26.235 Z-1.359
X55.95 Y26.179 Z-1.363
X55.85 Y26.124 Z-1.367
X55.758 Y26.071 Z-1.371
X55.673 Y26.02 Z-1.374
X55.594 Y25.97 Z-1.378
X55.522 Y25.922 Z-1.381
X55.457 Y25.875 Z-1.383
X55.399 Y25.831 Z-1.386
X55.345 Y25.787 Z-1.388
X55.29 Y25.738 Z-1.391
X55.232 Y25.683 Z-1.394
X55.17 Y25.621 Z-1.397
X55.104 Y25.553 Z-1.4
X55.036 Y25.477 Z-1.404
X54.963 Y25.395 Z-1.408
X54.888 Y25.306 Z-1.412
X54.809 Y25.21 Z-1.416
X54.726 Y25.108 Z-1.421
X54.654 Y25.018 Z-1.425
X54.612 Y24.945 Z-1.428
X54.556 Y24.844 Z-1.432
X54.505 Y24.749 Z-1.435
X54.457 Y24.658 Z-1.439
X54.414 Y24.573 Z-1.442
X54.375 Y24.494 Z-1.445
X54.341 Y24.42 Z-1.448
X54.311 Y24.351 Z-1.451
X54.286 Y24.288 Z-1.453
X54.265 Y24.232 Z-1.455
X54.248 Y24.179 Z-1.457
X54.233 Y24.127 Z-1.459
X54.219 Y24.071 Z-1.461
X54.205 Y24.007 Z-1.463
X54.191 Y23.935 Z-1.466
X54.178 Y23.856 Z-1.469
X54.166 Y23.77 Z-1.472
X54.154 Y23.676 Z-1.475
X54.143 Y23.576 Z-1.479
X54.133 Y23.469 Z-1.482
X54.123 Y23.355 Z-1.486
X54.117 Y23.288 Z-1.489
X54.135 Y23.117 Z-1.495
X54.153 Y22.954 Z-1.5
X54.171 Y22.801 Z-1.506
X54.191 Y22.659 Z-1.511
X54.213 Y22.527 Z-1.515
X54.235 Y22.408 Z-1.52
X54.259 Y22.302 Z-1.524
X54.284 Y22.207 Z-1.527
X54.309 Y22.124 Z-1.53
X54.334 Y22.054 Z-1.533
X54.359 Y21.994 Z-1.535
X54.387 Y21.936 Z-1.537
X54.423 Y21.872 Z-1.54
X54.467 Y21.8 Z-1.543
X54.522 Y21.719 Z-1.546
X54.586 Y21.631 Z-1.55
X54.66 Y21.536 Z-1.554
X54.744 Y21.434 Z-1.559
X54.837 Y21.326 Z-1.564
X54.94 Y21.211 Z-1.569
X55.05 Y21.091 Z-1.575
X55.125 Y21.01 Z-1.579
X55.138 Y21.001
X55.354 Y20.861 Z-1.588
X55.565 Y20.724 Z-1.597
X55.771 Y20.594 Z-1.605
X55.974 Y20.469 Z-1.614
X56.173 Y20.35 Z-1.622
X56.368 Y20.238 Z-1.63
X56.559 Y20.133 Z-1.637
X56.747 Y20.036 Z-1.645
X56.932 Y19.946 Z-1.652
X57.118 Y19.862 Z-1.659
X57.308 Y19.783 Z-1.666
X57.505 Y19.707 Z-1.674
X57.709 Y19.633 Z-1.681
X57.919 Y19.562 Z-1.689
X58.134 Y19.494 Z-1.697
X58.356 Y19.428 Z-1.705
X58.584 Y19.364 Z-1.713
X58.817 Y19.302 Z-1.722
X59.056 Y19.24 Z-1.73
X59.299 Y19.18 Z-1.739
X59.548 Y19.12 Z-1.748
X59.801 Y19.06 Z-1.757
X60.033 Y19.006 Z-1.765
X60.146 Y18.982 Z-1.769
X60.291 Y18.952 Z-1.774
X60.436 Y18.921 Z-1.78
X60.447 Y18.919
X60.586 Y18.888 Z-1.785
X60.601 Y18.885
X60.74 Y18.854 Z-1.79
X60.759 Y18.849 Z-1.791
X60.897 Y18.817 Z-1.796
X60.917 Y18.812 Z-1.797
X61.055 Y18.778 Z-1.802
X61.082 Y18.771 Z-1.803
X61.219 Y18.736 Z-1.808
X61.247 Y18.728 Z-1.809
X61.383 Y18.691 Z-1.814
X61.415 Y18.682 Z-1.815
X61.551 Y18.642 Z-1.82
X61.587 Y18.631 Z-1.821
X61.722 Y18.589 Z-1.826
X61.763 Y18.576 Z-1.827
X61.896 Y18.531 Z-1.832
X61.937 Y18.517 Z-1.834
X62.069 Y18.47 Z-1.839
X62.116 Y18.453 Z-1.841
X62.247 Y18.402 Z-1.845
X62.296 Y18.383 Z-1.847
X62.426 Y18.329 Z-1.852
X62.477 Y18.307 Z-1.854
X62.606 Y18.25 Z-1.859
X62.65 Y18.229 Z-1.861
X62.777 Y18.169 Z-1.866
X62.816 Y18.15 Z-1.867
X62.943 Y18.087 Z-1.872
X62.976 Y18.07 Z-1.873
X63.101 Y18.005 Z-1.878
X63.129 Y17.99 Z-1.879
X63.254 Y17.922 Z-1.884
X63.274 Y17.911 Z-1.885
X63.398 Y17.843 Z-1.89
X63.415 Y17.833 Z-1.891
X63.539 Y17.763 Z-1.896
X63.549 Y17.757
X63.672 Y17.686 Z-1.901
X63.8 Y17.612 Z-1.906
G2 X64.253 Y17.258 Z-1.927 I-1.045 J-1.807
G1 X64.301 Y17.209 Z-1.929
X64.354 Y17.154 Z-1.932
X64.365 Y17.143
X64.412 Y17.093 Z-1.934
X64.43 Y17.074 Z-1.935
X64.476 Y17.024 Z-1.938
X64.498 Y17 Z-1.939
X64.543 Y16.95 Z-1.941
X64.57 Y16.919 Z-1.943
X64.613 Y16.868 Z-1.945
X64.648 Y16.827 Z-1.947
X64.69 Y16.775 Z-1.949
X64.729 Y16.726 Z-1.951
X64.769 Y16.674 Z-1.954
X64.809 Y16.619 Z-1.956
X64.848 Y16.566 Z-1.958
X64.895 Y16.498 Z-1.961
X64.931 Y16.443 Z-1.964
X64.978 Y16.367 Z-1.967
X65.012 Y16.311 Z-1.969
X65.061 Y16.225 Z-1.972
X65.091 Y16.168 Z-1.975
X65.142 Y16.066 Z-1.979
X65.17 Y16.008 Z-1.981
X65.213 Y15.909 Z-1.985
X65.237 Y15.849 Z-1.987
X65.272 Y15.756 Z-1.99
X65.294 Y15.695 Z-1.993
X65.322 Y15.608 Z-1.996
X65.341 Y15.546 Z-1.998
X65.363 Y15.469 Z-2.001
X65.38 Y15.405 Z-2.003
X65.395 Y15.341 Z-2.006
X65.41 Y15.276 Z-2.008
X65.422 Y15.221 Z-2.01
X65.435 Y15.155 Z-2.012
X65.444 Y15.106 Z-2.014
X65.456 Y15.04 Z-2.016
X65.461 Y15.007 Z-2.017
X65.472 Y14.941 Z-2.02
X65.477 Y14.911 Z-2.021
X65.486 Y14.844 Z-2.023
X65.489 Y14.825 Z-2.024
X65.498 Y14.758 Z-2.026
X65.508 Y14.681 Z-2.029
G2 Y14.142 Z-2.048 I-2.07 J-0.27
G1 X65.499 Y14.072 Z-2.05
X65.489 Y13.993 Z-2.053
X65.486 Y13.977 Z-2.054
X65.477 Y13.908 Z-2.056
X65.472 Y13.877 Z-2.057
X65.461 Y13.807 Z-2.06
X65.455 Y13.769 Z-2.061
X65.443 Y13.701 Z-2.063
X65.434 Y13.654 Z-2.065
X65.42 Y13.586 Z-2.068
X65.408 Y13.53 Z-2.069
X65.393 Y13.463 Z-2.072
X65.376 Y13.394 Z-2.074
X65.358 Y13.328 Z-2.077
X65.337 Y13.253 Z-2.079
X65.317 Y13.188 Z-2.082
X65.289 Y13.101 Z-2.085
X65.266 Y13.037 Z-2.087
X65.229 Y12.941 Z-2.091
X65.204 Y12.878 Z-2.093
X65.158 Y12.775 Z-2.097
X65.13 Y12.715 Z-2.1
X65.079 Y12.614 Z-2.104
X65.047 Y12.555 Z-2.106
X64.994 Y12.464 Z-2.11
X64.959 Y12.407 Z-2.112
X64.91 Y12.329 Z-2.115
X64.872 Y12.273 Z-2.118
X64.823 Y12.203 Z-2.121
X64.782 Y12.148 Z-2.123
X64.74 Y12.093 Z-2.125
X64.698 Y12.039 Z-2.128
X64.658 Y11.989 Z-2.13
X64.613 Y11.936 Z-2.132
X64.578 Y11.894 Z-2.134
X64.532 Y11.842 Z-2.137
X64.503 Y11.81 Z-2.138
X64.456 Y11.759 Z-2.141
X64.431 Y11.732 Z-2.142
X64.382 Y11.681 Z-2.144
X64.366 Y11.664 Z-2.145
X64.317 Y11.614 Z-2.148
X64.304 Y11.6
X64.254 Y11.55 Z-2.151
X64.247 Y11.543
X64.196 Y11.492 Z-2.154
G2 X63.849 Y11.212 Z-2.169 I-1.476 J1.476
G1 X63.771 Y11.162 Z-2.172
X63.762 Y11.157 Z-2.173
X63.685 Y11.107 Z-2.176
X63.673 Y11.1 Z-2.177
X63.595 Y11.051 Z-2.18
X63.573 Y11.037 Z-2.181
X63.495 Y10.99 Z-2.184
X63.467 Y10.973 Z-2.185
X63.388 Y10.927 Z-2.188
X63.351 Y10.906 Z-2.19
X63.272 Y10.862 Z-2.193
X63.228 Y10.837 Z-2.195
X63.148 Y10.795 Z-2.198
X63.096 Y10.768 Z-2.2
X63.015 Y10.729 Z-2.203
X62.953 Y10.699 Z-2.205
X62.918 Y10.683 Z-2.207
X62.997 Y10.7 Z-2.21
X63.151 Y10.735 Z-2.215
X63.309 Y10.775 Z-2.221
X63.472 Y10.819 Z-2.227
X63.639 Y10.867 Z-2.233
X63.81 Y10.919 Z-2.239
X63.986 Y10.974 Z-2.245
X64.166 Y11.033 Z-2.252
X64.35 Y11.095 Z-2.259
X64.538 Y11.159 Z-2.266
X64.588 Y11.176 Z-2.268
X64.597 Y11.18
X64.735 Y11.252 Z-2.273
X64.868 Y11.322 Z-2.279
X64.994 Y11.389 Z-2.284
X65.114 Y11.455 Z-2.288
X65.227 Y11.52 Z-2.293
X65.333 Y11.583 Z-2.297
X65.431 Y11.644 Z-2.301
X65.523 Y11.704 Z-2.305
X65.607 Y11.763 Z-2.309
X65.683 Y11.819 Z-2.312
X65.753 Y11.875 Z-2.315
X65.82 Y11.932 Z-2.318
X65.888 Y11.994 Z-2.321
X65.959 Y12.064 Z-2.325
X66.034 Y12.141 Z-2.329
X66.111 Y12.225 Z-2.333
X66.192 Y12.316 Z-2.337
X66.275 Y12.413 Z-2.341
X66.361 Y12.518 Z-2.346
X66.451 Y12.629 Z-2.351
X66.543 Y12.746 Z-2.356
X66.638 Y12.868 Z-2.362
X66.715 Y13.004 Z-2.367
X66.784 Y13.129 Z-2.372
X66.848 Y13.249 Z-2.377
X66.908 Y13.364 Z-2.381
X66.963 Y13.474 Z-2.386
X67.013 Y13.577 Z-2.39
X67.058 Y13.675 Z-2.393
X67.098 Y13.769 Z-2.397
X67.132 Y13.857 Z-2.4
X67.161 Y13.938 Z-2.403
X67.186 Y14.015 Z-2.406
X67.208 Y14.094 Z-2.409
X67.229 Y14.178 Z-2.412
X67.248 Y14.27 Z-2.415
X67.266 Y14.369 Z-2.419
X67.283 Y14.476 Z-2.423
X67.299 Y14.59 Z-2.427
X67.313 Y14.711 Z-2.431
X67.326 Y14.84 Z-2.435
X67.338 Y14.976 Z-2.44
X67.349 Y15.118 Z-2.445
X67.36 Y15.266 Z-2.45
X67.362 Y15.285 Z-2.451
X67.355 Y15.398 Z-2.455
X67.347 Y15.514 Z-2.459
X67.339 Y15.623 Z-2.463
X67.33 Y15.728 Z-2.466
X67.32 Y15.825 Z-2.47
X67.309 Y15.916 Z-2.473
X67.297 Y16.001 Z-2.476
X67.285 Y16.078 Z-2.479
X67.272 Y16.149 Z-2.481
X67.258 Y16.214 Z-2.484
X67.243 Y16.272 Z-2.486
X67.227 Y16.328 Z-2.488
X67.207 Y16.389 Z-2.49
X67.184 Y16.456 Z-2.492
X67.156 Y16.528 Z-2.495
X67.125 Y16.604 Z-2.498
X67.102 Y16.656 Z-2.5
X67.089 Y16.687 F1000
X67.048 Y16.776
X67.004 Y16.869
X66.956 Y16.968
X66.905 Y17.072
X66.874 Y17.133
X66.817 Y17.209
X66.739 Y17.311
X66.665 Y17.406
X66.594 Y17.496
X66.525 Y17.579
X66.46 Y17.656
X66.398 Y17.725
X66.338 Y17.789
X66.282 Y17.845
X66.23 Y17.895
X66.177 Y17.942
X66.119 Y17.99
X66.055 Y18.039
X65.984 Y18.091
X65.907 Y18.145
X65.825 Y18.2
X65.735 Y18.257
X65.639 Y18.316
X65.537 Y18.377
X65.43 Y18.44
X65.317 Y18.504
X65.199 Y18.571
X65.187 Y18.577
X65.073 Y18.624
X64.842 Y18.718
X64.614 Y18.81
X64.388 Y18.901
X64.164 Y18.988
X63.943 Y19.073
X63.724 Y19.155
X63.508 Y19.233
X63.293 Y19.307
X63.08 Y19.378
X62.866 Y19.446
X62.65 Y19.512
X62.43 Y19.575
X62.208 Y19.637
X61.982 Y19.696
X61.754 Y19.755
X61.523 Y19.812
X61.29 Y19.868
X61.054 Y19.922
X60.815 Y19.977
X60.574 Y20.03
X60.332 Y20.084
X60.086 Y20.137
X59.86 Y20.186
X59.79 Y20.2
X59.694 Y20.219
X59.596 Y20.238
X59.584 Y20.241
X59.493 Y20.259
X59.479 Y20.262
X59.388 Y20.282
X59.369 Y20.286
X59.279 Y20.306
X59.258 Y20.311
X59.167 Y20.332
X59.142 Y20.338
X59.052 Y20.36
X59.022 Y20.368
X58.932 Y20.391
X58.899 Y20.4
X58.81 Y20.425
X58.774 Y20.436
X58.686 Y20.462
X58.646 Y20.475
X58.559 Y20.503
X58.514 Y20.518
X58.427 Y20.548
X58.382 Y20.564
X58.296 Y20.596
X58.246 Y20.616
X58.161 Y20.65
X58.109 Y20.672
X58.024 Y20.708
X57.978 Y20.729
X57.894 Y20.768
X57.856 Y20.786
X57.773 Y20.827
X57.738 Y20.844
X57.656 Y20.886
X57.626 Y20.902
X57.544 Y20.945
X57.525 Y20.956
X57.444 Y21
X57.426 Y21.01
X57.345 Y21.055
X57.334 Y21.061
X57.253 Y21.107
X57.168 Y21.156
G2 X56.755 Y21.464 I1.034 J1.814
G1 X56.724 Y21.494
X56.688 Y21.529
X56.674 Y21.543
X56.643 Y21.573
X56.629 Y21.588
X56.599 Y21.618
X56.572 Y21.645
X56.543 Y21.676
X56.514 Y21.707
X56.485 Y21.738
X56.451 Y21.775
X56.424 Y21.807
X56.382 Y21.856
X56.356 Y21.888
X56.312 Y21.943
X56.287 Y21.976
X56.24 Y22.039
X56.217 Y22.072
X56.162 Y22.153
X56.14 Y22.188
X56.087 Y22.276
X56.066 Y22.311
X56.013 Y22.41
X55.995 Y22.446
X55.947 Y22.548
X55.93 Y22.585
X55.89 Y22.685
X55.875 Y22.723
X55.845 Y22.809
X55.832 Y22.848
X55.807 Y22.929
X55.796 Y22.968
X55.778 Y23.038
X55.768 Y23.079
X55.754 Y23.136
X55.745 Y23.177
X55.736 Y23.224
X55.728 Y23.265
X55.72 Y23.308
X55.713 Y23.35
X55.708 Y23.375
X55.702 Y23.417
X55.698 Y23.438
X55.692 Y23.48
X55.685 Y23.528
G2 X55.677 Y24.075 I2.065 J0.303
G1 X55.684 Y24.129
X55.685 Y24.141
X55.692 Y24.195
X55.694 Y24.211
X55.701 Y24.265
X55.705 Y24.294
X55.713 Y24.348
X55.718 Y24.383
X55.727 Y24.436
X55.736 Y24.486
X55.746 Y24.539
X55.757 Y24.596
X55.769 Y24.648
X55.784 Y24.715
X55.797 Y24.766
X55.819 Y24.845
X55.834 Y24.896
X55.86 Y24.98
X55.877 Y25.029
X55.914 Y25.128
X55.933 Y25.176
X55.977 Y25.279
X55.999 Y25.326
X56.051 Y25.431
X56.075 Y25.477
X56.128 Y25.571
X56.155 Y25.615
X56.209 Y25.701
X56.238 Y25.744
X56.287 Y25.815
X56.318 Y25.857
X56.364 Y25.917
X56.396 Y25.959
X56.436 Y26.008
X56.47 Y26.048
X56.509 Y26.093
X56.545 Y26.134
X56.575 Y26.167
X56.611 Y26.206
X56.636 Y26.232
X56.673 Y26.272
X56.69 Y26.289
X56.729 Y26.328
X56.744 Y26.344
X56.783 Y26.382
X56.827 Y26.427
G2 X57.043 Y26.613 I1.47 J-1.482
G1 X57.017 Y26.605
X56.833 Y26.549
X56.645 Y26.489
X56.451 Y26.427
X56.401 Y26.411
X56.286 Y26.353
X56.168 Y26.293
X56.056 Y26.235
X55.95 Y26.179
X55.85 Y26.124
X55.758 Y26.071
X55.673 Y26.02
X55.594 Y25.97
X55.522 Y25.922
X55.457 Y25.875
X55.399 Y25.831
X55.345 Y25.787
X55.29 Y25.738
X55.232 Y25.683
X55.17 Y25.621
X55.104 Y25.553
X55.036 Y25.477
X54.963 Y25.395
X54.888 Y25.306
X54.809 Y25.21
X54.726 Y25.108
X54.654 Y25.018
X54.612 Y24.945
X54.556 Y24.844
X54.505 Y24.749
X54.457 Y24.658
X54.414 Y24.573
X54.375 Y24.494
X54.341 Y24.42
X54.311 Y24.351
X54.286 Y24.288
X54.265 Y24.232
X54.248 Y24.179
X54.233 Y24.127
X54.219 Y24.071
X54.205 Y24.007
X54.191 Y23.935
X54.178 Y23.856
X54.166 Y23.77
X54.154 Y23.676
X54.143 Y23.576
X54.133 Y23.469
X54.123 Y23.355
X54.117 Y23.288
X54.135 Y23.117
X54.153 Y22.954
X54.171 Y22.801
X54.191 Y22.659
X54.213 Y22.527
X54.235 Y22.408
X54.259 Y22.302
X54.284 Y22.207
X54.309 Y22.124
X54.334 Y22.054
X54.359 Y21.994
X54.387 Y21.936
X54.423 Y21.872
X54.467 Y21.8
X54.522 Y21.719
X54.586 Y21.631
X54.66 Y21.536
X54.744 Y21.434
X54.837 Y21.326
X54.94 Y21.211
X55.05 Y21.091
X55.125 Y21.01
X55.138 Y21.001
X55.354 Y20.861
X55.565 Y20.724
X55.771 Y20.594
X55.974 Y20.469
X56.173 Y20.35
X56.368 Y20.238
X56.559 Y20.133
X56.747 Y20.036
X56.932 Y19.946
X57.118 Y19.862
X57.308 Y19.783
X57.505 Y19.707
X57.709 Y19.633
X57.919 Y19.562
X58.134 Y19.494
X58.356 Y19.428
X58.584 Y19.364
X58.817 Y19.302
X59.056 Y19.24
X59.299 Y19.18
X59.548 Y19.12
X59.801 Y19.06
X60.033 Y19.006
X60.146 Y18.982
X60.291 Y18.952
X60.436 Y18.921
X60.447 Y18.919
X60.586 Y18.888
X60.601 Y18.885
X60.74 Y18.854
X60.759 Y18.849
X60.897 Y18.817
X60.917 Y18.812
X61.055 Y18.778
X61.082 Y18.771
X61.219 Y18.736
X61.247 Y18.728
X61.383 Y18.691
X61.415 Y18.682
X61.551 Y18.642
X61.587 Y18.631
X61.722 Y18.589
X61.763 Y18.576
X61.896 Y18.531
X61.937 Y18.517
X62.069 Y18.47
X62.116 Y18.453
X62.247 Y18.402
X62.296 Y18.383
X62.426 Y18.329
X62.477 Y18.307
X62.606 Y18.25
X62.65 Y18.229
X62.777 Y18.169
X62.816 Y18.15
X62.943 Y18.087
X62.976 Y18.07
X63.101 Y18.005
X63.129 Y17.99
X63.254 Y17.922
X63.274 Y17.911
X63.398 Y17.843
X63.415 Y17.833
X63.539 Y17.763
X63.549 Y17.757
X63.672 Y17.686
X63.8 Y17.612
G2 X64.253 Y17.258 I-1.045 J-1.807
G1 X64.301 Y17.209
X64.354 Y17.154
X64.365 Y17.143
X64.412 Y17.093
X64.43 Y17.074
X64.476 Y17.024
X64.498 Y17
X64.543 Y16.95
X64.57 Y16.919
X64.613 Y16.868
X64.648 Y16.827
X64.69 Y16.775
X64.729 Y16.726
X64.769 Y16.674
X64.809 Y16.619
X64.848 Y16.566
X64.895 Y16.498
X64.931 Y16.443
X64.978 Y16.367
X65.012 Y16.311
X65.061 Y16.225
X65.091 Y16.168
X65.142 Y16.066
X65.17 Y16.008
X65.213 Y15.909
X65.237 Y15.849
X65.272 Y15.756
X65.294 Y15.695
X65.322 Y15.608
X65.341 Y15.546
X65.363 Y15.469
X65.38 Y15.405
X65.395 Y15.341
X65.41 Y15.276
X65.422 Y15.221
X65.435 Y15.155
X65.444 Y15.106
X65.456 Y15.04
X65.461 Y15.007
X65.472 Y14.941
X65.477 Y14.911
X65.486 Y14.844
X65.489 Y14.825
X65.498 Y14.758
X65.508 Y14.681
G2 Y14.142 I-2.07 J-0.27
G1 X65.499 Y14.072
X65.489 Y13.993
X65.486 Y13.977
X65.477 Y13.908
X65.472 Y13.877
X65.461 Y13.807
X65.455 Y13.769
X65.443 Y13.701
X65.434 Y13.654
X65.42 Y13.586
X65.408 Y13.53
X65.393 Y13.463
X65.376 Y13.394
X65.358 Y13.328
X65.337 Y13.253
X65.317 Y13.188
X65.289 Y13.101
X65.266 Y13.037
X65.229 Y12.941
X65.204 Y12.878
X65.158 Y12.775
X65.13 Y12.715
X65.079 Y12.614
X65.047 Y12.555
X64.994 Y12.464
X64.959 Y12.407
X64.91 Y12.329
X64.872 Y12.273
X64.823 Y12.203
X64.782 Y12.148
X64.74 Y12.093
X64.698 Y12.039
X64.658 Y11.989
X64.613 Y11.936
X64.578 Y11.894
X64.532 Y11.842
X64.503 Y11.81
X64.456 Y11.759
X64.431 Y11.732
X64.382 Y11.681
X64.366 Y11.664
X64.317 Y11.614
X64.304 Y11.6
X64.254 Y11.55
X64.247 Y11.543
X64.196 Y11.492
G2 X63.849 Y11.212 I-1.476 J1.476
G1 X63.771 Y11.162
X63.762 Y11.157
X63.685 Y11.107
X63.673 Y11.1
X63.595 Y11.051
X63.573 Y11.037
X63.495 Y10.99
X63.467 Y10.973
X63.388 Y10.927
X63.351 Y10.906
X63.272 Y10.862
X63.228 Y10.837
X63.148 Y10.795
X63.096 Y10.768
X63.015 Y10.729
X62.953 Y10.699
X62.918 Y10.683
X62.997 Y10.7
X63.151 Y10.735
X63.309 Y10.775
X63.472 Y10.819
X63.639 Y10.867
X63.81 Y10.919
X63.986 Y10.974
X64.166 Y11.033
X64.35 Y11.095
X64.538 Y11.159
X64.588 Y11.176
X64.597 Y11.18
X64.735 Y11.252
X64.868 Y11.322
X64.994 Y11.389
X65.114 Y11.455
X65.227 Y11.52
X65.333 Y11.583
X65.431 Y11.644
X65.523 Y11.704
X65.607 Y11.763
X65.683 Y11.819
X65.753 Y11.875
X65.82 Y11.932
X65.888 Y11.994
X65.959 Y12.064
X66.034 Y12.141
X66.111 Y12.225
X66.192 Y12.316
X66.275 Y12.413
X66.361 Y12.518
X66.451 Y12.629
X66.543 Y12.746
X66.638 Y12.868
X66.715 Y13.004
X66.784 Y13.129
X66.848 Y13.249
X66.908 Y13.364
X66.963 Y13.474
X67.013 Y13.577
X67.058 Y13.675
X67.098 Y13.769
X67.132 Y13.857
X67.161 Y13.938
X67.186 Y14.015
X67.208 Y14.094
X67.229 Y14.178
X67.248 Y14.27
X67.266 Y14.369
X67.283 Y14.476
X67.299 Y14.59
X67.313 Y14.711
X67.326 Y14.84
X67.338 Y14.976
X67.349 Y15.118
X67.36 Y15.266
X67.362 Y15.285
X67.355 Y15.398
X67.347 Y15.514
X67.339 Y15.623
X67.33 Y15.728
X67.32 Y15.825
X67.309 Y15.916
X67.297 Y16.001
X67.285 Y16.078
X67.272 Y16.149
X67.258 Y16.214
X67.243 Y16.272
X67.227 Y16.328
X67.207 Y16.389
X67.184 Y16.456
X67.156 Y16.528
X67.125 Y16.604
X67.102 Y16.656
X67.073 Y16.709 Z-2.488
X67.034 Y16.756 Z-2.476
X66.994 Y16.789 Z-2.441
X66.95 Y16.815 Z-2.407
X66.885 Y16.838 Z-2.304
X66.862 Y16.843 Z-2.183
G0 Z5
X64.62 Y26.264
G1 Z2.817 F1000
X64.616 Y26.266 Z2.76 F333.3
X64.602 Y26.273 Z2.705
X64.579 Y26.284 Z2.654
X64.542 Y26.302 Z2.599
X64.494 Y26.324 Z2.554
X64.439 Y26.35 Z2.522
X64.378 Y26.378 Z2.504
X64.343 Y26.394 Z2.5
X64.183 Y26.466 Z2.494
X63.993 Y26.546 Z2.487
X63.81 Y26.619 Z2.48
X63.632 Y26.683 Z2.473
X63.461 Y26.739 Z2.467
X63.292 Y26.787 Z2.461
X63.12 Y26.829 Z2.455
X62.941 Y26.867 Z2.448
X62.754 Y26.9 Z2.442
X62.559 Y26.929 Z2.435
X62.42 Y26.946 Z2.43
X62.464 Y26.924 Z2.428
X62.507 Y26.901 Z2.426
X62.587 Y26.857 Z2.423
X62.621 Y26.838 Z2.422
X62.701 Y26.793 Z2.419
X62.728 Y26.777 Z2.418
X62.808 Y26.73 Z2.414
X62.829 Y26.717 Z2.413
X62.908 Y26.67 Z2.41
X62.921 Y26.662
X62.999 Y26.613 Z2.406
X63.085 Y26.56 Z2.403
G2 X63.531 Y26.187 Z2.383 I-1.103 J-1.772
G1 X63.595 Y26.117 Z2.379
X63.663 Y26.04 Z2.376
X63.675 Y26.027 Z2.375
X63.737 Y25.956 Z2.372
X63.753 Y25.938 Z2.371
X63.814 Y25.867 Z2.368
X63.836 Y25.841 Z2.366
X63.896 Y25.769 Z2.363
X63.922 Y25.738 Z2.362
X63.98 Y25.665 Z2.359
X64.012 Y25.624 Z2.357
X64.068 Y25.55 Z2.353
X64.103 Y25.504 Z2.351
X64.157 Y25.428 Z2.348
X64.197 Y25.371 Z2.346
X64.248 Y25.294 Z2.343
X64.289 Y25.231 Z2.34
X64.337 Y25.152 Z2.337
X64.382 Y25.076 Z2.334
X64.427 Y24.996 Z2.33
X66.015 Y25.089 Z2.275
X65.976 Y25.14 Z2.273
X65.886 Y25.252 Z2.268
X65.783 Y25.37 Z2.262
X65.67 Y25.493 Z2.256
X65.546 Y25.623 Z2.25
X65.412 Y25.757 Z2.243
X65.269 Y25.898 Z2.236
X65.176 Y25.987 Z2.232
X65.001 Y26.076 Z2.225
X64.787 Y26.183 Z2.217
X64.579 Y26.284 Z2.209
X64.378 Y26.378 Z2.201
X64.183 Y26.466 Z2.193
X63.993 Y26.546 Z2.186
X63.81 Y26.619 Z2.179
X63.632 Y26.683 Z2.173
X63.461 Y26.739 Z2.166
X63.292 Y26.787 Z2.16
X63.12 Y26.829 Z2.154
X62.941 Y26.867 Z2.148
X62.754 Y26.9 Z2.141
X62.559 Y26.929 Z2.134
X62.42 Y26.946 Z2.129
X62.464 Y26.924 Z2.128
X62.507 Y26.901 Z2.126
X62.587 Y26.857 Z2.123
X62.621 Y26.838 Z2.121
X62.701 Y26.793 Z2.118
X62.728 Y26.777 Z2.117
X62.808 Y26.73 Z2.114
X62.829 Y26.717 Z2.113
X62.908 Y26.67 Z2.11
X62.921 Y26.662 Z2.109
X62.999 Y26.613 Z2.106
X63.085 Y26.56 Z2.102
G2 X63.531 Y26.187 Z2.082 I-1.103 J-1.772
G1 X63.595 Y26.117 Z2.079
X63.663 Y26.04 Z2.075
X63.675 Y26.027
X63.737 Y25.956 Z2.071
X63.753 Y25.938 Z2.07
X63.814 Y25.867 Z2.067
X63.836 Y25.841 Z2.066
X63.896 Y25.769 Z2.063
X63.922 Y25.738 Z2.061
X63.98 Y25.665 Z2.058
X64.012 Y25.624 Z2.056
X64.068 Y25.55 Z2.053
X64.103 Y25.504 Z2.051
X64.157 Y25.428 Z2.048
X64.197 Y25.371 Z2.045
X64.248 Y25.294 Z2.042
X64.289 Y25.231 Z2.039
X64.337 Y25.152 Z2.036
X64.382 Y25.076 Z2.033
X64.427 Y24.996 Z2.03
X66.015 Y25.089 Z1.974
X65.976 Y25.14 Z1.972
X65.886 Y25.252 Z1.967
X65.783 Y25.37 Z1.962
X65.67 Y25.493 Z1.956
X65.546 Y25.623 Z1.95
X65.412 Y25.757 Z1.943
X65.269 Y25.898 Z1.936
X65.176 Y25.987 Z1.931
X65.001 Y26.076 Z1.925
X64.787 Y26.183 Z1.916
X64.579 Y26.284 Z1.908
X64.378 Y26.378 Z1.9
X64.183 Y26.466 Z1.893
X63.993 Y26.546 Z1.886
X63.81 Y26.619 Z1.879
X63.632 Y26.683 Z1.872
X63.461 Y26.739 Z1.866
X63.292 Y26.787 Z1.86
X63.12 Y26.829 Z1.854
X62.941 Y26.867 Z1.847
X62.754 Y26.9 Z1.841
X62.559 Y26.929 Z1.834
X62.42 Y26.946 Z1.829
X62.464 Y26.924 Z1.827
X62.507 Y26.901 Z1.825
X62.587 Y26.857 Z1.822
X62.621 Y26.838 Z1.821
X62.701 Y26.793 Z1.818
X62.728 Y26.777 Z1.817
X62.808 Y26.73 Z1.813
X62.829 Y26.717 Z1.812
X62.908 Y26.67 Z1.809
X62.921 Y26.662
X62.999 Y26.613 Z1.805
X63.085 Y26.56 Z1.802
G2 X63.531 Y26.187 Z1.782 I-1.103 J-1.772
G1 X63.595 Y26.117 Z1.778
X63.663 Y26.04 Z1.775
X63.675 Y26.027 Z1.774
X63.737 Y25.956 Z1.771
X63.753 Y25.938 Z1.77
X63.814 Y25.867 Z1.767
X63.836 Y25.841 Z1.765
X63.896 Y25.769 Z1.762
X63.922 Y25.738 Z1.761
X63.98 Y25.665 Z1.758
X64.012 Y25.624 Z1.756
X64.068 Y25.55 Z1.752
X64.103 Y25.504 Z1.75
X64.157 Y25.428 Z1.747
X64.197 Y25.371 Z1.745
X64.248 Y25.294 Z1.742
X64.289 Y25.231 Z1.739
X64.337 Y25.152 Z1.736
X64.382 Y25.076 Z1.733
X64.427 Y24.996 Z1.729
X66.015 Y25.089 Z1.674
X65.976 Y25.14 Z1.672
X65.886 Y25.252 Z1.667
X65.783 Y25.37 Z1.661
X65.67 Y25.493 Z1.655
X65.546 Y25.623 Z1.649
X65.412 Y25.757 Z1.642
X65.269 Y25.898 Z1.635
X65.176 Y25.987 Z1.631
X65.001 Y26.076 Z1.624
X64.787 Y26.183 Z1.616
X64.579 Y26.284 Z1.608
X64.378 Y26.378 Z1.6
X64.183 Y26.466 Z1.592
X63.993 Y26.546 Z1.585
X63.81 Y26.619 Z1.578
X63.632 Y26.683 Z1.572
X63.461 Y26.739 Z1.565
X63.292 Y26.787 Z1.559
X63.12 Y26.829 Z1.553
X62.941 Y26.867 Z1.547
X62.754 Y26.9 Z1.54
X62.559 Y26.929 Z1.533
X62.42 Y26.946 Z1.528
X62.464 Y26.924 Z1.527
X62.507 Y26.901 Z1.525
X62.587 Y26.857 Z1.522
X62.621 Y26.838 Z1.52
X62.701 Y26.793 Z1.517
X62.728 Y26.777 Z1.516
X62.808 Y26.73 Z1.513
X62.829 Y26.717 Z1.512
X62.908 Y26.67 Z1.509
X62.921 Y26.662 Z1.508
X62.999 Y26.613 Z1.505
X63.085 Y26.56 Z1.501
G2 X63.531 Y26.187 Z1.481 I-1.103 J-1.772
G1 X63.595 Y26.117 Z1.478
X63.663 Y26.04 Z1.474
X63.675 Y26.027
X63.737 Y25.956 Z1.47
X63.753 Y25.938 Z1.469
X63.814 Y25.867 Z1.466
X63.836 Y25.841 Z1.465
X63.896 Y25.769 Z1.462
X63.922 Y25.738 Z1.46
X63.98 Y25.665 Z1.457
X64.012 Y25.624 Z1.455
X64.068 Y25.55 Z1.452
X64.103 Y25.504 Z1.45
X64.157 Y25.428 Z1.447
X64.197 Y25.371 Z1.444
X64.248 Y25.294 Z1.441
X64.289 Y25.231 Z1.438
X64.337 Y25.152 Z1.435
X64.382 Y25.076 Z1.432
X64.427 Y24.996 Z1.429
X66.015 Y25.089 Z1.373
X65.976 Y25.14 Z1.371
X65.886 Y25.252 Z1.366
X65.783 Y25.37 Z1.361
X65.67 Y25.493 Z1.355
X65.546 Y25.623 Z1.349
X65.412 Y25.757 Z1.342
X65.269 Y25.898 Z1.335
X65.176 Y25.987 Z1.33
X65.001 Y26.076 Z1.324
X64.787 Y26.183 Z1.315
X64.579 Y26.284 Z1.307
X64.378 Y26.378 Z1.299
X64.183 Y26.466 Z1.292
X63.993 Y26.546 Z1.285
X63.81 Y26.619 Z1.278
X63.632 Y26.683 Z1.271
X63.461 Y26.739 Z1.265
X63.292 Y26.787 Z1.259
X63.12 Y26.829 Z1.253
X62.941 Y26.867 Z1.246
X62.754 Y26.9 Z1.24
X62.559 Y26.929 Z1.233
X62.42 Y26.946 Z1.228
X62.464 Y26.924 Z1.226
X62.507 Y26.901 Z1.224
X62.587 Y26.857 Z1.221
X62.621 Y26.838 Z1.22
X62.701 Y26.793 Z1.217
X62.728 Y26.777 Z1.216
X62.808 Y26.73 Z1.212
X62.829 Y26.717 Z1.211
X62.908 Y26.67 Z1.208
X62.921 Y26.662
X62.999 Y26.613 Z1.204
X63.085 Y26.56 Z1.201
G2 X63.531 Y26.187 Z1.181 I-1.103 J-1.772
G1 X63.595 Y26.117 Z1.177
X63.663 Y26.04 Z1.174
X63.675 Y26.027 Z1.173
X63.737 Y25.956 Z1.17
X63.753 Y25.938 Z1.169
X63.814 Y25.867 Z1.166
X63.836 Y25.841 Z1.164
X63.896 Y25.769 Z1.161
X63.922 Y25.738 Z1.16
X63.98 Y25.665 Z1.157
X64.012 Y25.624 Z1.155
X64.068 Y25.55 Z1.151
X64.103 Y25.504 Z1.149
X64.157 Y25.428 Z1.146
X64.197 Y25.371 Z1.144
X64.248 Y25.294 Z1.141
X64.289 Y25.231 Z1.138
X64.337 Y25.152 Z1.135
X64.382 Y25.076 Z1.132
X64.427 Y24.996 Z1.128
X66.015 Y25.089 Z1.073
X65.976 Y25.14 Z1.071
X65.886 Y25.252 Z1.066
X65.783 Y25.37 Z1.06
X65.67 Y25.493 Z1.054
X65.546 Y25.623 Z1.048
X65.412 Y25.757 Z1.041
X65.269 Y25.898 Z1.034
X65.176 Y25.987 Z1.03
X65.001 Y26.076 Z1.023
X64.787 Y26.183 Z1.015
X64.579 Y26.284 Z1.007
X64.378 Y26.378 Z0.999
X64.183 Y26.466 Z0.991
X63.993 Y26.546 Z0.984
X63.81 Y26.619 Z0.977
X63.632 Y26.683 Z0.971
X63.461 Y26.739 Z0.964
X63.292 Y26.787 Z0.958
X63.12 Y26.829 Z0.952
X62.941 Y26.867 Z0.946
X62.754 Y26.9 Z0.939
X62.559 Y26.929 Z0.932
X62.42 Y26.946 Z0.927
X62.464 Y26.924 Z0.926
X62.507 Y26.901 Z0.924
X62.587 Y26.857 Z0.921
X62.621 Y26.838 Z0.919
X62.701 Y26.793 Z0.916
X62.728 Y26.777 Z0.915
X62.808 Y26.73 Z0.912
X62.829 Y26.717 Z0.911
X62.908 Y26.67 Z0.908
X62.921 Y26.662 Z0.907
X62.999 Y26.613 Z0.904
X63.085 Y26.56 Z0.9
G2 X63.531 Y26.187 Z0.88 I-1.103 J-1.772
G1 X63.595 Y26.117 Z0.877
X63.663 Y26.04 Z0.873
X63.675 Y26.027
X63.737 Y25.956 Z0.869
X63.753 Y25.938 Z0.868
X63.814 Y25.867 Z0.865
X63.836 Y25.841 Z0.864
X63.896 Y25.769 Z0.861
X63.922 Y25.738 Z0.859
X63.98 Y25.665 Z0.856
X64.012 Y25.624 Z0.854
X64.068 Y25.55 Z0.851
X64.103 Y25.504 Z0.849
X64.157 Y25.428 Z0.846
X64.197 Y25.371 Z0.843
X64.248 Y25.294 Z0.84
X64.289 Y25.231 Z0.837
X64.337 Y25.152 Z0.834
X64.382 Y25.076 Z0.831
X64.427 Y24.996 Z0.828
X66.015 Y25.089 Z0.772
X65.976 Y25.14 Z0.77
X65.886 Y25.252 Z0.765
X65.783 Y25.37 Z0.76
X65.67 Y25.493 Z0.754
X65.546 Y25.623 Z0.748
X65.412 Y25.757 Z0.741
X65.269 Y25.898 Z0.734
X65.176 Y25.987 Z0.729
X65.001 Y26.076 Z0.723
X64.787 Y26.183 Z0.714
X64.579 Y26.284 Z0.706
X64.378 Y26.378 Z0.698
X64.183 Y26.466 Z0.691
X63.993 Y26.546 Z0.684
X63.81 Y26.619 Z0.677
X63.632 Y26.683 Z0.67
X63.461 Y26.739 Z0.664
X63.292 Y26.787 Z0.658
X63.12 Y26.829 Z0.652
X62.941 Y26.867 Z0.645
X62.754 Y26.9 Z0.639
X62.559 Y26.929 Z0.632
X62.42 Y26.946 Z0.627
X62.464 Y26.924 Z0.625
X62.507 Y26.901 Z0.623
X62.587 Y26.857 Z0.62
X62.621 Y26.838 Z0.619
X62.701 Y26.793 Z0.616
X62.728 Y26.777 Z0.615
X62.808 Y26.73 Z0.611
X62.829 Y26.717 Z0.61
X62.908 Y26.67 Z0.607
X62.921 Y26.662
X62.999 Y26.613 Z0.604
X63.085 Y26.56 Z0.6
G2 X63.531 Y26.187 Z0.58 I-1.103 J-1.772
G1 X63.595 Y26.117 Z0.576
X63.663 Y26.04 Z0.573
X63.675 Y26.027 Z0.572
X63.737 Y25.956 Z0.569
X63.753 Y25.938 Z0.568
X63.814 Y25.867 Z0.565
X63.836 Y25.841 Z0.564
X63.896 Y25.769 Z0.56
X63.922 Y25.738 Z0.559
X63.98 Y25.665 Z0.556
X64.012 Y25.624 Z0.554
X64.068 Y25.55 Z0.55
X64.103 Y25.504 Z0.548
X64.157 Y25.428 Z0.545
X64.197 Y25.371 Z0.543
X64.248 Y25.294 Z0.54
X64.289 Y25.231 Z0.537
X64.337 Y25.152 Z0.534
X64.382 Y25.076 Z0.531
X64.427 Y24.996 Z0.527
X66.015 Y25.089 Z0.472
X65.976 Y25.14 Z0.47
X65.886 Y25.252 Z0.465
X65.783 Y25.37 Z0.459
X65.67 Y25.493 Z0.453
X65.546 Y25.623 Z0.447
X65.412 Y25.757 Z0.44
X65.269 Y25.898 Z0.433
X65.176 Y25.987 Z0.429
X65.001 Y26.076 Z0.422
X64.787 Y26.183 Z0.414
X64.579 Y26.284 Z0.406
X64.378 Y26.378 Z0.398
X64.183 Y26.466 Z0.39
X63.993 Y26.546 Z0.383
X63.81 Y26.619 Z0.376
X63.632 Y26.683 Z0.37
X63.461 Y26.739 Z0.363
X63.292 Y26.787 Z0.357
X63.12 Y26.829 Z0.351
X62.941 Y26.867 Z0.345
X62.754 Y26.9 Z0.338
X62.559 Y26.929 Z0.331
X62.42 Y26.946 Z0.326
X62.464 Y26.924 Z0.325
X62.507 Y26.901 Z0.323
X62.587 Y26.857 Z0.32
X62.621 Y26.838 Z0.318
X62.701 Y26.793 Z0.315
X62.728 Y26.777 Z0.314
X62.808 Y26.73 Z0.311
X62.829 Y26.717 Z0.31
X62.908 Y26.67 Z0.307
X62.921 Y26.662 Z0.306
X62.999 Y26.613 Z0.303
X63.085 Y26.56 Z0.299
G2 X63.531 Y26.187 Z0.279 I-1.103 J-1.772
G1 X63.595 Y26.117 Z0.276
X63.663 Y26.04 Z0.272
X63.675 Y26.027
X63.737 Y25.956 Z0.268
X63.753 Y25.938 Z0.267
X63.814 Y25.867 Z0.264
X63.836 Y25.841 Z0.263
X63.896 Y25.769 Z0.26
X63.922 Y25.738 Z0.258
X63.98 Y25.665 Z0.255
X64.012 Y25.624 Z0.253
X64.068 Y25.55 Z0.25
X64.103 Y25.504 Z0.248
X64.157 Y25.428 Z0.245
X64.197 Y25.371 Z0.242
X64.248 Y25.294 Z0.239
X64.289 Y25.231 Z0.236
X64.337 Y25.152 Z0.233
X64.382 Y25.076 Z0.23
X64.427 Y24.996 Z0.227
X66.015 Y25.089 Z0.171
X65.976 Y25.14 Z0.169
X65.886 Y25.252 Z0.164
X65.783 Y25.37 Z0.159
X65.67 Y25.493 Z0.153
X65.546 Y25.623 Z0.147
X65.412 Y25.757 Z0.14
X65.269 Y25.898 Z0.133
X65.176 Y25.987 Z0.128
X65.001 Y26.076 Z0.122
X64.787 Y26.183 Z0.113
X64.579 Y26.284 Z0.105
X64.378 Y26.378 Z0.097
X64.183 Y26.466 Z0.09
X63.993 Y26.546 Z0.083
X63.81 Y26.619 Z0.076
X63.632 Y26.683 Z0.069
X63.461 Y26.739 Z0.063
X63.292 Y26.787 Z0.057
X63.12 Y26.829 Z0.051
X62.941 Y26.867 Z0.044
X62.754 Y26.9 Z0.038
X62.559 Y26.929 Z0.031
X62.42 Y26.946 Z0.026
X62.464 Y26.924 Z0.024
X62.507 Y26.901 Z0.022
X62.587 Y26.857 Z0.019
X62.621 Y26.838 Z0.018
X62.701 Y26.793 Z0.015
X62.728 Y26.777 Z0.014
X62.808 Y26.73 Z0.01
X62.829 Y26.717 Z0.009
X62.908 Y26.67 Z0.006
X62.921 Y26.662
X62.999 Y26.613 Z0.003
X63.085 Y26.56 Z-0.001
G2 X63.531 Y26.187 Z-0.021 I-1.103 J-1.772
G1 X63.595 Y26.117 Z-0.025
X63.663 Y26.04 Z-0.028
X63.675 Y26.027 Z-0.029
X63.737 Y25.956 Z-0.032
X63.753 Y25.938 Z-0.033
X63.814 Y25.867 Z-0.036
X63.836 Y25.841 Z-0.037
X63.896 Y25.769 Z-0.041
X63.922 Y25.738 Z-0.042
X63.98 Y25.665 Z-0.045
X64.012 Y25.624 Z-0.047
X64.068 Y25.55 Z-0.051
X64.103 Y25.504 Z-0.053
X64.157 Y25.428 Z-0.056
X64.197 Y25.371 Z-0.058
X64.248 Y25.294 Z-0.061
X64.289 Y25.231 Z-0.064
X64.337 Y25.152 Z-0.067
X64.382 Y25.076 Z-0.07
X64.427 Y24.996 Z-0.074
X66.015 Y25.089 Z-0.129
X65.976 Y25.14 Z-0.131
X65.886 Y25.252 Z-0.136
X65.783 Y25.37 Z-0.142
X65.67 Y25.493 Z-0.148
X65.546 Y25.623 Z-0.154
X65.412 Y25.757 Z-0.161
X65.269 Y25.898 Z-0.168
X65.176 Y25.987 Z-0.172
X65.001 Y26.076 Z-0.179
X64.787 Y26.183 Z-0.187
X64.579 Y26.284 Z-0.195
X64.378 Y26.378 Z-0.203
X64.183 Y26.466 Z-0.211
X63.993 Y26.546 Z-0.218
X63.81 Y26.619 Z-0.225
X63.632 Y26.683 Z-0.231
X63.461 Y26.739 Z-0.238
X63.292 Y26.787 Z-0.244
X63.12 Y26.829 Z-0.25
X62.941 Y26.867 Z-0.256
X62.754 Y26.9 Z-0.263
X62.559 Y26.929 Z-0.27
X62.42 Y26.946 Z-0.275
X62.464 Y26.924 Z-0.276
X62.507 Y26.901 Z-0.278
X62.587 Y26.857 Z-0.281
X62.621 Y26.838 Z-0.283
X62.701 Y26.793 Z-0.286
X62.728 Y26.777 Z-0.287
X62.808 Y26.73 Z-0.29
X62.829 Y26.717 Z-0.291
X62.908 Y26.67 Z-0.294
X62.921 Y26.662 Z-0.295
X62.999 Y26.613 Z-0.298
X63.085 Y26.56 Z-0.302
G2 X63.531 Y26.187 Z-0.322 I-1.103 J-1.772
G1 X63.595 Y26.117 Z-0.325
X63.663 Y26.04 Z-0.329
X63.675 Y26.027
X63.737 Y25.956 Z-0.333
X63.753 Y25.938 Z-0.334
X63.814 Y25.867 Z-0.337
X63.836 Y25.841 Z-0.338
X63.896 Y25.769 Z-0.341
X63.922 Y25.738 Z-0.343
X63.98 Y25.665 Z-0.346
X64.012 Y25.624 Z-0.348
X64.068 Y25.55 Z-0.351
X64.103 Y25.504 Z-0.353
X64.157 Y25.428 Z-0.356
X64.197 Y25.371 Z-0.359
X64.248 Y25.294 Z-0.362
X64.289 Y25.231 Z-0.365
X64.337 Y25.152 Z-0.368
X64.382 Y25.076 Z-0.371
X64.427 Y24.996 Z-0.374
X66.015 Y25.089 Z-0.43
X65.976 Y25.14 Z-0.432
X65.886 Y25.252 Z-0.437
X65.783 Y25.37 Z-0.442
X65.67 Y25.493 Z-0.448
X65.546 Y25.623 Z-0.454
X65.412 Y25.757 Z-0.461
X65.269 Y25.898 Z-0.468
X65.176 Y25.987 Z-0.473
X65.001 Y26.076 Z-0.479
X64.787 Y26.183 Z-0.488
X64.579 Y26.284 Z-0.496
X64.378 Y26.378 Z-0.504
X64.183 Y26.466 Z-0.511
X63.993 Y26.546 Z-0.518
X63.81 Y26.619 Z-0.525
X63.632 Y26.683 Z-0.532
X63.461 Y26.739 Z-0.538
X63.292 Y26.787 Z-0.544
X63.12 Y26.829 Z-0.55
X62.941 Y26.867 Z-0.557
X62.754 Y26.9 Z-0.563
X62.559 Y26.929 Z-0.57
X62.42 Y26.946 Z-0.575
X62.464 Y26.924 Z-0.577
X62.507 Y26.901 Z-0.579
X62.587 Y26.857 Z-0.582
X62.621 Y26.838 Z-0.583
X62.701 Y26.793 Z-0.586
X62.728 Y26.777 Z-0.587
X62.808 Y26.73 Z-0.591
X62.829 Y26.717 Z-0.592
X62.908 Y26.67 Z-0.595
X62.921 Y26.662
X62.999 Y26.613 Z-0.598
X63.085 Y26.56 Z-0.602
G2 X63.531 Y26.187 Z-0.622 I-1.103 J-1.772
G1 X63.595 Y26.117 Z-0.626
X63.663 Y26.04 Z-0.629
X63.675 Y26.027 Z-0.63
X63.737 Y25.956 Z-0.633
X63.753 Y25.938 Z-0.634
X63.814 Y25.867 Z-0.637
X63.836 Y25.841 Z-0.638
X63.896 Y25.769 Z-0.642
X63.922 Y25.738 Z-0.643
X63.98 Y25.665 Z-0.646
X64.012 Y25.624 Z-0.648
X64.068 Y25.55 Z-0.651
X64.103 Y25.504 Z-0.654
X64.157 Y25.428 Z-0.657
X64.197 Y25.371 Z-0.659
X64.248 Y25.294 Z-0.662
X64.289 Y25.231 Z-0.665
X64.337 Y25.152 Z-0.668
X64.382 Y25.076 Z-0.671
X64.427 Y24.996 Z-0.675
X66.015 Y25.089 Z-0.73
X65.976 Y25.14 Z-0.732
X65.886 Y25.252 Z-0.737
X65.783 Y25.37 Z-0.743
X65.67 Y25.493 Z-0.749
X65.546 Y25.623 Z-0.755
X65.412 Y25.757 Z-0.762
X65.269 Y25.898 Z-0.769
X65.176 Y25.987 Z-0.773
X65.001 Y26.076 Z-0.78
X64.787 Y26.183 Z-0.788
X64.579 Y26.284 Z-0.796
X64.378 Y26.378 Z-0.804
X64.183 Y26.466 Z-0.812
X63.993 Y26.546 Z-0.819
X63.81 Y26.619 Z-0.826
X63.632 Y26.683 Z-0.832
X63.461 Y26.739 Z-0.839
X63.292 Y26.787 Z-0.845
X63.12 Y26.829 Z-0.851
X62.941 Y26.867 Z-0.857
X62.754 Y26.9 Z-0.864
X62.559 Y26.929 Z-0.871
X62.42 Y26.946 Z-0.876
X62.464 Y26.924 Z-0.877
X62.507 Y26.901 Z-0.879
X62.587 Y26.857 Z-0.882
X62.621 Y26.838 Z-0.884
X62.701 Y26.793 Z-0.887
X62.728 Y26.777 Z-0.888
X62.808 Y26.73 Z-0.891
X62.829 Y26.717 Z-0.892
X62.908 Y26.67 Z-0.895
X62.921 Y26.662 Z-0.896
X62.999 Y26.613 Z-0.899
X63.085 Y26.56 Z-0.903
G2 X63.531 Y26.187 Z-0.923 I-1.103 J-1.772
G1 X63.595 Y26.117 Z-0.926
X63.663 Y26.04 Z-0.93
X63.675 Y26.027
X63.737 Y25.956 Z-0.934
X63.753 Y25.938 Z-0.935
X63.814 Y25.867 Z-0.938
X63.836 Y25.841 Z-0.939
X63.896 Y25.769 Z-0.942
X63.922 Y25.738 Z-0.944
X63.98 Y25.665 Z-0.947
X64.012 Y25.624 Z-0.949
X64.068 Y25.55 Z-0.952
X64.103 Y25.504 Z-0.954
X64.157 Y25.428 Z-0.957
X64.197 Y25.371 Z-0.96
X64.248 Y25.294 Z-0.963
X64.289 Y25.231 Z-0.966
X64.337 Y25.152 Z-0.969
X64.382 Y25.076 Z-0.972
X64.427 Y24.996 Z-0.975
X66.015 Y25.089 Z-1.031
X65.976 Y25.14 Z-1.033
X65.886 Y25.252 Z-1.038
X65.783 Y25.37 Z-1.043
X65.67 Y25.493 Z-1.049
X65.546 Y25.623 Z-1.055
X65.412 Y25.757 Z-1.062
X65.269 Y25.898 Z-1.069
X65.176 Y25.987 Z-1.074
X65.001 Y26.076 Z-1.08
X64.787 Y26.183 Z-1.089
X64.579 Y26.284 Z-1.097
X64.378 Y26.378 Z-1.105
X64.183 Y26.466 Z-1.112
X63.993 Y26.546 Z-1.119
X63.81 Y26.619 Z-1.126
X63.632 Y26.683 Z-1.133
X63.461 Y26.739 Z-1.139
X63.292 Y26.787 Z-1.145
X63.12 Y26.829 Z-1.151
X62.941 Y26.867 Z-1.158
X62.754 Y26.9 Z-1.164
X62.559 Y26.929 Z-1.171
X62.42 Y26.946 Z-1.176
X62.464 Y26.924 Z-1.178
X62.507 Y26.901 Z-1.18
X62.587 Y26.857 Z-1.183
X62.621 Y26.838 Z-1.184
X62.701 Y26.793 Z-1.187
X62.728 Y26.777 Z-1.188
X62.808 Y26.73 Z-1.192
X62.829 Y26.717
X62.908 Y26.67 Z-1.196
X62.921 Y26.662
X62.999 Y26.613 Z-1.199
X63.085 Y26.56 Z-1.203
G2 X63.531 Y26.187 Z-1.223 I-1.103 J-1.772
G1 X63.595 Y26.117 Z-1.227
X63.663 Y26.04 Z-1.23
X63.675 Y26.027 Z-1.231
X63.737 Y25.956 Z-1.234
X63.753 Y25.938 Z-1.235
X63.814 Y25.867 Z-1.238
X63.836 Y25.841 Z-1.239
X63.896 Y25.769 Z-1.243
X63.922 Y25.738 Z-1.244
X63.98 Y25.665 Z-1.247
X64.012 Y25.624 Z-1.249
X64.068 Y25.55 Z-1.252
X64.103 Y25.504 Z-1.254
X64.157 Y25.428 Z-1.258
X64.197 Y25.371 Z-1.26
X64.248 Y25.294 Z-1.263
X64.289 Y25.231 Z-1.266
X64.337 Y25.152 Z-1.269
X64.382 Y25.076 Z-1.272
X64.427 Y24.996 Z-1.276
X66.015 Y25.089 Z-1.331
X65.976 Y25.14 Z-1.333
X65.886 Y25.252 Z-1.338
X65.783 Y25.37 Z-1.344
X65.67 Y25.493 Z-1.35
X65.546 Y25.623 Z-1.356
X65.412 Y25.757 Z-1.363
X65.269 Y25.898 Z-1.37
X65.176 Y25.987 Z-1.374
X65.001 Y26.076 Z-1.381
X64.787 Y26.183 Z-1.389
X64.579 Y26.284 Z-1.397
X64.378 Y26.378 Z-1.405
X64.183 Y26.466 Z-1.413
X63.993 Y26.546 Z-1.42
X63.81 Y26.619 Z-1.427
X63.632 Y26.683 Z-1.433
X63.461 Y26.739 Z-1.44
X63.292 Y26.787 Z-1.446
X63.12 Y26.829 Z-1.452
X62.941 Y26.867 Z-1.458
X62.754 Y26.9 Z-1.465
X62.559 Y26.929 Z-1.472
X62.42 Y26.946 Z-1.477
X62.464 Y26.924 Z-1.478
X62.507 Y26.901 Z-1.48
X62.587 Y26.857 Z-1.483
X62.621 Y26.838 Z-1.485
X62.701 Y26.793 Z-1.488
X62.728 Y26.777 Z-1.489
X62.808 Y26.73 Z-1.492
X62.829 Y26.717 Z-1.493
X62.908 Y26.67 Z-1.496
X62.921 Y26.662 Z-1.497
X62.999 Y26.613 Z-1.5
X63.085 Y26.56 Z-1.503
G2 X63.531 Y26.187 Z-1.524 I-1.103 J-1.772
G1 X63.595 Y26.117 Z-1.527
X63.663 Y26.04 Z-1.531
X63.675 Y26.027
X63.737 Y25.956 Z-1.535
X63.753 Y25.938
X63.814 Y25.867 Z-1.539
X63.836 Y25.841 Z-1.54
X63.896 Y25.769 Z-1.543
X63.922 Y25.738 Z-1.545
X63.98 Y25.665 Z-1.548
X64.012 Y25.624 Z-1.55
X64.068 Y25.55 Z-1.553
X64.103 Y25.504 Z-1.555
X64.157 Y25.428 Z-1.558
X64.197 Y25.371 Z-1.561
X64.248 Y25.294 Z-1.564
X64.289 Y25.231 Z-1.567
X64.337 Y25.152 Z-1.57
X64.382 Y25.076 Z-1.573
X64.427 Y24.996 Z-1.576
X66.015 Y25.089 Z-1.632
X65.976 Y25.14 Z-1.634
X65.886 Y25.252 Z-1.639
X65.783 Y25.37 Z-1.644
X65.67 Y25.493 Z-1.65
X65.546 Y25.623 Z-1.656
X65.412 Y25.757 Z-1.663
X65.269 Y25.898 Z-1.67
X65.176 Y25.987 Z-1.675
X65.001 Y26.076 Z-1.681
X64.787 Y26.183 Z-1.69
X64.579 Y26.284 Z-1.698
X64.378 Y26.378 Z-1.706
X64.183 Y26.466 Z-1.713
X63.993 Y26.546 Z-1.72
X63.81 Y26.619 Z-1.727
X63.632 Y26.683 Z-1.734
X63.461 Y26.739 Z-1.74
X63.292 Y26.787 Z-1.746
X63.12 Y26.829 Z-1.752
X62.941 Y26.867 Z-1.759
X62.754 Y26.9 Z-1.765
X62.559 Y26.929 Z-1.772
X62.42 Y26.946 Z-1.777
X62.464 Y26.924 Z-1.779
X62.507 Y26.901 Z-1.781
X62.587 Y26.857 Z-1.784
X62.621 Y26.838 Z-1.785
X62.701 Y26.793 Z-1.788
X62.728 Y26.777 Z-1.789
X62.808 Y26.73 Z-1.793
X62.829 Y26.717
X62.908 Y26.67 Z-1.797
X62.921 Y26.662
X62.999 Y26.613 Z-1.8
X63.085 Y26.56 Z-1.804
G2 X63.531 Y26.187 Z-1.824 I-1.103 J-1.772
G1 X63.595 Y26.117 Z-1.828
X63.663 Y26.04 Z-1.831
X63.675 Y26.027 Z-1.832
X63.737 Y25.956 Z-1.835
X63.753 Y25.938 Z-1.836
X63.814 Y25.867 Z-1.839
X63.836 Y25.841 Z-1.84
X63.896 Y25.769 Z-1.844
X63.922 Y25.738 Z-1.845
X63.98 Y25.665 Z-1.848
X64.012 Y25.624 Z-1.85
X64.068 Y25.55 Z-1.853
X64.103 Y25.504 Z-1.855
X64.157 Y25.428 Z-1.859
X64.197 Y25.371 Z-1.861
X64.248 Y25.294 Z-1.864
X64.289 Y25.231 Z-1.867
X64.337 Y25.152 Z-1.87
X64.382 Y25.076 Z-1.873
X64.427 Y24.996 Z-1.877
X66.015 Y25.089 Z-1.932
X65.976 Y25.14 Z-1.934
X65.886 Y25.252 Z-1.939
X65.783 Y25.37 Z-1.945
X65.67 Y25.493 Z-1.951
X65.546 Y25.623 Z-1.957
X65.412 Y25.757 Z-1.964
X65.269 Y25.898 Z-1.971
X65.176 Y25.987 Z-1.975
X65.001 Y26.076 Z-1.982
X64.787 Y26.183 Z-1.99
X64.579 Y26.284 Z-1.998
X64.378 Y26.378 Z-2.006
X64.183 Y26.466 Z-2.014
X63.993 Y26.546 Z-2.021
X63.81 Y26.619 Z-2.028
X63.632 Y26.683 Z-2.034
X63.461 Y26.739 Z-2.041
X63.292 Y26.787 Z-2.047
X63.12 Y26.829 Z-2.053
X62.941 Y26.867 Z-2.059
X62.754 Y26.9 Z-2.066
X62.559 Y26.929 Z-2.073
X62.42 Y26.946 Z-2.078
X62.464 Y26.924 Z-2.079
X62.507 Y26.901 Z-2.081
X62.587 Y26.857 Z-2.084
X62.621 Y26.838 Z-2.086
X62.701 Y26.793 Z-2.089
X62.728 Y26.777 Z-2.09
X62.808 Y26.73 Z-2.093
X62.829 Y26.717 Z-2.094
X62.908 Y26.67 Z-2.097
X62.921 Y26.662 Z-2.098
X62.999 Y26.613 Z-2.101
X63.085 Y26.56 Z-2.104
G2 X63.531 Y26.187 Z-2.125 I-1.103 J-1.772
G1 X63.595 Y26.117 Z-2.128
X63.663 Y26.04 Z-2.132
X63.675 Y26.027
X63.737 Y25.956 Z-2.136
X63.753 Y25.938
X63.814 Y25.867 Z-2.14
X63.836 Y25.841 Z-2.141
X63.896 Y25.769 Z-2.144
X63.922 Y25.738 Z-2.146
X63.98 Y25.665 Z-2.149
X64.012 Y25.624 Z-2.151
X64.068 Y25.55 Z-2.154
X64.103 Y25.504 Z-2.156
X64.157 Y25.428 Z-2.159
X64.197 Y25.371 Z-2.162
X64.248 Y25.294 Z-2.165
X64.289 Y25.231 Z-2.168
X64.337 Y25.152 Z-2.171
X64.382 Y25.076 Z-2.174
X64.427 Y24.996 Z-2.177
X66.015 Y25.089 Z-2.233
X65.976 Y25.14 Z-2.235
X65.886 Y25.252 Z-2.24
X65.783 Y25.37 Z-2.245
X65.67 Y25.493 Z-2.251
X65.546 Y25.623 Z-2.257
X65.412 Y25.757 Z-2.264
X65.269 Y25.898 Z-2.271
X65.176 Y25.987 Z-2.276
X65.001 Y26.076 Z-2.282
X64.787 Y26.183 Z-2.291
X64.579 Y26.284 Z-2.299
X64.378 Y26.378 Z-2.307
X64.183 Y26.466 Z-2.314
X63.993 Y26.546 Z-2.321
X63.81 Y26.619 Z-2.328
X63.632 Y26.683 Z-2.335
X63.461 Y26.739 Z-2.341
X63.292 Y26.787 Z-2.347
X63.12 Y26.829 Z-2.353
X62.941 Y26.867 Z-2.36
X62.754 Y26.9 Z-2.366
X62.559 Y26.929 Z-2.373
X62.42 Y26.946 Z-2.378
X62.464 Y26.924 Z-2.38
X62.507 Y26.901 Z-2.382
X62.587 Y26.857 Z-2.385
X62.621 Y26.838 Z-2.386
X62.701 Y26.793 Z-2.389
X62.728 Y26.777 Z-2.39
X62.808 Y26.73 Z-2.394
X62.829 Y26.717
X62.908 Y26.67 Z-2.398
X62.921 Y26.662
X62.999 Y26.613 Z-2.401
X63.085 Y26.56 Z-2.405
G2 X63.531 Y26.187 Z-2.425 I-1.103 J-1.772
G1 X63.595 Y26.117 Z-2.429
X63.663 Y26.04 Z-2.432
X63.675 Y26.027 Z-2.433
X63.737 Y25.956 Z-2.436
X63.753 Y25.938 Z-2.437
X63.814 Y25.867 Z-2.44
X63.836 Y25.841 Z-2.441
X63.896 Y25.769 Z-2.445
X63.922 Y25.738 Z-2.446
X63.98 Y25.665 Z-2.449
X64.012 Y25.624 Z-2.451
X64.068 Y25.55 Z-2.454
X64.103 Y25.504 Z-2.456
X64.157 Y25.428 Z-2.46
X64.197 Y25.371 Z-2.462
X64.248 Y25.294 Z-2.465
X64.289 Y25.231 Z-2.468
X64.337 Y25.152 Z-2.471
X64.382 Y25.076 Z-2.474
X64.427 Y24.996 Z-2.478
X65.069 Y25.034 Z-2.5
X66.015 Y25.089 F1000
X65.976 Y25.14
X65.886 Y25.252
X65.783 Y25.37
X65.67 Y25.493
X65.546 Y25.623
X65.412 Y25.757
X65.269 Y25.898
X65.176 Y25.987
X65.001 Y26.076
X64.787 Y26.183
X64.579 Y26.284
X64.378 Y26.378
X64.183 Y26.466
X63.993 Y26.546
X63.81 Y26.619
X63.632 Y26.683
X63.461 Y26.739
X63.292 Y26.787
X63.12 Y26.829
X62.941 Y26.867
X62.754 Y26.9
X62.559 Y26.929
X62.42 Y26.946
X62.464 Y26.924
X62.507 Y26.901
X62.587 Y26.857
X62.621 Y26.838
X62.701 Y26.793
X62.728 Y26.777
X62.808 Y26.73
X62.829 Y26.717
X62.908 Y26.67
X62.921 Y26.662
X62.999 Y26.613
X63.085 Y26.56
G2 X63.531 Y26.187 I-1.103 J-1.772
G1 X63.595 Y26.117
X63.663 Y26.04
X63.675 Y26.027
X63.737 Y25.956
X63.753 Y25.938
X63.814 Y25.867
X63.836 Y25.841
X63.896 Y25.769
X63.922 Y25.738
X63.98 Y25.665
X64.012 Y25.624
X64.068 Y25.55
X64.103 Y25.504
X64.157 Y25.428
X64.197 Y25.371
X64.248 Y25.294
X64.289 Y25.231
X64.337 Y25.152
X64.382 Y25.076
X64.427 Y24.996
X65.069 Y25.034
X65.129 Y25.043 Z-2.488
X65.186 Y25.063 Z-2.476
X65.231 Y25.089 Z-2.441
X65.271 Y25.122 Z-2.407
X65.315 Y25.174 Z-2.304
X65.328 Y25.195 Z-2.183
G0 Z5
X85.971 Y25.932
G1 Z2.817 F1000
G18 G2 X86.278 Z2.5 I0.317 F333.3
G1 X87.901 Z2.443
Y26.706 Z2.416
X73.25 Z1.905
Y25.932 Z1.878
X77.479 Z1.73
G17 G2 X79.567 Y23.844 Z1.615 J-2.088
G1 Y10.838 Z1.161
X81.585 Z1.091
Y23.844 Z0.637
G2 X83.673 Y25.932 Z0.522 I2.088
G1 X87.901 Z0.374
Y26.706 Z0.347
X73.25 Z-0.164
Y25.932 Z-0.191
X77.479 Z-0.339
G2 X79.567 Y23.844 Z-0.454 J-2.088
G1 Y10.838 Z-0.908
X81.585 Z-0.978
Y23.844 Z-1.432
G2 X83.673 Y25.932 Z-1.547 I2.088
G1 X87.901 Z-1.695
Y26.706 Z-1.722
X73.25 Z-2.233
Y25.932 Z-2.26
X77.479 Z-2.408
G2 X79.468 Y24.477 Z-2.5 J-2.088
X79.567 Y23.844 I-1.989 J-0.633 F1000
G1 Y10.838
X81.585
Y23.844
G2 X83.673 Y25.932 I2.088
G1 X87.901
Y26.706
X73.25
Y25.932
X77.479
G2 X79.468 Y24.477 J-2.088
G1 X79.492 Y24.422 Z-2.488
X79.526 Y24.371 Z-2.476
X79.562 Y24.335 Z-2.441
X79.603 Y24.304 Z-2.407
X79.665 Y24.274 Z-2.304
X79.688 Y24.267 Z-2.183
G0 Z5
X39.873 Y26.602
G1 Z2.817 F1000
G18 G2 X40.179 Z2.5 I0.318 F333.3
G1 X46.626 Z2.275
Y26.706 Z2.271
X34.203 Z1.837
Y10.838 Z1.283
X46.927 Z0.839
Y11.202 Z0.826
X38.323 Z0.526
G17 G2 X36.235 Y13.29 Z0.411 J2.087
G1 Y17.241 Z0.273
G2 X37.899 Y19.285 Z0.174 I2.087
X36.235 Y21.329 Z0.074 I0.424 J2.044
G1 Y24.514 Z-0.037
G2 X38.323 Y26.602 Z-0.152 I2.087
G1 X46.626 Z-0.442
Y26.706 Z-0.445
X34.203 Z-0.879
Y10.838 Z-1.433
X46.927 Z-1.877
Y11.202 Z-1.89
X38.323 Z-2.191
G2 X36.235 Y13.29 Z-2.305 J2.087
G1 Y17.241 Z-2.443
G2 X36.84 Y18.71 Z-2.5 I2.087
X37.899 Y19.285 I1.483 J-1.469 F1000
X36.235 Y21.329 I0.424 J2.044
G1 Y24.514
G2 X38.323 Y26.602 I2.087
G1 X46.626
Y26.706
X34.203
Y10.838
X46.927
Y11.202
X38.323
G2 X36.235 Y13.29 J2.087
G1 Y17.241
G2 X36.84 Y18.71 I2.087
G1 X36.878 Y18.757 Z-2.488
X36.907 Y18.81 Z-2.476
X36.923 Y18.859 Z-2.441
X36.931 Y18.91 Z-2.407
X36.929 Y18.979 Z-2.304
X36.924 Y19.002 Z-2.183
G0 Z5
X25.309 Y25.932
G1 Z2.817 F1000
G18 G2 X25.616 Z2.5 I0.317 F333.3
G1 X27.239 Z2.443
Y26.706 Z2.416
X12.588 Z1.905
Y25.932 Z1.878
X16.817 Z1.73
G17 G2 X18.904 Y23.844 Z1.615 J-2.088
G1 Y10.838 Z1.161
X20.923 Z1.091
Y23.844 Z0.637
G2 X23.01 Y25.932 Z0.522 I2.088
G1 X27.239 Z0.374
Y26.706 Z0.347
X12.588 Z-0.164
Y25.932 Z-0.191
X16.817 Z-0.339
G2 X18.904 Y23.844 Z-0.454 J-2.088
G1 Y10.838 Z-0.908
X20.923 Z-0.978
Y23.844 Z-1.432
G2 X23.01 Y25.932 Z-1.547 I2.088
G1 X27.239 Z-1.695
Y26.706 Z-1.722
X12.588 Z-2.233
Y25.932 Z-2.26
X16.817 Z-2.408
G2 X18.806 Y24.477 Z-2.5 J-2.088
X18.904 Y23.844 I-1.989 J-0.633 F1000
G1 Y10.838
X20.923
Y23.844
G2 X23.01 Y25.932 I2.088
G1 X27.239
Y26.706
X12.588
Y25.932
X16.817
G2 X18.806 Y24.477 J-2.088
G1 X18.83 Y24.422 Z-2.488
X18.864 Y24.371 Z-2.476
X18.9 Y24.335 Z-2.441
X18.941 Y24.304 Z-2.407
X19.003 Y24.274 Z-2.304
X19.026 Y24.267 Z-2.183
G0 Z15

(2D Pocket2)
X36.514 Y18.244
Z15
Z5
G1 Z2.5 F1000
Z-2.683 F333.3
X36.539 Z-2.804
X36.607 Y18.252 Z-2.907
X36.656 Y18.268 Z-2.941
X36.702 Y18.291 Z-2.976
X36.75 Y18.328 Z-2.988
X36.791 Y18.373 Z-3
G2 X38.323 Y19.146 I1.532 J-1.132 F1000
G1 X46.056
Y19.424
X38.323
G2 X36.418 Y21.329 J1.905
G1 Y24.514
G2 X38.323 Y26.419 I1.905
G1 X46.808
Y26.889
X34.021
Y10.656
X47.109
Y11.385
X38.323
G2 X36.418 Y13.29 J1.905
G1 Y17.241
G2 X36.791 Y18.373 I1.905
X37.081 Y18.468 I0.212 J-0.157
G3 X37.382 Y18.519 I0.1 J0.324
G2 X38.323 Y18.828 I0.941 J-1.278
G1 X46.374
Y19.741
X38.323
G2 X36.735 Y21.329 J1.587
G1 Y24.514
G2 X38.323 Y26.102 I1.587
G1 X47.126
Y27.206
X33.703
Y10.338
X47.427
Y11.702
X38.323
G2 X36.735 Y13.29 J1.587
G1 Y17.241
G2 X37.382 Y18.519 I1.587
G1 X37.427 Y18.56 Z-2.988
X37.464 Y18.608 Z-2.976
X37.487 Y18.654 Z-2.941
X37.503 Y18.703 Z-2.907
X37.511 Y18.771 Z-2.804
X37.51 Y18.795 Z-2.683
G0 Z5
X18.545 Y24.981
G1 Z2.5 F333.3
Z-2.683
X18.533 Y24.96 Z-2.804
X18.508 Y24.896 Z-2.907
X18.5 Y24.845 Z-2.941
X18.499 Y24.794 Z-2.976
X18.509 Y24.734 Z-2.988
X18.53 Y24.677 Z-3
G2 X18.722 Y23.844 I-1.713 J-0.833 F1000
G1 Y10.656
X21.105
Y23.844
G2 X23.01 Y25.749 I1.905
G1 X27.422
Y26.889
X12.406
Y25.749
X16.817
G2 X18.53 Y24.677 J-1.905
X18.48 Y24.376 I-0.237 J-0.115
G3 X18.386 Y24.086 I0.241 J-0.239
G1 X18.4 Y23.965
X18.404 Y23.844
Y10.338
X21.423
Y23.844
G2 X23.01 Y25.432 I1.588
G1 X27.739
Y27.206
X12.088
Y25.432
X16.817
G2 X18.386 Y24.086 J-1.588
G1 X18.401 Y24.027 Z-2.988
X18.427 Y23.972 Z-2.976
X18.457 Y23.93 Z-2.941
X18.493 Y23.893 Z-2.907
X18.549 Y23.854 Z-2.804
X18.571 Y23.844 Z-2.683
G0 Z5
X67.328 Y16.132
G1 Z2.5 F333.3
Z-2.683
X67.343 Y16.151 Z-2.804
X67.376 Y16.212 Z-2.907
X67.392 Y16.26 Z-2.941
X67.4 Y16.311 Z-2.976
X67.398 Y16.372 Z-2.988
X67.386 Y16.431 Z-3
X67.38 Y16.448 F1000
X67.355 Y16.52
X67.326 Y16.595
X67.293 Y16.675
X67.255 Y16.761
X67.214 Y16.853
X67.169 Y16.948
X67.12 Y17.049
X67.068 Y17.154
X67.03 Y17.23
X66.963 Y17.319
X66.884 Y17.422
X66.809 Y17.519
X66.735 Y17.611
X66.665 Y17.696
X66.597 Y17.776
X66.532 Y17.849
X66.47 Y17.915
X66.41 Y17.976
X66.353 Y18.03
X66.295 Y18.081
X66.233 Y18.132
X66.165 Y18.185
X66.091 Y18.24
X66.01 Y18.296
X65.924 Y18.353
X65.832 Y18.412
X65.734 Y18.472
X65.63 Y18.534
X65.521 Y18.598
X65.407 Y18.663
X65.289 Y18.73
X65.267 Y18.742
X65.142 Y18.793
X64.91 Y18.887
X64.682 Y18.98
X64.455 Y19.07
X64.23 Y19.158
X64.008 Y19.244
X63.787 Y19.326
X63.569 Y19.405
X63.352 Y19.48
X63.137 Y19.552
X62.92 Y19.621
X62.701 Y19.687
X62.48 Y19.751
X62.255 Y19.813
X62.028 Y19.873
X61.799 Y19.932
X61.567 Y19.989
X61.332 Y20.045
X61.095 Y20.1
X60.855 Y20.155
X60.614 Y20.209
X60.371 Y20.262
X60.125 Y20.316
X59.896 Y20.365
X59.825 Y20.379
X59.729 Y20.398
X59.631 Y20.417
X59.621 Y20.419
X59.53 Y20.438
X59.517 Y20.441
X59.426 Y20.46
X59.409 Y20.464
X59.318 Y20.484
X59.299 Y20.489
X59.209 Y20.51
X59.185 Y20.515
X59.096 Y20.537
X59.068 Y20.544
X58.979 Y20.568
X58.949 Y20.576
X58.86 Y20.601
X58.827 Y20.611
X58.738 Y20.637
X58.702 Y20.648
X58.614 Y20.677
X58.574 Y20.69
X58.487 Y20.72
X58.446 Y20.735
X58.36 Y20.767
X58.314 Y20.785
X58.229 Y20.819
X58.181 Y20.839
X58.097 Y20.876
X58.055 Y20.895
X57.971 Y20.933
X57.936 Y20.95
X57.853 Y20.991
X57.821 Y21.007
X57.739 Y21.049
X57.712 Y21.063
X57.63 Y21.106
X57.612 Y21.116
X57.531 Y21.16
X57.515 Y21.169
X57.434 Y21.214
X57.424 Y21.22
X57.343 Y21.266
X57.258 Y21.314
G2 X56.882 Y21.596 I0.943 J1.655
G1 X56.851 Y21.626
X56.815 Y21.66
X56.802 Y21.673
X56.772 Y21.703
X56.758 Y21.716
X56.728 Y21.747
X56.704 Y21.772
X56.674 Y21.802
X56.648 Y21.83
X56.619 Y21.861
X56.589 Y21.896
X56.561 Y21.927
X56.523 Y21.972
X56.497 Y22.004
X56.457 Y22.054
X56.432 Y22.087
X56.389 Y22.144
X56.365 Y22.178
X56.316 Y22.252
X56.294 Y22.286
X56.245 Y22.366
X56.225 Y22.402
X56.176 Y22.492
X56.158 Y22.528
X56.114 Y22.621
X56.098 Y22.659
X56.06 Y22.75
X56.046 Y22.788
X56.018 Y22.866
X56.006 Y22.905
X55.983 Y22.979
X55.972 Y23.018
X55.955 Y23.082
X55.945 Y23.122
X55.932 Y23.175
X55.924 Y23.216
X55.915 Y23.259
X55.907 Y23.3
X55.9 Y23.339
X55.892 Y23.381
X55.889 Y23.404
X55.882 Y23.446
X55.879 Y23.465
X55.873 Y23.507
X55.866 Y23.554
G2 X55.859 Y24.054 I1.885 J0.276
G1 X55.865 Y24.108
X55.866 Y24.119
X55.873 Y24.173
X55.875 Y24.187
X55.882 Y24.241
X55.886 Y24.268
X55.893 Y24.321
X55.898 Y24.354
X55.907 Y24.407
X55.915 Y24.453
X55.925 Y24.505
X55.936 Y24.557
X55.947 Y24.609
X55.961 Y24.67
X55.974 Y24.721
X55.994 Y24.794
X56.009 Y24.844
X56.033 Y24.921
X56.05 Y24.97
X56.083 Y25.061
X56.102 Y25.109
X56.143 Y25.202
X56.164 Y25.249
X56.212 Y25.345
X56.236 Y25.391
X56.285 Y25.477
X56.311 Y25.521
X56.361 Y25.599
X56.39 Y25.643
X56.435 Y25.707
X56.466 Y25.75
X56.507 Y25.804
X56.54 Y25.846
X56.576 Y25.891
X56.61 Y25.931
X56.646 Y25.972
X56.681 Y26.013
X56.709 Y26.043
X56.745 Y26.082
X56.768 Y26.106
X56.805 Y26.146
X56.821 Y26.162
X56.859 Y26.201
X56.873 Y26.215
X56.912 Y26.253
X56.956 Y26.297
G2 X57.314 Y26.576 I1.342 J-1.352
G1 X57.376 Y26.614
X57.385 Y26.619
X57.447 Y26.656
X57.459 Y26.663
X57.522 Y26.7
X57.541 Y26.711
X57.604 Y26.747
X57.63 Y26.762
X57.693 Y26.796
X57.726 Y26.814
X57.789 Y26.847
X57.83 Y26.868
X57.894 Y26.9
X57.942 Y26.922
X58.007 Y26.952
X58.065 Y26.978
X58.131 Y27.005
X58.193 Y27.03
X58.259 Y27.055
X58.333 Y27.081
X58.4 Y27.103
X58.464 Y27.124
X58.315 Y27.103
X58.154 Y27.077
X57.994 Y27.047
X57.832 Y27.013
X57.667 Y26.975
X57.497 Y26.932
X57.323 Y26.885
X57.145 Y26.834
X56.964 Y26.78
X56.779 Y26.723
X56.589 Y26.663
X56.395 Y26.601
X56.332 Y26.58
X56.204 Y26.516
X56.085 Y26.456
X55.971 Y26.397
X55.863 Y26.339
X55.761 Y26.283
X55.666 Y26.229
X55.577 Y26.175
X55.494 Y26.123
X55.418 Y26.072
X55.349 Y26.022
X55.286 Y25.974
X55.227 Y25.926
X55.167 Y25.873
X55.105 Y25.814
X55.039 Y25.749
X54.971 Y25.677
X54.899 Y25.599
X54.825 Y25.514
X54.748 Y25.423
X54.667 Y25.326
X54.584 Y25.223
X54.502 Y25.121
X54.453 Y25.033
X54.396 Y24.932
X54.344 Y24.835
X54.295 Y24.742
X54.25 Y24.655
X54.21 Y24.572
X54.174 Y24.494
X54.143 Y24.421
X54.115 Y24.354
X54.093 Y24.292
X54.074 Y24.233
X54.057 Y24.175
X54.041 Y24.113
X54.026 Y24.043
X54.011 Y23.967
X53.997 Y23.884
X53.985 Y23.794
X53.973 Y23.697
X53.962 Y23.595
X53.951 Y23.485
X53.941 Y23.37
X53.934 Y23.287
X53.936 Y23.271
X53.953 Y23.097
X53.971 Y22.933
X53.99 Y22.777
X54.011 Y22.631
X54.033 Y22.496
X54.056 Y22.372
X54.082 Y22.259
X54.108 Y22.157
X54.136 Y22.067
X54.164 Y21.988
X54.193 Y21.919
X54.225 Y21.852
X54.265 Y21.78
X54.314 Y21.701
X54.372 Y21.614
X54.44 Y21.521
X54.518 Y21.422
X54.604 Y21.317
X54.7 Y21.205
X54.804 Y21.088
X54.916 Y20.967
X55.007 Y20.869
X55.038 Y20.849
X55.254 Y20.708
X55.466 Y20.571
X55.674 Y20.439
X55.879 Y20.313
X56.081 Y20.193
X56.279 Y20.079
X56.473 Y19.972
X56.665 Y19.873
X56.855 Y19.781
X57.045 Y19.695
X57.24 Y19.614
X57.441 Y19.536
X57.649 Y19.461
X57.862 Y19.389
X58.081 Y19.32
X58.305 Y19.253
X58.536 Y19.188
X58.771 Y19.125
X59.011 Y19.064
X59.256 Y19.003
X59.506 Y18.943
X59.76 Y18.883
X59.993 Y18.828
X60.109 Y18.804
X60.253 Y18.774
X60.398 Y18.743
X60.547 Y18.71
X60.561 Y18.707
X60.7 Y18.676
X60.717 Y18.672
X60.855 Y18.639
X60.873 Y18.635
X61.011 Y18.601
X61.036 Y18.595
X61.173 Y18.559
X61.198 Y18.552
X61.335 Y18.515
X61.364 Y18.507
X61.499 Y18.467
X61.533 Y18.457
X61.668 Y18.415
X61.705 Y18.403
X61.839 Y18.358
X61.875 Y18.345
X62.008 Y18.298
X62.051 Y18.282
X62.182 Y18.232
X62.226 Y18.214
X62.356 Y18.16
X62.403 Y18.14
X62.532 Y18.083
X62.572 Y18.064
X62.699 Y18.004
X62.735 Y17.987
X62.861 Y17.924
X62.891 Y17.908
X63.017 Y17.843
X63.042 Y17.829
X63.167 Y17.762
X63.185 Y17.752
X63.309 Y17.683
X63.325 Y17.674
X63.448 Y17.604
X63.458 Y17.599
X63.581 Y17.528
X63.708 Y17.454
G2 X64.122 Y17.131 I-0.954 J-1.649
G1 X64.17 Y17.082
X64.223 Y17.027
X64.232 Y17.017
X64.279 Y16.968
X64.296 Y16.95
X64.341 Y16.9
X64.362 Y16.878
X64.407 Y16.828
X64.431 Y16.8
X64.475 Y16.749
X64.507 Y16.711
X64.549 Y16.66
X64.584 Y16.615
X64.624 Y16.563
X64.661 Y16.513
X64.699 Y16.46
X64.742 Y16.397
X64.778 Y16.343
X64.822 Y16.273
X64.855 Y16.217
X64.9 Y16.139
X64.93 Y16.082
X64.977 Y15.989
X65.004 Y15.93
X65.044 Y15.84
X65.068 Y15.78
X65.1 Y15.695
X65.122 Y15.634
X65.148 Y15.555
X65.167 Y15.493
X65.186 Y15.422
