%
(TestFor1InchAL)
(Test program)
(Machine)
(  vendor: Banggood)
(  model: 3018)
(  description: Generic 3-axis)
(T1  D=3.175 CR=0 - ZMIN=-3 - flat end mill)
G90 G94
G17
G21
G28 G91 Z0
G90

(2D Pocket3)
M9
T1 M6
S9000 M3
G54
G0 X61.092 Y8.417
Z4
Z3
G1 Z2.817 F1000
X61.093 Y8.394 Z2.7 F333.3
Y8.329 Z2.599
X61.089 Y8.232 Z2.529
X61.077 Y8.116 Z2.5
Y8.111
X61.068 Y8.046 Z2.498
X61.058 Y7.967 Z2.495
X61.056 Y7.953 Z2.494
X61.046 Y7.883 Z2.492
X61.042 Y7.855 Z2.491
X61.031 Y7.786 Z2.489
X61.025 Y7.751 Z2.487
X61.013 Y7.682 Z2.485
X61.005 Y7.639 Z2.483
X60.991 Y7.571 Z2.481
X60.981 Y7.521 Z2.479
X60.965 Y7.454 Z2.477
X60.949 Y7.39 Z2.474
X60.932 Y7.324 Z2.472
X60.913 Y7.256 Z2.47
X60.893 Y7.191 Z2.467
X60.867 Y7.112 Z2.464
X60.844 Y7.048 Z2.462
X60.811 Y6.96 Z2.459
X60.785 Y6.898 Z2.456
X60.743 Y6.803 Z2.453
X60.715 Y6.742 Z2.45
X60.669 Y6.652 Z2.447
X60.637 Y6.593 Z2.444
X60.588 Y6.509 Z2.441
X60.553 Y6.452 Z2.439
X60.508 Y6.381 Z2.436
X60.47 Y6.324 Z2.433
X60.426 Y6.262 Z2.431
X60.386 Y6.207 Z2.428
X60.347 Y6.155 Z2.426
X60.304 Y6.101 Z2.424
X60.267 Y6.055 Z2.422
X60.223 Y6.002 Z2.419
X60.19 Y5.964 Z2.417
X60.144 Y5.912 Z2.415
X60.119 Y5.884 Z2.414
X60.071 Y5.832 Z2.411
X60.049 Y5.809 Z2.41
X60.001 Y5.758 Z2.408
X59.985 Y5.741 Z2.407
X59.936 Y5.69 Z2.404
X59.924 Y5.679
X59.874 Y5.628 Z2.401
X59.818 Y5.572 Z2.399
G2 X59.499 Y5.315 Z2.384 I-1.348 J1.346
G1 X59.421 Y5.265 Z2.381
X59.338 Y5.212 Z2.378
X59.326 Y5.204 Z2.377
X59.248 Y5.156 Z2.374
X59.228 Y5.143 Z2.373
X59.15 Y5.096 Z2.37
X59.124 Y5.081 Z2.369
X59.046 Y5.034 Z2.366
X59.012 Y5.015 Z2.364
X58.933 Y4.971 Z2.361
X58.893 Y4.949 Z2.359
X58.813 Y4.906 Z2.356
X58.765 Y4.882 Z2.354
X58.685 Y4.842 Z2.351
X58.627 Y4.815 Z2.349
X58.546 Y4.778 Z2.346
X58.48 Y4.75 Z2.344
X58.397 Y4.716 Z2.34
X58.324 Y4.688 Z2.338
X58.241 Y4.658 Z2.335
X58.16 Y4.631 Z2.332
X58.075 Y4.604 Z2.328
X57.999 Y4.582 Z2.326
X57.913 Y4.559 Z2.323
X57.842 Y4.542 Z2.32
X57.755 Y4.522 Z2.317
X57.691 Y4.509 Z2.315
X57.603 Y4.492 Z2.312
X57.545 Y4.482 Z2.309
X57.456 Y4.468 Z2.306
X57.405 Y4.46 Z2.305
X57.316 Y4.449 Z2.301
X57.271 Y4.443 Z2.3
X57.181 Y4.434 Z2.297
X57.143 Y4.43 Z2.295
X57.052 Y4.422 Z2.292
X57.021 Y4.419 Z2.291
X56.929 Y4.413 Z2.288
X56.904 Y4.411 Z2.287
X56.813 Y4.406 Z2.284
X56.794 Y4.405 Z2.283
X56.702 Y4.401 Z2.28
X56.689 Y4.4 Z2.279
X56.597 Y4.396 Z2.276
X56.499 Y4.393 Z2.273
X56.389 Y4.392 Z2.269
X56.28 Y4.397 Z2.265
X56.148 Y4.407 Z2.26
X56.007 Y4.418 Z2.256
X55.991 Y4.42 Z2.255
X55.86 Y4.432 Z2.25
X55.835 Y4.434
X55.704 Y4.448 Z2.245
X55.671 Y4.451 Z2.244
X55.541 Y4.467 Z2.239
X55.499 Y4.473 Z2.238
X55.37 Y4.491 Z2.233
X55.32 Y4.499 Z2.231
X55.193 Y4.521 Z2.227
X55.133 Y4.532 Z2.225
X55.007 Y4.557 Z2.22
X54.938 Y4.573 Z2.218
X54.815 Y4.603 Z2.213
X54.737 Y4.624 Z2.211
X54.616 Y4.658 Z2.206
X54.53 Y4.686 Z2.203
X54.411 Y4.726 Z2.199
X54.315 Y4.761 Z2.195
X54.2 Y4.808 Z2.191
X54.099 Y4.851 Z2.187
X53.986 Y4.904 Z2.183
X53.889 Y4.954 Z2.179
X53.779 Y5.013 Z2.174
X53.693 Y5.063 Z2.171
X53.586 Y5.128 Z2.166
X53.511 Y5.176 Z2.163
X53.407 Y5.247 Z2.159
X53.343 Y5.292 Z2.156
X53.241 Y5.367 Z2.152
X53.189 Y5.407 Z2.15
X53.088 Y5.487 Z2.145
X53.044 Y5.523 Z2.143
X52.945 Y5.606 Z2.139
X52.91 Y5.637 Z2.137
X52.812 Y5.723 Z2.132
X52.786 Y5.747 Z2.131
X52.689 Y5.836 Z2.127
X52.67 Y5.854 Z2.126
X52.574 Y5.944 Z2.121
X52.56 Y5.957 Z2.12
X52.465 Y6.049 Z2.116
X52.364 Y6.147 Z2.111
G2 X52.061 Y6.528 Z2.094 I1.328 J1.366
G1 X52.01 Y6.612 Z2.09
X51.958 Y6.701 Z2.087
X51.951 Y6.711 Z2.086
X51.901 Y6.796 Z2.083
X51.892 Y6.811 Z2.082
X51.843 Y6.896 Z2.079
X51.833 Y6.914 Z2.078
X51.784 Y6.999 Z2.075
X51.77 Y7.025 Z2.074
X51.724 Y7.11 Z2.07
X51.707 Y7.141 Z2.069
X51.662 Y7.228 Z2.066
X51.643 Y7.264 Z2.064
X51.6 Y7.352 Z2.061
X51.58 Y7.393 Z2.059
X51.539 Y7.481 Z2.056
X51.518 Y7.529 Z2.054
X51.48 Y7.618 Z2.051
X51.458 Y7.67 Z2.049
X51.446 Y7.7 Z2.048
X49.352 Y7.569 Z1.974
X49.367 Y7.53 Z1.973
X49.423 Y7.393 Z1.968
X49.485 Y7.261 Z1.963
X49.555 Y7.127 Z1.957
X49.634 Y6.988 Z1.952
X49.722 Y6.845 Z1.946
X49.82 Y6.698 Z1.94
X49.926 Y6.546 Z1.933
X50.041 Y6.389 Z1.926
X50.164 Y6.227 Z1.919
X50.294 Y6.062 Z1.912
X50.43 Y5.892 Z1.904
X50.529 Y5.771 Z1.899
X50.793 Y5.604 Z1.888
X51.044 Y5.449 Z1.878
X51.288 Y5.302 Z1.868
X51.526 Y5.165 Z1.858
X51.758 Y5.039 Z1.849
X51.983 Y4.924 Z1.84
X52.202 Y4.821 Z1.832
X52.415 Y4.731 Z1.824
X52.623 Y4.653 Z1.816
X52.831 Y4.586 Z1.808
X53.048 Y4.526 Z1.8
X53.274 Y4.474 Z1.792
X53.51 Y4.429 Z1.784
X53.756 Y4.391 Z1.775
X54.011 Y4.358 Z1.766
X54.276 Y4.332 Z1.757
X54.549 Y4.311 Z1.747
X54.83 Y4.296 Z1.737
X55.119 Y4.284 Z1.727
X55.416 Y4.276 Z1.717
X55.72 Y4.27 Z1.706
X56.031 Y4.266 Z1.696
X56.316 Y4.264 Z1.686
X56.489 Y4.268 Z1.679
X56.69 Y4.273 Z1.672
X56.887 Y4.279 Z1.666
X57.081 Y4.286 Z1.659
X57.27 Y4.295 Z1.652
X57.455 Y4.305 Z1.646
X57.636 Y4.316 Z1.639
X57.813 Y4.33 Z1.633
X57.985 Y4.347 Z1.627
X58.153 Y4.365 Z1.621
X58.317 Y4.387 Z1.616
X58.476 Y4.412 Z1.61
X58.631 Y4.439 Z1.604
X58.786 Y4.471 Z1.599
X58.944 Y4.507 Z1.593
X59.106 Y4.548 Z1.587
X59.271 Y4.593 Z1.581
X59.441 Y4.642 Z1.575
X59.614 Y4.695 Z1.569
X59.792 Y4.751 Z1.562
X59.973 Y4.81 Z1.556
X60.158 Y4.872 Z1.549
X60.347 Y4.936 Z1.542
X60.409 Y4.957 Z1.54
X60.43 Y4.968 Z1.539
X60.57 Y5.04 Z1.533
X60.703 Y5.11 Z1.528
X60.831 Y5.179 Z1.523
X60.953 Y5.246 Z1.518
X61.069 Y5.312 Z1.513
X61.178 Y5.377 Z1.509
X61.28 Y5.44 Z1.505
X61.375 Y5.503 Z1.501
X61.463 Y5.564 Z1.497
X61.544 Y5.624 Z1.494
X61.619 Y5.684 Z1.49
X61.691 Y5.745 Z1.487
X61.763 Y5.812 Z1.484
X61.839 Y5.885 Z1.48
X61.916 Y5.965 Z1.476
X61.997 Y6.053 Z1.472
X62.079 Y6.146 Z1.467
X62.165 Y6.246 Z1.463
X62.252 Y6.353 Z1.458
X62.343 Y6.465 Z1.453
X62.436 Y6.583 Z1.448
X62.532 Y6.706 Z1.442
X62.545 Y6.722
X62.552 Y6.735 Z1.441
X62.625 Y6.866 Z1.436
X62.694 Y6.992 Z1.431
X62.759 Y7.113 Z1.426
X62.82 Y7.23 Z1.421
X62.877 Y7.343 Z1.417
X62.929 Y7.45 Z1.413
X62.975 Y7.552 Z1.409
X63.017 Y7.65 Z1.405
X63.053 Y7.743 Z1.402
X63.084 Y7.829 Z1.399
X63.111 Y7.913 Z1.395
X63.135 Y7.998 Z1.392
X63.157 Y8.087 Z1.389
X63.177 Y8.184 Z1.386
X63.196 Y8.289 Z1.382
X63.214 Y8.4 Z1.378
X63.23 Y8.518 Z1.374
X63.244 Y8.641 Z1.37
X63.257 Y8.773 Z1.365
X63.27 Y8.91 Z1.36
X63.281 Y9.054 Z1.355
X63.292 Y9.203 Z1.35
X63.295 Y9.234 Z1.349
X63.287 Y9.36 Z1.344
X63.279 Y9.477 Z1.34
X63.27 Y9.588 Z1.336
X63.261 Y9.695 Z1.333
X63.251 Y9.795 Z1.329
X63.24 Y9.889 Z1.326
X63.228 Y9.978 Z1.323
X63.215 Y10.059 Z1.32
X63.201 Y10.135 Z1.317
X63.185 Y10.205 Z1.315
X63.169 Y10.269 Z1.312
X63.152 Y10.331 Z1.31
X63.13 Y10.398 Z1.308
X63.105 Y10.47 Z1.305
X63.076 Y10.545 Z1.302
X63.043 Y10.625 Z1.299
X63.005 Y10.711 Z1.296
X62.964 Y10.803 Z1.292
X62.919 Y10.898 Z1.289
X62.87 Y10.999 Z1.285
X62.818 Y11.104 Z1.281
X62.78 Y11.18 Z1.278
X62.713 Y11.269 Z1.274
X62.634 Y11.372 Z1.269
X62.559 Y11.469 Z1.265
X62.485 Y11.561 Z1.261
X62.415 Y11.646 Z1.257
X62.347 Y11.726 Z1.253
X62.282 Y11.799 Z1.25
X62.22 Y11.865 Z1.247
X62.16 Y11.926 Z1.244
X62.103 Y11.98 Z1.241
X62.045 Y12.031 Z1.238
X61.983 Y12.082 Z1.236
X61.915 Y12.135 Z1.233
X61.841 Y12.19 Z1.229
X61.76 Y12.246 Z1.226
X61.674 Y12.303 Z1.222
X61.582 Y12.362 Z1.218
X61.484 Y12.422 Z1.214
X61.38 Y12.484 Z1.21
X61.271 Y12.548 Z1.206
X61.157 Y12.613 Z1.201
X61.039 Y12.68 Z1.196
X61.017 Y12.692
X60.892 Y12.743 Z1.191
X60.66 Y12.837 Z1.182
X60.432 Y12.93 Z1.174
X60.205 Y13.02 Z1.165
X59.98 Y13.108 Z1.157
X59.758 Y13.194 Z1.148
X59.537 Y13.276 Z1.14
X59.319 Y13.355 Z1.132
X59.102 Y13.43 Z1.124
X58.887 Y13.502 Z1.116
X58.67 Y13.571 Z1.108
X58.451 Y13.637 Z1.1
X58.23 Y13.701 Z1.092
X58.005 Y13.763 Z1.084
X57.778 Y13.823 Z1.076
X57.549 Y13.882 Z1.067
X57.317 Y13.939 Z1.059
X57.082 Y13.995 Z1.051
X56.845 Y14.05 Z1.042
X56.605 Y14.105 Z1.034
X56.364 Y14.159 Z1.025
X56.121 Y14.212 Z1.016
X55.875 Y14.266 Z1.007
X55.646 Y14.315 Z0.999
X55.575 Y14.329 Z0.997
X55.479 Y14.348 Z0.993
X55.381 Y14.367 Z0.99
X55.371 Y14.369 Z0.989
X55.28 Y14.388 Z0.986
X55.267 Y14.391
X55.176 Y14.41 Z0.983
X55.159 Y14.414 Z0.982
X55.068 Y14.434 Z0.979
X55.049 Y14.439 Z0.978
X54.959 Y14.46 Z0.975
X54.935 Y14.465 Z0.974
X54.846 Y14.487 Z0.971
X54.818 Y14.494 Z0.97
X54.729 Y14.518 Z0.966
X54.699 Y14.526 Z0.965
X54.61 Y14.551 Z0.962
X54.577 Y14.561 Z0.961
X54.488 Y14.587 Z0.958
X54.452 Y14.598 Z0.956
X54.364 Y14.627 Z0.953
X54.324 Y14.64 Z0.952
X54.237 Y14.67 Z0.948
X54.196 Y14.685 Z0.947
X54.11 Y14.717 Z0.944
X54.064 Y14.735 Z0.942
X53.979 Y14.769 Z0.939
X53.931 Y14.789 Z0.937
X53.847 Y14.826 Z0.934
X53.805 Y14.845 Z0.932
X53.721 Y14.883 Z0.929
X53.686 Y14.9 Z0.928
X53.603 Y14.941 Z0.924
X53.571 Y14.957 Z0.923
X53.489 Y14.999 Z0.92
X53.462 Y15.013 Z0.919
X53.38 Y15.056 Z0.916
X53.362 Y15.066 Z0.915
X53.281 Y15.11 Z0.912
X53.265 Y15.119 Z0.911
X53.184 Y15.164 Z0.908
X53.174 Y15.17 Z0.907
X53.093 Y15.216 Z0.904
X53.008 Y15.264 Z0.901
G2 X52.632 Y15.546 Z0.884 I0.943 J1.655
G1 X52.601 Y15.576 Z0.883
X52.565 Y15.61 Z0.881
X52.552 Y15.623 Z0.88
X52.522 Y15.653 Z0.879
X52.508 Y15.666 Z0.878
X52.478 Y15.697 Z0.877
X52.454 Y15.722 Z0.876
X52.424 Y15.752 Z0.874
X52.398 Y15.78 Z0.873
X52.369 Y15.811 Z0.871
X52.339 Y15.846 Z0.87
X52.311 Y15.877 Z0.868
X52.273 Y15.922 Z0.866
X52.247 Y15.954 Z0.865
X52.207 Y16.004 Z0.862
X52.182 Y16.037 Z0.861
X52.139 Y16.094 Z0.859
X52.115 Y16.128 Z0.857
X52.066 Y16.202 Z0.854
X52.044 Y16.236 Z0.853
X51.995 Y16.316 Z0.849
X51.975 Y16.352 Z0.848
X51.926 Y16.442 Z0.844
X51.908 Y16.478 Z0.843
X51.864 Y16.571 Z0.839
X51.848 Y16.609 Z0.838
X51.81 Y16.7 Z0.834
X51.796 Y16.738 Z0.833
X51.768 Y16.816 Z0.83
X51.756 Y16.855 Z0.829
X51.733 Y16.929 Z0.826
X51.722 Y16.968 Z0.825
X51.705 Y17.032 Z0.822
X51.695 Y17.072 Z0.821
X51.682 Y17.125 Z0.819
X51.674 Y17.166 Z0.817
X51.665 Y17.209 Z0.816
X51.657 Y17.25 Z0.814
X51.65 Y17.289 Z0.813
X51.642 Y17.331 Z0.812
X51.639 Y17.354 Z0.811
X51.632 Y17.396 Z0.809
X51.629 Y17.415
X51.623 Y17.457 Z0.807
X51.616 Y17.504 Z0.805
G2 X51.609 Y18.004 Z0.788 I1.885 J0.276
G1 X51.615 Y18.058 Z0.786
X51.616 Y18.069
X51.623 Y18.123 Z0.784
X51.625 Y18.137 Z0.783
X51.632 Y18.191 Z0.781
X51.636 Y18.218 Z0.78
X51.643 Y18.271 Z0.778
X51.648 Y18.304 Z0.777
X51.657 Y18.357 Z0.775
X51.665 Y18.403 Z0.774
X51.675 Y18.455 Z0.772
X51.686 Y18.507 Z0.77
X51.697 Y18.559 Z0.768
X51.711 Y18.62 Z0.766
X51.724 Y18.671 Z0.764
X51.744 Y18.744 Z0.762
X51.759 Y18.794 Z0.76
X51.783 Y18.871 Z0.757
X51.8 Y18.92 Z0.755
X51.833 Y19.011 Z0.752
X51.852 Y19.059 Z0.75
X51.893 Y19.152 Z0.746
X51.914 Y19.199 Z0.745
X51.962 Y19.295 Z0.741
X51.986 Y19.341 Z0.739
X52.035 Y19.427 Z0.736
X52.061 Y19.471 Z0.734
X52.111 Y19.549 Z0.731
X52.14 Y19.593 Z0.729
X52.185 Y19.657 Z0.726
X52.216 Y19.7 Z0.724
X52.257 Y19.754 Z0.722
X52.29 Y19.796 Z0.72
X52.326 Y19.841 Z0.718
X52.36 Y19.881 Z0.716
X52.396 Y19.922 Z0.714
X52.431 Y19.963 Z0.712
X52.459 Y19.993 Z0.711
X52.495 Y20.032 Z0.709
X52.518 Y20.056 Z0.708
X52.555 Y20.096 Z0.706
X52.571 Y20.112 Z0.705
X52.609 Y20.151 Z0.703
X52.623 Y20.165
X52.662 Y20.203 Z0.701
X52.706 Y20.247 Z0.698
G2 X53.064 Y20.526 Z0.683 I1.342 J-1.352
G1 X53.126 Y20.564 Z0.68
X53.135 Y20.569
X53.197 Y20.606 Z0.677
X53.209 Y20.613
X53.272 Y20.65 Z0.674
X53.291 Y20.661 Z0.673
X53.354 Y20.697 Z0.671
X53.38 Y20.712 Z0.67
X53.443 Y20.746 Z0.667
X53.476 Y20.764 Z0.666
X53.539 Y20.797 Z0.664
X53.58 Y20.818 Z0.662
X53.644 Y20.85 Z0.659
X53.692 Y20.872 Z0.658
X53.757 Y20.902 Z0.655
X53.815 Y20.928 Z0.653
X53.881 Y20.955 Z0.65
X53.943 Y20.98 Z0.648
X54.009 Y21.005 Z0.646
X54.083 Y21.031 Z0.643
X54.15 Y21.053 Z0.64
X54.214 Y21.074 Z0.638
X54.065 Y21.053 Z0.633
X53.904 Y21.027 Z0.627
X53.744 Y20.997 Z0.621
X53.582 Y20.963 Z0.616
X53.417 Y20.925 Z0.61
X53.247 Y20.882 Z0.604
X53.073 Y20.835 Z0.597
X52.895 Y20.784 Z0.591
X52.714 Y20.73 Z0.584
X52.529 Y20.673 Z0.577
X52.339 Y20.613 Z0.57
X52.145 Y20.551 Z0.563
X52.082 Y20.53 Z0.561
X51.954 Y20.466 Z0.556
X51.835 Y20.406 Z0.551
X51.721 Y20.347 Z0.547
X51.613 Y20.289 Z0.543
X51.511 Y20.233 Z0.539
X51.416 Y20.179 Z0.535
X51.327 Y20.125 Z0.531
X51.244 Y20.073 Z0.528
X51.168 Y20.022 Z0.524
X51.099 Y19.972 Z0.521
X51.036 Y19.924 Z0.519
X50.977 Y19.876 Z0.516
X50.917 Y19.823 Z0.513
X50.855 Y19.764 Z0.51
X50.789 Y19.699 Z0.507
X50.721 Y19.627 Z0.504
X50.649 Y19.549 Z0.5
X50.575 Y19.464 Z0.496
X50.498 Y19.373 Z0.492
X50.417 Y19.276 Z0.487
X50.334 Y19.173 Z0.483
X50.252 Y19.071 Z0.478
X50.203 Y18.983 Z0.475
X50.146 Y18.882 Z0.471
X50.094 Y18.785 Z0.467
X50.045 Y18.692 Z0.463
X50 Y18.605 Z0.46
X49.96 Y18.522 Z0.456
X49.924 Y18.444 Z0.453
X49.893 Y18.371 Z0.451
X49.865 Y18.304 Z0.448
X49.843 Y18.242 Z0.446
X49.824 Y18.183 Z0.444
X49.807 Y18.125 Z0.442
X49.791 Y18.063 Z0.439
X49.776 Y17.993 Z0.437
X49.761 Y17.917 Z0.434
X49.747 Y17.834 Z0.431
X49.735 Y17.744 Z0.428
X49.723 Y17.647 Z0.425
X49.712 Y17.545 Z0.421
X49.701 Y17.435 Z0.417
X49.691 Y17.32 Z0.413
X49.684 Y17.237 Z0.41
X49.686 Y17.221
X49.703 Y17.047 Z0.404
X49.721 Y16.882 Z0.398
X49.74 Y16.727 Z0.392
X49.761 Y16.581 Z0.387
X49.783 Y16.446 Z0.382
X49.806 Y16.322 Z0.378
X49.832 Y16.209 Z0.374
X49.858 Y16.107 Z0.37
X49.886 Y16.017 Z0.367
X49.914 Y15.938 Z0.364
X49.943 Y15.869 Z0.361
X49.975 Y15.802 Z0.359
X50.015 Y15.73 Z0.356
X50.064 Y15.651 Z0.353
X50.122 Y15.564 Z0.349
X50.19 Y15.471 Z0.345
X50.268 Y15.372 Z0.341
X50.354 Y15.267 Z0.336
X50.45 Y15.155 Z0.331
X50.554 Y15.038 Z0.325
X50.666 Y14.917 Z0.32
X50.757 Y14.819 Z0.315
X50.788 Y14.799 Z0.314
X51.004 Y14.658 Z0.305
X51.216 Y14.521 Z0.296
X51.424 Y14.389 Z0.287
X51.629 Y14.263 Z0.279
X51.831 Y14.143 Z0.271
X52.029 Y14.029 Z0.263
X52.223 Y13.922 Z0.255
X52.415 Y13.823 Z0.247
X52.605 Y13.731 Z0.24
X52.795 Y13.645 Z0.233
X52.99 Y13.564 Z0.225
X53.191 Y13.486 Z0.218
X53.399 Y13.411 Z0.21
X53.612 Y13.339 Z0.202
X53.831 Y13.27 Z0.194
X54.055 Y13.203 Z0.186
X54.286 Y13.138 Z0.178
X54.521 Y13.075 Z0.169
X54.761 Y13.014 Z0.16
X55.006 Y12.953 Z0.152
X55.256 Y12.893 Z0.143
X55.51 Y12.833 Z0.134
X55.743 Y12.778 Z0.125
X55.859 Y12.754 Z0.121
X56.003 Y12.724 Z0.116
X56.148 Y12.693 Z0.111
X56.297 Y12.66 Z0.105
X56.311 Y12.657
X56.45 Y12.626 Z0.1
X56.467 Y12.622 Z0.099
X56.605 Y12.589 Z0.094
X56.623 Y12.585
X56.761 Y12.551 Z0.089
X56.786 Y12.545 Z0.088
X56.923 Y12.509 Z0.083
X56.948 Y12.502 Z0.082
X57.085 Y12.465 Z0.077
X57.114 Y12.457 Z0.076
X57.249 Y12.417 Z0.071
X57.283 Y12.407 Z0.07
X57.418 Y12.365 Z0.065
X57.455 Y12.353 Z0.064
X57.589 Y12.308 Z0.059
X57.625 Y12.295 Z0.057
X57.758 Y12.248 Z0.052
X57.801 Y12.232 Z0.051
X57.932 Y12.182 Z0.046
X57.976 Y12.164 Z0.044
X58.106 Y12.11 Z0.039
X58.153 Y12.09 Z0.037
X58.282 Y12.033 Z0.033
X58.322 Y12.014 Z0.031
X58.449 Y11.954 Z0.026
X58.485 Y11.937 Z0.025
X58.611 Y11.874 Z0.02
X58.641 Y11.858 Z0.019
X58.767 Y11.793 Z0.014
X58.792 Y11.779 Z0.013
X58.917 Y11.712 Z0.008
X58.935 Y11.702 Z0.007
X59.059 Y11.633 Z0.002
X59.075 Y11.624 Z0.001
X59.198 Y11.554 Z-0.004
X59.207 Y11.549
X59.331 Y11.478 Z-0.009
X59.459 Y11.404 Z-0.014
G2 X59.873 Y11.081 Z-0.032 I-0.954 J-1.649
G1 X59.92 Y11.032 Z-0.035
X59.972 Y10.978 Z-0.037
X59.982 Y10.968 Z-0.038
X60.029 Y10.918 Z-0.04
X60.046 Y10.9 Z-0.041
X60.092 Y10.85 Z-0.044
X60.111 Y10.829 Z-0.045
X60.156 Y10.779 Z-0.047
X60.182 Y10.749 Z-0.048
X60.225 Y10.699 Z-0.051
X60.257 Y10.661 Z-0.052
X60.299 Y10.61 Z-0.055
X60.333 Y10.566 Z-0.057
X60.374 Y10.514 Z-0.059
X60.411 Y10.463 Z-0.061
X60.45 Y10.409 Z-0.063
X60.493 Y10.347 Z-0.066
X60.529 Y10.292 Z-0.068
X60.572 Y10.224 Z-0.071
X60.605 Y10.168 Z-0.073
X60.65 Y10.089 Z-0.077
X60.681 Y10.032 Z-0.079
X60.727 Y9.939 Z-0.082
X60.754 Y9.88 Z-0.085
X60.794 Y9.79 Z-0.088
X60.818 Y9.73 Z-0.09
X60.85 Y9.645 Z-0.094
X60.872 Y9.584 Z-0.096
X60.898 Y9.505 Z-0.099
X60.908 Y9.472 Z-0.1
X60.917 Y9.442 F1000
X60.936 Y9.372
X60.953 Y9.309
X60.967 Y9.251
X60.982 Y9.186
X60.993 Y9.135
X61.006 Y9.069
X61.015 Y9.025
X61.026 Y8.958
X61.031 Y8.928
X61.042 Y8.862
X61.046 Y8.835
X61.056 Y8.768
X61.058 Y8.751
X61.067 Y8.683
X61.077 Y8.607
G2 Y8.116 I-1.889 J-0.246
G1 X61.068 Y8.046
X61.058 Y7.967
X61.056 Y7.953
X61.046 Y7.883
X61.042 Y7.855
X61.031 Y7.786
X61.025 Y7.751
X61.013 Y7.682
X61.005 Y7.639
X60.991 Y7.571
X60.981 Y7.521
X60.965 Y7.454
X60.949 Y7.39
X60.932 Y7.324
X60.913 Y7.256
X60.893 Y7.191
X60.867 Y7.112
X60.844 Y7.048
X60.811 Y6.96
X60.785 Y6.898
X60.743 Y6.803
X60.715 Y6.742
X60.669 Y6.652
X60.637 Y6.593
X60.588 Y6.509
X60.553 Y6.452
X60.508 Y6.381
X60.47 Y6.324
X60.426 Y6.262
X60.386 Y6.207
X60.347 Y6.155
X60.304 Y6.101
X60.267 Y6.055
X60.223 Y6.002
X60.19 Y5.964
X60.144 Y5.912
X60.119 Y5.884
X60.071 Y5.832
X60.049 Y5.809
X60.001 Y5.758
X59.985 Y5.741
X59.936 Y5.69
X59.924 Y5.679
X59.874 Y5.628
X59.818 Y5.572
G2 X59.499 Y5.315 I-1.348 J1.346
G1 X59.421 Y5.265
X59.338 Y5.212
X59.326 Y5.204
X59.248 Y5.156
X59.228 Y5.143
X59.15 Y5.096
X59.124 Y5.081
X59.046 Y5.034
X59.012 Y5.015
X58.933 Y4.971
X58.893 Y4.949
X58.813 Y4.906
X58.765 Y4.882
X58.685 Y4.842
X58.627 Y4.815
X58.546 Y4.778
X58.48 Y4.75
X58.397 Y4.716
X58.324 Y4.688
X58.241 Y4.658
X58.16 Y4.631
X58.075 Y4.604
X57.999 Y4.582
X57.913 Y4.559
X57.842 Y4.542
X57.755 Y4.522
X57.691 Y4.509
X57.603 Y4.492
X57.545 Y4.482
X57.456 Y4.468
X57.405 Y4.46
X57.316 Y4.449
X57.271 Y4.443
X57.181 Y4.434
X57.143 Y4.43
X57.052 Y4.422
X57.021 Y4.419
X56.929 Y4.413
X56.904 Y4.411
X56.813 Y4.406
X56.794 Y4.405
X56.702 Y4.401
X56.689 Y4.4
X56.597 Y4.396
X56.499 Y4.393
X56.389 Y4.392
X56.28 Y4.397
X56.148 Y4.407
X56.007 Y4.418
X55.991 Y4.42
X55.86 Y4.432
X55.835 Y4.434
X55.704 Y4.448
X55.671 Y4.451
X55.541 Y4.467
X55.499 Y4.473
X55.37 Y4.491
X55.32 Y4.499
X55.193 Y4.521
X55.133 Y4.532
X55.007 Y4.557
X54.938 Y4.573
X54.815 Y4.603
X54.737 Y4.624
X54.616 Y4.658
X54.53 Y4.686
X54.411 Y4.726
X54.315 Y4.761
X54.2 Y4.808
X54.099 Y4.851
X53.986 Y4.904
X53.889 Y4.954
X53.779 Y5.013
X53.693 Y5.063
X53.586 Y5.128
X53.511 Y5.176
X53.407 Y5.247
X53.343 Y5.292
X53.241 Y5.367
X53.189 Y5.407
X53.088 Y5.487
X53.044 Y5.523
X52.945 Y5.606
X52.91 Y5.637
X52.812 Y5.723
X52.786 Y5.747
X52.689 Y5.836
X52.67 Y5.854
X52.574 Y5.944
X52.56 Y5.957
X52.465 Y6.049
X52.364 Y6.147
G2 X52.061 Y6.528 I1.328 J1.366
G1 X52.01 Y6.612
X51.958 Y6.701
X51.951 Y6.711
X51.901 Y6.796
X51.892 Y6.811
X51.843 Y6.896
X51.833 Y6.914
X51.784 Y6.999
X51.77 Y7.025
X51.724 Y7.11
X51.707 Y7.141
X51.662 Y7.228
X51.643 Y7.264
X51.6 Y7.352
X51.58 Y7.393
X51.539 Y7.481
X51.518 Y7.529
X51.48 Y7.618
X51.458 Y7.67
X51.446 Y7.7
X49.352 Y7.569
X49.367 Y7.53
X49.423 Y7.393
X49.485 Y7.261
X49.555 Y7.127
X49.634 Y6.988
X49.722 Y6.845
X49.82 Y6.698
X49.926 Y6.546
X50.041 Y6.389
X50.164 Y6.227
X50.294 Y6.062
X50.43 Y5.892
X50.529 Y5.771
X50.793 Y5.604
X51.044 Y5.449
X51.288 Y5.302
X51.526 Y5.165
X51.758 Y5.039
X51.983 Y4.924
X52.202 Y4.821
X52.415 Y4.731
X52.623 Y4.653
X52.831 Y4.586
X53.048 Y4.526
X53.274 Y4.474
X53.51 Y4.429
X53.756 Y4.391
X54.011 Y4.358
X54.276 Y4.332
X54.549 Y4.311
X54.83 Y4.296
X55.119 Y4.284
X55.416 Y4.276
X55.72 Y4.27
X56.031 Y4.266
X56.316 Y4.264
X56.489 Y4.268
X56.69 Y4.273
X56.887 Y4.279
X57.081 Y4.286
X57.27 Y4.295
X57.455 Y4.305
X57.636 Y4.316
X57.813 Y4.33
X57.985 Y4.347
X58.153 Y4.365
X58.317 Y4.387
X58.476 Y4.412
X58.631 Y4.439
X58.786 Y4.471
X58.944 Y4.507
X59.106 Y4.548
X59.271 Y4.593
X59.441 Y4.642
X59.614 Y4.695
X59.792 Y4.751
X59.973 Y4.81
X60.158 Y4.872
X60.347 Y4.936
X60.409 Y4.957
X60.43 Y4.968
X60.57 Y5.04
X60.703 Y5.11
X60.831 Y5.179
X60.953 Y5.246
X61.069 Y5.312
X61.178 Y5.377
X61.28 Y5.44
X61.375 Y5.503
X61.463 Y5.564
X61.544 Y5.624
X61.619 Y5.684
X61.691 Y5.745
X61.763 Y5.812
X61.839 Y5.885
X61.916 Y5.965
X61.997 Y6.053
X62.079 Y6.146
X62.165 Y6.246
X62.252 Y6.353
X62.343 Y6.465
X62.436 Y6.583
X62.532 Y6.706
X62.545 Y6.722
X62.552 Y6.735
X62.625 Y6.866
X62.694 Y6.992
X62.759 Y7.113
X62.82 Y7.23
X62.877 Y7.343
X62.929 Y7.45
X62.975 Y7.552
X63.017 Y7.65
X63.053 Y7.743
X63.084 Y7.829
X63.111 Y7.913
X63.135 Y7.998
X63.157 Y8.087
X63.177 Y8.184
X63.196 Y8.289
X63.214 Y8.4
X63.23 Y8.518
X63.244 Y8.641
X63.257 Y8.773
X63.27 Y8.91
X63.281 Y9.054
X63.292 Y9.203
X63.295 Y9.234
X63.287 Y9.36
X63.279 Y9.477
X63.27 Y9.588
X63.261 Y9.695
X63.251 Y9.795
X63.24 Y9.889
X63.228 Y9.978
X63.215 Y10.059
X63.201 Y10.135
X63.185 Y10.205
X63.169 Y10.269
X63.152 Y10.331
X63.13 Y10.398
X63.105 Y10.47
X63.076 Y10.545
X63.043 Y10.625
X63.005 Y10.711
X62.964 Y10.803
X62.919 Y10.898
X62.87 Y10.999
X62.818 Y11.104
X62.78 Y11.18
X62.713 Y11.269
X62.634 Y11.372
X62.559 Y11.469
X62.485 Y11.561
X62.415 Y11.646
X62.347 Y11.726
X62.282 Y11.799
X62.22 Y11.865
X62.16 Y11.926
X62.103 Y11.98
X62.045 Y12.031
X61.983 Y12.082
X61.915 Y12.135
X61.841 Y12.19
X61.76 Y12.246
X61.674 Y12.303
X61.582 Y12.362
X61.484 Y12.422
X61.38 Y12.484
X61.271 Y12.548
X61.157 Y12.613
X61.039 Y12.68
X61.017 Y12.692
X60.892 Y12.743
X60.66 Y12.837
X60.432 Y12.93
X60.205 Y13.02
X59.98 Y13.108
X59.758 Y13.194
X59.537 Y13.276
X59.319 Y13.355
X59.102 Y13.43
X58.887 Y13.502
X58.67 Y13.571
X58.451 Y13.637
X58.23 Y13.701
X58.005 Y13.763
X57.778 Y13.823
X57.549 Y13.882
X57.317 Y13.939
X57.082 Y13.995
X56.845 Y14.05
X56.605 Y14.105
X56.364 Y14.159
X56.121 Y14.212
X55.875 Y14.266
X55.646 Y14.315
X55.575 Y14.329
X55.479 Y14.348
X55.381 Y14.367
X55.371 Y14.369
X55.28 Y14.388
X55.267 Y14.391
X55.176 Y14.41
X55.159 Y14.414
X55.068 Y14.434
X55.049 Y14.439
X54.959 Y14.46
X54.935 Y14.465
X54.846 Y14.487
X54.818 Y14.494
X54.729 Y14.518
X54.699 Y14.526
X54.61 Y14.551
X54.577 Y14.561
X54.488 Y14.587
X54.452 Y14.598
X54.364 Y14.627
X54.324 Y14.64
X54.237 Y14.67
X54.196 Y14.685
X54.11 Y14.717
X54.064 Y14.735
X53.979 Y14.769
X53.931 Y14.789
X53.847 Y14.826
X53.805 Y14.845
X53.721 Y14.883
X53.686 Y14.9
X53.603 Y14.941
X53.571 Y14.957
X53.489 Y14.999
X53.462 Y15.013
X53.38 Y15.056
X53.362 Y15.066
X53.281 Y15.11
X53.265 Y15.119
X53.184 Y15.164
X53.174 Y15.17
X53.093 Y15.216
X53.008 Y15.264
G2 X52.632 Y15.546 I0.943 J1.655
G1 X52.601 Y15.576
X52.565 Y15.61
X52.552 Y15.623
X52.522 Y15.653
X52.508 Y15.666
X52.478 Y15.697
X52.454 Y15.722
X52.424 Y15.752
X52.398 Y15.78
X52.369 Y15.811
X52.339 Y15.846
X52.311 Y15.877
X52.273 Y15.922
X52.247 Y15.954
X52.207 Y16.004
X52.182 Y16.037
X52.139 Y16.094
X52.115 Y16.128
X52.066 Y16.202
X52.044 Y16.236
X51.995 Y16.316
X51.975 Y16.352
X51.926 Y16.442
X51.908 Y16.478
X51.864 Y16.571
X51.848 Y16.609
X51.81 Y16.7
X51.796 Y16.738
X51.768 Y16.816
X51.756 Y16.855
X51.733 Y16.929
X51.722 Y16.968
X51.705 Y17.032
X51.695 Y17.072
X51.682 Y17.125
X51.674 Y17.166
X51.665 Y17.209
X51.657 Y17.25
X51.65 Y17.289
X51.642 Y17.331
X51.639 Y17.354
X51.632 Y17.396
X51.629 Y17.415
X51.623 Y17.457
X51.616 Y17.504
G2 X51.609 Y18.004 I1.885 J0.276
G1 X51.615 Y18.058
X51.616 Y18.069
X51.623 Y18.123
X51.625 Y18.137
X51.632 Y18.191
X51.636 Y18.218
X51.643 Y18.271
X51.648 Y18.304
X51.657 Y18.357
X51.665 Y18.403
X51.675 Y18.455
X51.686 Y18.507
X51.697 Y18.559
X51.711 Y18.62
X51.724 Y18.671
X51.744 Y18.744
X51.759 Y18.794
X51.783 Y18.871
X51.8 Y18.92
X51.833 Y19.011
X51.852 Y19.059
X51.893 Y19.152
X51.914 Y19.199
X51.962 Y19.295
X51.986 Y19.341
X52.035 Y19.427
X52.061 Y19.471
X52.111 Y19.549
X52.14 Y19.593
X52.185 Y19.657
X52.216 Y19.7
X52.257 Y19.754
X52.29 Y19.796
X52.326 Y19.841
X52.36 Y19.881
X52.396 Y19.922
X52.431 Y19.963
X52.459 Y19.993
X52.495 Y20.032
X52.518 Y20.056
X52.555 Y20.096
X52.571 Y20.112
X52.609 Y20.151
X52.623 Y20.165
X52.662 Y20.203
X52.706 Y20.247
G2 X53.064 Y20.526 I1.342 J-1.352
G1 X53.126 Y20.564
X53.135 Y20.569
X53.197 Y20.606
X53.209 Y20.613
X53.272 Y20.65
X53.291 Y20.661
X53.354 Y20.697
X53.38 Y20.712
X53.443 Y20.746
X53.476 Y20.764
X53.539 Y20.797
X53.58 Y20.818
X53.644 Y20.85
X53.692 Y20.872
X53.757 Y20.902
X53.815 Y20.928
X53.881 Y20.955
X53.943 Y20.98
X54.009 Y21.005
X54.083 Y21.031
X54.15 Y21.053
X54.214 Y21.074
X54.065 Y21.053
X53.904 Y21.027
X53.744 Y20.997
X53.582 Y20.963
X53.417 Y20.925
X53.247 Y20.882
X53.073 Y20.835
X52.895 Y20.784
X52.714 Y20.73
X52.529 Y20.673
X52.339 Y20.613
X52.145 Y20.551
X52.082 Y20.53
X51.954 Y20.466
X51.835 Y20.406
X51.721 Y20.347
X51.613 Y20.289
X51.511 Y20.233
X51.416 Y20.179
X51.327 Y20.125
X51.244 Y20.073
X51.168 Y20.022
X51.099 Y19.972
X51.036 Y19.924
X50.977 Y19.876
X50.917 Y19.823
X50.855 Y19.764
X50.789 Y19.699
X50.721 Y19.627
X50.649 Y19.549
X50.575 Y19.464
X50.498 Y19.373
X50.417 Y19.276
X50.334 Y19.173
X50.252 Y19.071
X50.203 Y18.983
X50.146 Y18.882
X50.094 Y18.785
X50.045 Y18.692
X50 Y18.605
X49.96 Y18.522
X49.924 Y18.444
X49.893 Y18.371
X49.865 Y18.304
X49.843 Y18.242
X49.824 Y18.183
X49.807 Y18.125
X49.791 Y18.063
X49.776 Y17.993
X49.761 Y17.917
X49.747 Y17.834
X49.735 Y17.744
X49.723 Y17.647
X49.712 Y17.545
X49.701 Y17.435
X49.691 Y17.32
X49.684 Y17.237
X49.686 Y17.221
X49.703 Y17.047
X49.721 Y16.882
X49.74 Y16.727
X49.761 Y16.581
X49.783 Y16.446
X49.806 Y16.322
X49.832 Y16.209
X49.858 Y16.107
X49.886 Y16.017
X49.914 Y15.938
X49.943 Y15.869
X49.975 Y15.802
X50.015 Y15.73
X50.064 Y15.651
X50.122 Y15.564
X50.19 Y15.471
X50.268 Y15.372
X50.354 Y15.267
X50.45 Y15.155
X50.554 Y15.038
X50.666 Y14.917
X50.757 Y14.819
X50.788 Y14.799
X51.004 Y14.658
X51.216 Y14.521
X51.424 Y14.389
X51.629 Y14.263
X51.831 Y14.143
X52.029 Y14.029
X52.223 Y13.922
X52.415 Y13.823
X52.605 Y13.731
X52.795 Y13.645
X52.99 Y13.564
X53.191 Y13.486
X53.399 Y13.411
X53.612 Y13.339
X53.831 Y13.27
X54.055 Y13.203
X54.286 Y13.138
X54.521 Y13.075
X54.761 Y13.014
X55.006 Y12.953
X55.256 Y12.893
X55.51 Y12.833
X55.743 Y12.778
X55.859 Y12.754
X56.003 Y12.724
X56.148 Y12.693
X56.297 Y12.66
X56.311 Y12.657
X56.45 Y12.626
X56.467 Y12.622
X56.605 Y12.589
X56.623 Y12.585
X56.761 Y12.551
X56.786 Y12.545
X56.923 Y12.509
X56.948 Y12.502
X57.085 Y12.465
X57.114 Y12.457
X57.249 Y12.417
X57.283 Y12.407
X57.418 Y12.365
X57.455 Y12.353
X57.589 Y12.308
X57.625 Y12.295
X57.758 Y12.248
X57.801 Y12.232
X57.932 Y12.182
X57.976 Y12.164
X58.106 Y12.11
X58.153 Y12.09
X58.282 Y12.033
X58.322 Y12.014
X58.449 Y11.954
X58.485 Y11.937
X58.611 Y11.874
X58.641 Y11.858
X58.767 Y11.793
X58.792 Y11.779
X58.917 Y11.712
X58.935 Y11.702
X59.059 Y11.633
X59.075 Y11.624
X59.198 Y11.554
X59.207 Y11.549
X59.331 Y11.478
X59.459 Y11.404
G2 X59.873 Y11.081 I-0.954 J-1.649
G1 X59.92 Y11.032
X59.972 Y10.978
X59.982 Y10.968
X60.029 Y10.918
X60.046 Y10.9
X60.092 Y10.85
X60.111 Y10.829
X60.156 Y10.779
X60.182 Y10.749
X60.225 Y10.699
X60.257 Y10.661
X60.299 Y10.61
X60.333 Y10.566
X60.374 Y10.514
X60.411 Y10.463
X60.45 Y10.409
X60.493 Y10.347
X60.529 Y10.292
X60.572 Y10.224
X60.605 Y10.168
X60.65 Y10.089
X60.681 Y10.032
X60.727 Y9.939
X60.754 Y9.88
X60.794 Y9.79
X60.818 Y9.73
X60.85 Y9.645
X60.872 Y9.584
X60.898 Y9.505
X60.908 Y9.472
X60.917 Y9.442 Z-0.101 F333.3
X60.936 Y9.372 Z-0.104
X60.953 Y9.309 Z-0.106
X60.967 Y9.251 Z-0.108
X60.982 Y9.186 Z-0.11
X60.993 Y9.135 Z-0.112
X61.006 Y9.069 Z-0.114
X61.015 Y9.025 Z-0.116
X61.026 Y8.958 Z-0.118
X61.031 Y8.928 Z-0.119
X61.042 Y8.862 Z-0.122
X61.046 Y8.835 Z-0.123
X61.056 Y8.768 Z-0.125
X61.058 Y8.751 Z-0.126
X61.067 Y8.683 Z-0.128
X61.077 Y8.607 Z-0.131
G2 Y8.116 Z-0.148 I-1.889 J-0.246
G1 X61.068 Y8.046 Z-0.15
X61.058 Y7.967 Z-0.153
X61.056 Y7.953 Z-0.154
X61.046 Y7.883 Z-0.156
X61.042 Y7.855 Z-0.157
X61.031 Y7.786 Z-0.16
X61.025 Y7.751 Z-0.161
X61.013 Y7.682 Z-0.163
X61.005 Y7.639 Z-0.165
X60.991 Y7.571 Z-0.167
X60.981 Y7.521 Z-0.169
X60.965 Y7.454 Z-0.171
X60.949 Y7.39 Z-0.174
X60.932 Y7.324 Z-0.176
X60.913 Y7.256 Z-0.179
X60.893 Y7.191 Z-0.181
X60.867 Y7.112 Z-0.184
X60.844 Y7.048 Z-0.186
X60.811 Y6.96 Z-0.19
X60.785 Y6.898 Z-0.192
X60.743 Y6.803 Z-0.196
X60.715 Y6.742 Z-0.198
X60.687 Y6.688 Z-0.2
X60.669 Y6.652 F1000
X60.637 Y6.593
X60.588 Y6.509
X60.553 Y6.452
X60.508 Y6.381
X60.47 Y6.324
X60.426 Y6.262
X60.386 Y6.207
X60.347 Y6.155
X60.304 Y6.101
X60.267 Y6.055
X60.223 Y6.002
X60.19 Y5.964
X60.144 Y5.912
X60.119 Y5.884
X60.071 Y5.832
X60.049 Y5.809
X60.001 Y5.758
X59.985 Y5.741
X59.936 Y5.69
X59.924 Y5.679
X59.874 Y5.628
X59.818 Y5.572
G2 X59.499 Y5.315 I-1.348 J1.346
G1 X59.421 Y5.265
X59.338 Y5.212
X59.326 Y5.204
X59.248 Y5.156
X59.228 Y5.143
X59.15 Y5.096
X59.124 Y5.081
X59.046 Y5.034
X59.012 Y5.015
X58.933 Y4.971
X58.893 Y4.949
X58.813 Y4.906
X58.765 Y4.882
X58.685 Y4.842
X58.627 Y4.815
X58.546 Y4.778
X58.48 Y4.75
X58.397 Y4.716
X58.324 Y4.688
X58.241 Y4.658
X58.16 Y4.631
X58.075 Y4.604
X57.999 Y4.582
X57.913 Y4.559
X57.842 Y4.542
X57.755 Y4.522
X57.691 Y4.509
X57.603 Y4.492
X57.545 Y4.482
X57.456 Y4.468
X57.405 Y4.46
X57.316 Y4.449
X57.271 Y4.443
X57.181 Y4.434
X57.143 Y4.43
X57.052 Y4.422
X57.021 Y4.419
X56.929 Y4.413
X56.904 Y4.411
X56.813 Y4.406
X56.794 Y4.405
X56.702 Y4.401
X56.689 Y4.4
X56.597 Y4.396
X56.499 Y4.393
X56.389 Y4.392
X56.28 Y4.397
X56.148 Y4.407
X56.007 Y4.418
X55.991 Y4.42
X55.86 Y4.432
X55.835 Y4.434
X55.704 Y4.448
X55.671 Y4.451
X55.541 Y4.467
X55.499 Y4.473
X55.37 Y4.491
X55.32 Y4.499
X55.193 Y4.521
X55.133 Y4.532
X55.007 Y4.557
X54.938 Y4.573
X54.815 Y4.603
X54.737 Y4.624
X54.616 Y4.658
X54.53 Y4.686
X54.411 Y4.726
X54.315 Y4.761
X54.2 Y4.808
X54.099 Y4.851
X53.986 Y4.904
X53.889 Y4.954
X53.779 Y5.013
X53.693 Y5.063
X53.586 Y5.128
X53.511 Y5.176
X53.407 Y5.247
X53.343 Y5.292
X53.241 Y5.367
X53.189 Y5.407
X53.088 Y5.487
X53.044 Y5.523
X52.945 Y5.606
X52.91 Y5.637
X52.812 Y5.723
X52.786 Y5.747
X52.689 Y5.836
X52.67 Y5.854
X52.574 Y5.944
X52.56 Y5.957
X52.465 Y6.049
X52.364 Y6.147
G2 X52.061 Y6.528 I1.328 J1.366
G1 X52.01 Y6.612
X51.958 Y6.701
X51.951 Y6.711
X51.901 Y6.796
X51.892 Y6.811
X51.843 Y6.896
X51.833 Y6.914
X51.784 Y6.999
X51.77 Y7.025
X51.724 Y7.11
X51.707 Y7.141
X51.662 Y7.228
X51.643 Y7.264
X51.6 Y7.352
X51.58 Y7.393
X51.539 Y7.481
X51.518 Y7.529
X51.48 Y7.618
X51.458 Y7.67
X51.446 Y7.7
X49.352 Y7.569
X49.367 Y7.53
X49.423 Y7.393
X49.485 Y7.261
X49.555 Y7.127
X49.634 Y6.988
X49.722 Y6.845
X49.82 Y6.698
X49.926 Y6.546
X50.041 Y6.389
X50.164 Y6.227
X50.294 Y6.062
X50.43 Y5.892
X50.529 Y5.771
X50.793 Y5.604
X51.044 Y5.449
X51.288 Y5.302
X51.526 Y5.165
X51.758 Y5.039
X51.983 Y4.924
X52.202 Y4.821
X52.415 Y4.731
X52.623 Y4.653
X52.831 Y4.586
X53.048 Y4.526
X53.274 Y4.474
X53.51 Y4.429
X53.756 Y4.391
X54.011 Y4.358
X54.276 Y4.332
X54.549 Y4.311
X54.83 Y4.296
X55.119 Y4.284
X55.416 Y4.276
X55.72 Y4.27
X56.031 Y4.266
X56.316 Y4.264
X56.489 Y4.268
X56.69 Y4.273
X56.887 Y4.279
X57.081 Y4.286
X57.27 Y4.295
X57.455 Y4.305
X57.636 Y4.316
X57.813 Y4.33
X57.985 Y4.347
X58.153 Y4.365
X58.317 Y4.387
X58.476 Y4.412
X58.631 Y4.439
X58.786 Y4.471
X58.944 Y4.507
X59.106 Y4.548
X59.271 Y4.593
X59.441 Y4.642
X59.614 Y4.695
X59.792 Y4.751
X59.973 Y4.81
X60.158 Y4.872
X60.347 Y4.936
X60.409 Y4.957
X60.43 Y4.968
X60.57 Y5.04
X60.703 Y5.11
X60.831 Y5.179
X60.953 Y5.246
X61.069 Y5.312
X61.178 Y5.377
X61.28 Y5.44
X61.375 Y5.503
X61.463 Y5.564
X61.544 Y5.624
X61.619 Y5.684
X61.691 Y5.745
X61.763 Y5.812
X61.839 Y5.885
X61.916 Y5.965
X61.997 Y6.053
X62.079 Y6.146
X62.165 Y6.246
X62.252 Y6.353
X62.343 Y6.465
X62.436 Y6.583
X62.532 Y6.706
X62.545 Y6.722
X62.552 Y6.735
X62.625 Y6.866
X62.694 Y6.992
X62.759 Y7.113
X62.82 Y7.23
X62.877 Y7.343
X62.929 Y7.45
X62.975 Y7.552
X63.017 Y7.65
X63.053 Y7.743
X63.084 Y7.829
X63.111 Y7.913
X63.135 Y7.998
X63.157 Y8.087
X63.177 Y8.184
X63.196 Y8.289
X63.214 Y8.4
X63.23 Y8.518
X63.244 Y8.641
X63.257 Y8.773
X63.27 Y8.91
X63.281 Y9.054
X63.292 Y9.203
X63.295 Y9.234
X63.287 Y9.36
X63.279 Y9.477
X63.27 Y9.588
X63.261 Y9.695
X63.251 Y9.795
X63.24 Y9.889
X63.228 Y9.978
X63.215 Y10.059
X63.201 Y10.135
X63.185 Y10.205
X63.169 Y10.269
X63.152 Y10.331
X63.13 Y10.398
X63.105 Y10.47
X63.076 Y10.545
X63.043 Y10.625
X63.005 Y10.711
X62.964 Y10.803
X62.919 Y10.898
X62.87 Y10.999
X62.818 Y11.104
X62.78 Y11.18
X62.713 Y11.269
X62.634 Y11.372
X62.559 Y11.469
X62.485 Y11.561
X62.415 Y11.646
X62.347 Y11.726
X62.282 Y11.799
X62.22 Y11.865
X62.16 Y11.926
X62.103 Y11.98
X62.045 Y12.031
X61.983 Y12.082
X61.915 Y12.135
X61.841 Y12.19
X61.76 Y12.246
X61.674 Y12.303
X61.582 Y12.362
X61.484 Y12.422
X61.38 Y12.484
X61.271 Y12.548
X61.157 Y12.613
X61.039 Y12.68
X61.017 Y12.692
X60.892 Y12.743
X60.66 Y12.837
X60.432 Y12.93
X60.205 Y13.02
X59.98 Y13.108
X59.758 Y13.194
X59.537 Y13.276
X59.319 Y13.355
X59.102 Y13.43
X58.887 Y13.502
X58.67 Y13.571
X58.451 Y13.637
X58.23 Y13.701
X58.005 Y13.763
X57.778 Y13.823
X57.549 Y13.882
X57.317 Y13.939
X57.082 Y13.995
X56.845 Y14.05
X56.605 Y14.105
X56.364 Y14.159
X56.121 Y14.212
X55.875 Y14.266
X55.646 Y14.315
X55.575 Y14.329
X55.479 Y14.348
X55.381 Y14.367
X55.371 Y14.369
X55.28 Y14.388
X55.267 Y14.391
X55.176 Y14.41
X55.159 Y14.414
X55.068 Y14.434
X55.049 Y14.439
X54.959 Y14.46
X54.935 Y14.465
X54.846 Y14.487
X54.818 Y14.494
X54.729 Y14.518
X54.699 Y14.526
X54.61 Y14.551
X54.577 Y14.561
X54.488 Y14.587
X54.452 Y14.598
X54.364 Y14.627
X54.324 Y14.64
X54.237 Y14.67
X54.196 Y14.685
X54.11 Y14.717
X54.064 Y14.735
X53.979 Y14.769
X53.931 Y14.789
X53.847 Y14.826
X53.805 Y14.845
X53.721 Y14.883
X53.686 Y14.9
X53.603 Y14.941
X53.571 Y14.957
X53.489 Y14.999
X53.462 Y15.013
X53.38 Y15.056
X53.362 Y15.066
X53.281 Y15.11
X53.265 Y15.119
X53.184 Y15.164
X53.174 Y15.17
X53.093 Y15.216
X53.008 Y15.264
G2 X52.632 Y15.546 I0.943 J1.655
G1 X52.601 Y15.576
X52.565 Y15.61
X52.552 Y15.623
X52.522 Y15.653
X52.508 Y15.666
X52.478 Y15.697
X52.454 Y15.722
X52.424 Y15.752
X52.398 Y15.78
X52.369 Y15.811
X52.339 Y15.846
X52.311 Y15.877
X52.273 Y15.922
X52.247 Y15.954
X52.207 Y16.004
X52.182 Y16.037
X52.139 Y16.094
X52.115 Y16.128
X52.066 Y16.202
X52.044 Y16.236
X51.995 Y16.316
X51.975 Y16.352
X51.926 Y16.442
X51.908 Y16.478
X51.864 Y16.571
X51.848 Y16.609
X51.81 Y16.7
X51.796 Y16.738
X51.768 Y16.816
X51.756 Y16.855
X51.733 Y16.929
X51.722 Y16.968
X51.705 Y17.032
X51.695 Y17.072
X51.682 Y17.125
X51.674 Y17.166
X51.665 Y17.209
X51.657 Y17.25
X51.65 Y17.289
X51.642 Y17.331
X51.639 Y17.354
X51.632 Y17.396
X51.629 Y17.415
X51.623 Y17.457
X51.616 Y17.504
G2 X51.609 Y18.004 I1.885 J0.276
G1 X51.615 Y18.058
X51.616 Y18.069
X51.623 Y18.123
X51.625 Y18.137
X51.632 Y18.191
X51.636 Y18.218
X51.643 Y18.271
X51.648 Y18.304
X51.657 Y18.357
X51.665 Y18.403
X51.675 Y18.455
X51.686 Y18.507
X51.697 Y18.559
X51.711 Y18.62
X51.724 Y18.671
X51.744 Y18.744
X51.759 Y18.794
X51.783 Y18.871
X51.8 Y18.92
X51.833 Y19.011
X51.852 Y19.059
X51.893 Y19.152
X51.914 Y19.199
X51.962 Y19.295
X51.986 Y19.341
X52.035 Y19.427
X52.061 Y19.471
X52.111 Y19.549
X52.14 Y19.593
X52.185 Y19.657
X52.216 Y19.7
X52.257 Y19.754
X52.29 Y19.796
X52.326 Y19.841
X52.36 Y19.881
X52.396 Y19.922
X52.431 Y19.963
X52.459 Y19.993
X52.495 Y20.032
X52.518 Y20.056
X52.555 Y20.096
X52.571 Y20.112
X52.609 Y20.151
X52.623 Y20.165
X52.662 Y20.203
X52.706 Y20.247
G2 X53.064 Y20.526 I1.342 J-1.352
G1 X53.126 Y20.564
X53.135 Y20.569
X53.197 Y20.606
X53.209 Y20.613
X53.272 Y20.65
X53.291 Y20.661
X53.354 Y20.697
X53.38 Y20.712
X53.443 Y20.746
X53.476 Y20.764
X53.539 Y20.797
X53.58 Y20.818
X53.644 Y20.85
X53.692 Y20.872
X53.757 Y20.902
X53.815 Y20.928
X53.881 Y20.955
X53.943 Y20.98
X54.009 Y21.005
X54.083 Y21.031
X54.15 Y21.053
X54.214 Y21.074
X54.065 Y21.053
X53.904 Y21.027
X53.744 Y20.997
X53.582 Y20.963
X53.417 Y20.925
X53.247 Y20.882
X53.073 Y20.835
X52.895 Y20.784
X52.714 Y20.73
X52.529 Y20.673
X52.339 Y20.613
X52.145 Y20.551
X52.082 Y20.53
X51.954 Y20.466
X51.835 Y20.406
X51.721 Y20.347
X51.613 Y20.289
X51.511 Y20.233
X51.416 Y20.179
X51.327 Y20.125
X51.244 Y20.073
X51.168 Y20.022
X51.099 Y19.972
X51.036 Y19.924
X50.977 Y19.876
X50.917 Y19.823
X50.855 Y19.764
X50.789 Y19.699
X50.721 Y19.627
X50.649 Y19.549
X50.575 Y19.464
X50.498 Y19.373
X50.417 Y19.276
X50.334 Y19.173
X50.252 Y19.071
X50.203 Y18.983
X50.146 Y18.882
X50.094 Y18.785
X50.045 Y18.692
X50 Y18.605
X49.96 Y18.522
X49.924 Y18.444
X49.893 Y18.371
X49.865 Y18.304
X49.843 Y18.242
X49.824 Y18.183
X49.807 Y18.125
X49.791 Y18.063
X49.776 Y17.993
X49.761 Y17.917
X49.747 Y17.834
X49.735 Y17.744
X49.723 Y17.647
X49.712 Y17.545
X49.701 Y17.435
X49.691 Y17.32
X49.684 Y17.237
X49.686 Y17.221
X49.703 Y17.047
X49.721 Y16.882
X49.74 Y16.727
X49.761 Y16.581
X49.783 Y16.446
X49.806 Y16.322
X49.832 Y16.209
X49.858 Y16.107
X49.886 Y16.017
X49.914 Y15.938
X49.943 Y15.869
X49.975 Y15.802
X50.015 Y15.73
X50.064 Y15.651
X50.122 Y15.564
X50.19 Y15.471
X50.268 Y15.372
X50.354 Y15.267
X50.45 Y15.155
X50.554 Y15.038
X50.666 Y14.917
X50.757 Y14.819
X50.788 Y14.799
X51.004 Y14.658
X51.216 Y14.521
X51.424 Y14.389
X51.629 Y14.263
X51.831 Y14.143
X52.029 Y14.029
X52.223 Y13.922
X52.415 Y13.823
X52.605 Y13.731
X52.795 Y13.645
X52.99 Y13.564
X53.191 Y13.486
X53.399 Y13.411
X53.612 Y13.339
X53.831 Y13.27
X54.055 Y13.203
X54.286 Y13.138
X54.521 Y13.075
X54.761 Y13.014
X55.006 Y12.953
X55.256 Y12.893
X55.51 Y12.833
X55.743 Y12.778
X55.859 Y12.754
X56.003 Y12.724
X56.148 Y12.693
X56.297 Y12.66
X56.311 Y12.657
X56.45 Y12.626
X56.467 Y12.622
X56.605 Y12.589
X56.623 Y12.585
X56.761 Y12.551
X56.786 Y12.545
X56.923 Y12.509
X56.948 Y12.502
X57.085 Y12.465
X57.114 Y12.457
X57.249 Y12.417
X57.283 Y12.407
X57.418 Y12.365
X57.455 Y12.353
X57.589 Y12.308
X57.625 Y12.295
X57.758 Y12.248
X57.801 Y12.232
X57.932 Y12.182
X57.976 Y12.164
X58.106 Y12.11
X58.153 Y12.09
X58.282 Y12.033
X58.322 Y12.014
X58.449 Y11.954
X58.485 Y11.937
X58.611 Y11.874
X58.641 Y11.858
X58.767 Y11.793
X58.792 Y11.779
X58.917 Y11.712
X58.935 Y11.702
X59.059 Y11.633
X59.075 Y11.624
X59.198 Y11.554
X59.207 Y11.549
X59.331 Y11.478
X59.459 Y11.404
G2 X59.873 Y11.081 I-0.954 J-1.649
G1 X59.92 Y11.032
X59.972 Y10.978
X59.982 Y10.968
X60.029 Y10.918
X60.046 Y10.9
X60.092 Y10.85
X60.111 Y10.829
X60.156 Y10.779
X60.182 Y10.749
X60.225 Y10.699
X60.257 Y10.661
X60.299 Y10.61
X60.333 Y10.566
X60.374 Y10.514
X60.411 Y10.463
X60.45 Y10.409
X60.493 Y10.347
X60.529 Y10.292
X60.572 Y10.224
X60.605 Y10.168
X60.65 Y10.089
X60.681 Y10.032
X60.727 Y9.939
X60.754 Y9.88
X60.794 Y9.79
X60.818 Y9.73
X60.85 Y9.645
X60.872 Y9.584
X60.898 Y9.505
X60.908 Y9.472
X60.917 Y9.442
X60.936 Y9.372
X60.953 Y9.309
X60.967 Y9.251
X60.982 Y9.186
X60.993 Y9.135
X61.006 Y9.069
X61.015 Y9.025
X61.026 Y8.958
X61.031 Y8.928
X61.042 Y8.862
X61.046 Y8.835
X61.056 Y8.768
X61.058 Y8.751
X61.067 Y8.683
X61.077 Y8.607
G2 Y8.116 I-1.889 J-0.246
G1 X61.068 Y8.046
X61.058 Y7.967
X61.056 Y7.953
X61.046 Y7.883
X61.042 Y7.855
X61.031 Y7.786
X61.025 Y7.751
X61.013 Y7.682
X61.005 Y7.639
X60.991 Y7.571
X60.981 Y7.521
X60.965 Y7.454
X60.949 Y7.39
X60.932 Y7.324
X60.913 Y7.256
X60.893 Y7.191
X60.867 Y7.112
X60.844 Y7.048
X60.811 Y6.96
X60.785 Y6.898
X60.743 Y6.803
X60.715 Y6.742
X60.687 Y6.688
X60.669 Y6.652 Z-0.201 F333.3
X60.637 Y6.593 Z-0.204
X60.588 Y6.509 Z-0.207
X60.553 Y6.452 Z-0.209
X60.508 Y6.381 Z-0.212
X60.47 Y6.324 Z-0.215
X60.426 Y6.262 Z-0.217
X60.386 Y6.207 Z-0.22
X60.347 Y6.155 Z-0.222
X60.304 Y6.101 Z-0.225
X60.267 Y6.055 Z-0.227
X60.223 Y6.002 Z-0.229
X60.19 Y5.964 Z-0.231
X60.144 Y5.912 Z-0.233
X60.119 Y5.884 Z-0.234
X60.071 Y5.832 Z-0.237
X60.049 Y5.809 Z-0.238
X60.001 Y5.758 Z-0.241
X59.985 Y5.741
X59.936 Y5.69 Z-0.244
X59.924 Y5.679
X59.874 Y5.628 Z-0.247
X59.818 Y5.572 Z-0.25
G2 X59.499 Y5.315 Z-0.264 I-1.348 J1.346
G1 X59.421 Y5.265 Z-0.267
X59.338 Y5.212 Z-0.271
X59.326 Y5.204
X59.248 Y5.156 Z-0.274
X59.228 Y5.143 Z-0.275
X59.15 Y5.096 Z-0.278
X59.124 Y5.081 Z-0.279
X59.046 Y5.034 Z-0.283
X59.012 Y5.015 Z-0.284
X58.933 Y4.971 Z-0.287
X58.893 Y4.949 Z-0.289
X58.813 Y4.906 Z-0.292
X58.765 Y4.882 Z-0.294
X58.685 Y4.842 Z-0.297
X58.627 Y4.815 Z-0.299
X58.603 Y4.804 Z-0.3
X58.546 Y4.778 F1000
X58.48 Y4.75
X58.397 Y4.716
X58.324 Y4.688
X58.241 Y4.658
X58.16 Y4.631
X58.075 Y4.604
X57.999 Y4.582
X57.913 Y4.559
X57.842 Y4.542
X57.755 Y4.522
X57.691 Y4.509
X57.603 Y4.492
X57.545 Y4.482
X57.456 Y4.468
X57.405 Y4.46
X57.316 Y4.449
X57.271 Y4.443
X57.181 Y4.434
X57.143 Y4.43
X57.052 Y4.422
X57.021 Y4.419
X56.929 Y4.413
X56.904 Y4.411
X56.813 Y4.406
X56.794 Y4.405
X56.702 Y4.401
X56.689 Y4.4
X56.597 Y4.396
X56.499 Y4.393
X56.389 Y4.392
X56.28 Y4.397
X56.148 Y4.407
X56.007 Y4.418
X55.991 Y4.42
X55.86 Y4.432
X55.835 Y4.434
X55.704 Y4.448
X55.671 Y4.451
X55.541 Y4.467
X55.499 Y4.473
X55.37 Y4.491
X55.32 Y4.499
X55.193 Y4.521
X55.133 Y4.532
X55.007 Y4.557
X54.938 Y4.573
X54.815 Y4.603
X54.737 Y4.624
X54.616 Y4.658
X54.53 Y4.686
X54.411 Y4.726
X54.315 Y4.761
X54.2 Y4.808
X54.099 Y4.851
X53.986 Y4.904
X53.889 Y4.954
X53.779 Y5.013
X53.693 Y5.063
X53.586 Y5.128
X53.511 Y5.176
X53.407 Y5.247
X53.343 Y5.292
X53.241 Y5.367
X53.189 Y5.407
X53.088 Y5.487
X53.044 Y5.523
X52.945 Y5.606
X52.91 Y5.637
X52.812 Y5.723
X52.786 Y5.747
X52.689 Y5.836
X52.67 Y5.854
X52.574 Y5.944
X52.56 Y5.957
X52.465 Y6.049
X52.364 Y6.147
G2 X52.061 Y6.528 I1.328 J1.366
G1 X52.01 Y6.612
X51.958 Y6.701
X51.951 Y6.711
X51.901 Y6.796
X51.892 Y6.811
X51.843 Y6.896
X51.833 Y6.914
X51.784 Y6.999
X51.77 Y7.025
X51.724 Y7.11
X51.707 Y7.141
X51.662 Y7.228
X51.643 Y7.264
X51.6 Y7.352
X51.58 Y7.393
X51.539 Y7.481
X51.518 Y7.529
X51.48 Y7.618
X51.458 Y7.67
X51.446 Y7.7
X49.352 Y7.569
X49.367 Y7.53
X49.423 Y7.393
X49.485 Y7.261
X49.555 Y7.127
X49.634 Y6.988
X49.722 Y6.845
X49.82 Y6.698
X49.926 Y6.546
X50.041 Y6.389
X50.164 Y6.227
X50.294 Y6.062
X50.43 Y5.892
X50.529 Y5.771
X50.793 Y5.604
X51.044 Y5.449
X51.288 Y5.302
X51.526 Y5.165
X51.758 Y5.039
X51.983 Y4.924
X52.202 Y4.821
X52.415 Y4.731
X52.623 Y4.653
X52.831 Y4.586
X53.048 Y4.526
X53.274 Y4.474
X53.51 Y4.429
X53.756 Y4.391
X54.011 Y4.358
X54.276 Y4.332
X54.549 Y4.311
X54.83 Y4.296
X55.119 Y4.284
X55.416 Y4.276
X55.72 Y4.27
X56.031 Y4.266
X56.316 Y4.264
X56.489 Y4.268
X56.69 Y4.273
X56.887 Y4.279
X57.081 Y4.286
X57.27 Y4.295
X57.455 Y4.305
X57.636 Y4.316
X57.813 Y4.33
X57.985 Y4.347
X58.153 Y4.365
X58.317 Y4.387
X58.476 Y4.412
X58.631 Y4.439
X58.786 Y4.471
X58.944 Y4.507
X59.106 Y4.548
X59.271 Y4.593
X59.441 Y4.642
X59.614 Y4.695
X59.792 Y4.751
X59.973 Y4.81
X60.158 Y4.872
X60.347 Y4.936
X60.409 Y4.957
X60.43 Y4.968
X60.57 Y5.04
X60.703 Y5.11
X60.831 Y5.179
X60.953 Y5.246
X61.069 Y5.312
X61.178 Y5.377
X61.28 Y5.44
X61.375 Y5.503
X61.463 Y5.564
X61.544 Y5.624
X61.619 Y5.684
X61.691 Y5.745
X61.763 Y5.812
X61.839 Y5.885
X61.916 Y5.965
X61.997 Y6.053
X62.079 Y6.146
X62.165 Y6.246
X62.252 Y6.353
X62.343 Y6.465
X62.436 Y6.583
X62.532 Y6.706
X62.545 Y6.722
X62.552 Y6.735
X62.625 Y6.866
X62.694 Y6.992
X62.759 Y7.113
X62.82 Y7.23
X62.877 Y7.343
X62.929 Y7.45
X62.975 Y7.552
X63.017 Y7.65
X63.053 Y7.743
X63.084 Y7.829
X63.111 Y7.913
X63.135 Y7.998
X63.157 Y8.087
X63.177 Y8.184
X63.196 Y8.289
X63.214 Y8.4
X63.23 Y8.518
X63.244 Y8.641
X63.257 Y8.773
X63.27 Y8.91
X63.281 Y9.054
X63.292 Y9.203
X63.295 Y9.234
X63.287 Y9.36
X63.279 Y9.477
X63.27 Y9.588
X63.261 Y9.695
X63.251 Y9.795
X63.24 Y9.889
X63.228 Y9.978
X63.215 Y10.059
X63.201 Y10.135
X63.185 Y10.205
X63.169 Y10.269
X63.152 Y10.331
X63.13 Y10.398
X63.105 Y10.47
X63.076 Y10.545
X63.043 Y10.625
X63.005 Y10.711
X62.964 Y10.803
X62.919 Y10.898
X62.87 Y10.999
X62.818 Y11.104
X62.78 Y11.18
X62.713 Y11.269
X62.634 Y11.372
X62.559 Y11.469
X62.485 Y11.561
X62.415 Y11.646
X62.347 Y11.726
X62.282 Y11.799
X62.22 Y11.865
X62.16 Y11.926
X62.103 Y11.98
X62.045 Y12.031
X61.983 Y12.082
X61.915 Y12.135
X61.841 Y12.19
X61.76 Y12.246
X61.674 Y12.303
X61.582 Y12.362
X61.484 Y12.422
X61.38 Y12.484
X61.271 Y12.548
X61.157 Y12.613
X61.039 Y12.68
X61.017 Y12.692
X60.892 Y12.743
X60.66 Y12.837
X60.432 Y12.93
X60.205 Y13.02
X59.98 Y13.108
X59.758 Y13.194
X59.537 Y13.276
X59.319 Y13.355
X59.102 Y13.43
X58.887 Y13.502
X58.67 Y13.571
X58.451 Y13.637
X58.23 Y13.701
X58.005 Y13.763
X57.778 Y13.823
X57.549 Y13.882
X57.317 Y13.939
X57.082 Y13.995
X56.845 Y14.05
X56.605 Y14.105
X56.364 Y14.159
X56.121 Y14.212
X55.875 Y14.266
X55.646 Y14.315
X55.575 Y14.329
X55.479 Y14.348
X55.381 Y14.367
X55.371 Y14.369
X55.28 Y14.388
X55.267 Y14.391
X55.176 Y14.41
X55.159 Y14.414
X55.068 Y14.434
X55.049 Y14.439
X54.959 Y14.46
X54.935 Y14.465
X54.846 Y14.487
X54.818 Y14.494
X54.729 Y14.518
X54.699 Y14.526
X54.61 Y14.551
X54.577 Y14.561
X54.488 Y14.587
X54.452 Y14.598
X54.364 Y14.627
X54.324 Y14.64
X54.237 Y14.67
X54.196 Y14.685
X54.11 Y14.717
X54.064 Y14.735
X53.979 Y14.769
X53.931 Y14.789
X53.847 Y14.826
X53.805 Y14.845
X53.721 Y14.883
X53.686 Y14.9
X53.603 Y14.941
X53.571 Y14.957
X53.489 Y14.999
X53.462 Y15.013
X53.38 Y15.056
X53.362 Y15.066
X53.281 Y15.11
X53.265 Y15.119
X53.184 Y15.164
X53.174 Y15.17
X53.093 Y15.216
X53.008 Y15.264
G2 X52.632 Y15.546 I0.943 J1.655
G1 X52.601 Y15.576
X52.565 Y15.61
X52.552 Y15.623
X52.522 Y15.653
X52.508 Y15.666
X52.478 Y15.697
X52.454 Y15.722
X52.424 Y15.752
X52.398 Y15.78
X52.369 Y15.811
X52.339 Y15.846
X52.311 Y15.877
X52.273 Y15.922
X52.247 Y15.954
X52.207 Y16.004
X52.182 Y16.037
X52.139 Y16.094
X52.115 Y16.128
X52.066 Y16.202
X52.044 Y16.236
X51.995 Y16.316
X51.975 Y16.352
X51.926 Y16.442
X51.908 Y16.478
X51.864 Y16.571
X51.848 Y16.609
X51.81 Y16.7
X51.796 Y16.738
X51.768 Y16.816
X51.756 Y16.855
X51.733 Y16.929
X51.722 Y16.968
X51.705 Y17.032
X51.695 Y17.072
X51.682 Y17.125
X51.674 Y17.166
X51.665 Y17.209
X51.657 Y17.25
X51.65 Y17.289
X51.642 Y17.331
X51.639 Y17.354
X51.632 Y17.396
X51.629 Y17.415
X51.623 Y17.457
X51.616 Y17.504
G2 X51.609 Y18.004 I1.885 J0.276
G1 X51.615 Y18.058
X51.616 Y18.069
X51.623 Y18.123
X51.625 Y18.137
X51.632 Y18.191
X51.636 Y18.218
X51.643 Y18.271
X51.648 Y18.304
X51.657 Y18.357
X51.665 Y18.403
X51.675 Y18.455
X51.686 Y18.507
X51.697 Y18.559
X51.711 Y18.62
X51.724 Y18.671
X51.744 Y18.744
X51.759 Y18.794
X51.783 Y18.871
X51.8 Y18.92
X51.833 Y19.011
X51.852 Y19.059
X51.893 Y19.152
X51.914 Y19.199
X51.962 Y19.295
X51.986 Y19.341
X52.035 Y19.427
X52.061 Y19.471
X52.111 Y19.549
X52.14 Y19.593
X52.185 Y19.657
X52.216 Y19.7
X52.257 Y19.754
X52.29 Y19.796
X52.326 Y19.841
X52.36 Y19.881
X52.396 Y19.922
X52.431 Y19.963
X52.459 Y19.993
X52.495 Y20.032
X52.518 Y20.056
X52.555 Y20.096
X52.571 Y20.112
X52.609 Y20.151
X52.623 Y20.165
X52.662 Y20.203
X52.706 Y20.247
G2 X53.064 Y20.526 I1.342 J-1.352
G1 X53.126 Y20.564
X53.135 Y20.569
X53.197 Y20.606
X53.209 Y20.613
X53.272 Y20.65
X53.291 Y20.661
X53.354 Y20.697
X53.38 Y20.712
X53.443 Y20.746
X53.476 Y20.764
X53.539 Y20.797
X53.58 Y20.818
X53.644 Y20.85
X53.692 Y20.872
X53.757 Y20.902
X53.815 Y20.928
X53.881 Y20.955
X53.943 Y20.98
X54.009 Y21.005
X54.083 Y21.031
X54.15 Y21.053
X54.214 Y21.074
X54.065 Y21.053
X53.904 Y21.027
X53.744 Y20.997
X53.582 Y20.963
X53.417 Y20.925
X53.247 Y20.882
X53.073 Y20.835
X52.895 Y20.784
X52.714 Y20.73
X52.529 Y20.673
X52.339 Y20.613
X52.145 Y20.551
X52.082 Y20.53
X51.954 Y20.466
X51.835 Y20.406
X51.721 Y20.347
X51.613 Y20.289
X51.511 Y20.233
X51.416 Y20.179
X51.327 Y20.125
X51.244 Y20.073
X51.168 Y20.022
X51.099 Y19.972
X51.036 Y19.924
X50.977 Y19.876
X50.917 Y19.823
X50.855 Y19.764
X50.789 Y19.699
X50.721 Y19.627
X50.649 Y19.549
X50.575 Y19.464
X50.498 Y19.373
X50.417 Y19.276
X50.334 Y19.173
X50.252 Y19.071
X50.203 Y18.983
X50.146 Y18.882
X50.094 Y18.785
X50.045 Y18.692
X50 Y18.605
X49.96 Y18.522
X49.924 Y18.444
X49.893 Y18.371
X49.865 Y18.304
X49.843 Y18.242
X49.824 Y18.183
X49.807 Y18.125
X49.791 Y18.063
X49.776 Y17.993
X49.761 Y17.917
X49.747 Y17.834
X49.735 Y17.744
X49.723 Y17.647
X49.712 Y17.545
X49.701 Y17.435
X49.691 Y17.32
X49.684 Y17.237
X49.686 Y17.221
X49.703 Y17.047
X49.721 Y16.882
X49.74 Y16.727
X49.761 Y16.581
X49.783 Y16.446
X49.806 Y16.322
X49.832 Y16.209
X49.858 Y16.107
X49.886 Y16.017
X49.914 Y15.938
X49.943 Y15.869
X49.975 Y15.802
X50.015 Y15.73
X50.064 Y15.651
X50.122 Y15.564
X50.19 Y15.471
X50.268 Y15.372
X50.354 Y15.267
X50.45 Y15.155
X50.554 Y15.038
X50.666 Y14.917
X50.757 Y14.819
X50.788 Y14.799
X51.004 Y14.658
X51.216 Y14.521
X51.424 Y14.389
X51.629 Y14.263
X51.831 Y14.143
X52.029 Y14.029
X52.223 Y13.922
X52.415 Y13.823
X52.605 Y13.731
X52.795 Y13.645
X52.99 Y13.564
X53.191 Y13.486
X53.399 Y13.411
X53.612 Y13.339
X53.831 Y13.27
X54.055 Y13.203
X54.286 Y13.138
X54.521 Y13.075
X54.761 Y13.014
X55.006 Y12.953
X55.256 Y12.893
X55.51 Y12.833
X55.743 Y12.778
X55.859 Y12.754
X56.003 Y12.724
X56.148 Y12.693
X56.297 Y12.66
X56.311 Y12.657
X56.45 Y12.626
X56.467 Y12.622
X56.605 Y12.589
X56.623 Y12.585
X56.761 Y12.551
X56.786 Y12.545
X56.923 Y12.509
X56.948 Y12.502
X57.085 Y12.465
X57.114 Y12.457
X57.249 Y12.417
X57.283 Y12.407
X57.418 Y12.365
X57.455 Y12.353
X57.589 Y12.308
X57.625 Y12.295
X57.758 Y12.248
X57.801 Y12.232
X57.932 Y12.182
X57.976 Y12.164
X58.106 Y12.11
X58.153 Y12.09
X58.282 Y12.033
X58.322 Y12.014
X58.449 Y11.954
X58.485 Y11.937
X58.611 Y11.874
X58.641 Y11.858
X58.767 Y11.793
X58.792 Y11.779
X58.917 Y11.712
X58.935 Y11.702
X59.059 Y11.633
X59.075 Y11.624
X59.198 Y11.554
X59.207 Y11.549
X59.331 Y11.478
X59.459 Y11.404
G2 X59.873 Y11.081 I-0.954 J-1.649
G1 X59.92 Y11.032
X59.972 Y10.978
X59.982 Y10.968
X60.029 Y10.918
X60.046 Y10.9
X60.092 Y10.85
X60.111 Y10.829
X60.156 Y10.779
X60.182 Y10.749
X60.225 Y10.699
X60.257 Y10.661
X60.299 Y10.61
X60.333 Y10.566
X60.374 Y10.514
X60.411 Y10.463
X60.45 Y10.409
X60.493 Y10.347
X60.529 Y10.292
X60.572 Y10.224
X60.605 Y10.168
X60.65 Y10.089
X60.681 Y10.032
X60.727 Y9.939
X60.754 Y9.88
X60.794 Y9.79
X60.818 Y9.73
X60.85 Y9.645
X60.872 Y9.584
X60.898 Y9.505
X60.917 Y9.442
X60.936 Y9.372
X60.953 Y9.309
X60.967 Y9.251
X60.982 Y9.186
X60.993 Y9.135
X61.006 Y9.069
X61.015 Y9.025
X61.026 Y8.958
X61.031 Y8.928
X61.042 Y8.862
X61.046 Y8.835
X61.056 Y8.768
X61.058 Y8.751
X61.067 Y8.683
X61.077 Y8.607
G2 Y8.116 I-1.889 J-0.246
G1 X61.068 Y8.046
X61.058 Y7.967
X61.056 Y7.953
X61.046 Y7.883
X61.042 Y7.855
X61.031 Y7.786
X61.025 Y7.751
X61.013 Y7.682
X61.005 Y7.639
X60.991 Y7.571
X60.981 Y7.521
X60.965 Y7.454
X60.949 Y7.39
X60.932 Y7.324
X60.913 Y7.256
X60.893 Y7.191
X60.867 Y7.112
X60.844 Y7.048
X60.811 Y6.96
X60.785 Y6.898
X60.743 Y6.803
X60.715 Y6.742
X60.669 Y6.652
X60.637 Y6.593
X60.588 Y6.509
X60.553 Y6.452
X60.508 Y6.381
X60.47 Y6.324
X60.426 Y6.262
X60.386 Y6.207
X60.347 Y6.155
X60.304 Y6.101
X60.267 Y6.055
X60.223 Y6.002
X60.19 Y5.964
X60.144 Y5.912
X60.119 Y5.884
X60.071 Y5.832
X60.049 Y5.809
X60.001 Y5.758
X59.985 Y5.741
X59.936 Y5.69
X59.924 Y5.679
X59.874 Y5.628
X59.818 Y5.572
G2 X59.499 Y5.315 I-1.348 J1.346
G1 X59.421 Y5.265
X59.338 Y5.212
X59.326 Y5.204
X59.248 Y5.156
X59.228 Y5.143
X59.15 Y5.096
X59.124 Y5.081
X59.046 Y5.034
X59.012 Y5.015
X58.933 Y4.971
X58.893 Y4.949
X58.813 Y4.906
X58.765 Y4.882
X58.685 Y4.842
X58.627 Y4.815
X58.603 Y4.804
X58.546 Y4.778 Z-0.302 F333.3
X58.48 Y4.75 Z-0.305
X58.397 Y4.716 Z-0.308
X58.324 Y4.688 Z-0.311
X58.241 Y4.658 Z-0.314
X58.16 Y4.631 Z-0.317
X58.075 Y4.604 Z-0.32
X57.999 Y4.582 Z-0.322
X57.913 Y4.559 Z-0.326
X57.842 Y4.542 Z-0.328
X57.755 Y4.522 Z-0.331
X57.691 Y4.509 Z-0.334
X57.603 Y4.492 Z-0.337
X57.545 Y4.482 Z-0.339
X57.456 Y4.468 Z-0.342
X57.405 Y4.46 Z-0.344
X57.316 Y4.449 Z-0.347
X57.271 Y4.443 Z-0.348
X57.181 Y4.434 Z-0.352
X57.143 Y4.43 Z-0.353
X57.052 Y4.422 Z-0.356
X57.021 Y4.419 Z-0.357
X56.929 Y4.413 Z-0.36
X56.904 Y4.411 Z-0.361
X56.813 Y4.406 Z-0.364
X56.794 Y4.405 Z-0.365
X56.702 Y4.401 Z-0.368
X56.689 Y4.4 Z-0.369
X56.597 Y4.396 Z-0.372
X56.499 Y4.393 Z-0.375
X56.389 Y4.392 Z-0.379
X56.28 Y4.397 Z-0.383
X56.148 Y4.407 Z-0.388
X56.007 Y4.418 Z-0.393
X55.991 Y4.42
X55.86 Y4.432 Z-0.398
X55.835 Y4.434 Z-0.399
X55.797 Y4.438 Z-0.4
X55.704 Y4.448 F1000
X55.671 Y4.451
X55.541 Y4.467
X55.499 Y4.473
X55.37 Y4.491
X55.32 Y4.499
X55.193 Y4.521
X55.133 Y4.532
X55.007 Y4.557
X54.938 Y4.573
X54.815 Y4.603
X54.737 Y4.624
X54.616 Y4.658
X54.53 Y4.686
X54.411 Y4.726
X54.315 Y4.761
X54.2 Y4.808
X54.099 Y4.851
X53.986 Y4.904
X53.889 Y4.954
X53.779 Y5.013
X53.693 Y5.063
X53.586 Y5.128
X53.511 Y5.176
X53.407 Y5.247
X53.343 Y5.292
X53.241 Y5.367
X53.189 Y5.407
X53.088 Y5.487
X53.044 Y5.523
X52.945 Y5.606
X52.91 Y5.637
X52.812 Y5.723
X52.786 Y5.747
X52.689 Y5.836
X52.67 Y5.854
X52.574 Y5.944
X52.56 Y5.957
X52.465 Y6.049
X52.364 Y6.147
G2 X52.061 Y6.528 I1.328 J1.366
G1 X52.01 Y6.612
X51.958 Y6.701
X51.951 Y6.711
X51.901 Y6.796
X51.892 Y6.811
X51.843 Y6.896
X51.833 Y6.914
X51.784 Y6.999
X51.77 Y7.025
X51.724 Y7.11
X51.707 Y7.141
X51.662 Y7.228
X51.643 Y7.264
X51.6 Y7.352
X51.58 Y7.393
X51.539 Y7.481
X51.518 Y7.529
X51.48 Y7.618
X51.458 Y7.67
X51.446 Y7.7
X49.352 Y7.569
X49.367 Y7.53
X49.423 Y7.393
X49.485 Y7.261
X49.555 Y7.127
X49.634 Y6.988
X49.722 Y6.845
X49.82 Y6.698
X49.926 Y6.546
X50.041 Y6.389
X50.164 Y6.227
X50.294 Y6.062
X50.43 Y5.892
X50.529 Y5.771
X50.793 Y5.604
X51.044 Y5.449
X51.288 Y5.302
X51.526 Y5.165
X51.758 Y5.039
X51.983 Y4.924
X52.202 Y4.821
X52.415 Y4.731
X52.623 Y4.653
X52.831 Y4.586
X53.048 Y4.526
X53.274 Y4.474
X53.51 Y4.429
X53.756 Y4.391
X54.011 Y4.358
X54.276 Y4.332
X54.549 Y4.311
X54.83 Y4.296
X55.119 Y4.284
X55.416 Y4.276
X55.72 Y4.27
X56.031 Y4.266
X56.316 Y4.264
X56.489 Y4.268
X56.69 Y4.273
X56.887 Y4.279
X57.081 Y4.286
X57.27 Y4.295
X57.455 Y4.305
X57.636 Y4.316
X57.813 Y4.33
X57.985 Y4.347
X58.153 Y4.365
X58.317 Y4.387
X58.476 Y4.412
X58.631 Y4.439
X58.786 Y4.471
X58.944 Y4.507
X59.106 Y4.548
X59.271 Y4.593
X59.441 Y4.642
X59.614 Y4.695
X59.792 Y4.751
X59.973 Y4.81
X60.158 Y4.872
X60.347 Y4.936
X60.409 Y4.957
X60.43 Y4.968
X60.57 Y5.04
X60.703 Y5.11
X60.831 Y5.179
X60.953 Y5.246
X61.069 Y5.312
X61.178 Y5.377
X61.28 Y5.44
X61.375 Y5.503
X61.463 Y5.564
X61.544 Y5.624
X61.619 Y5.684
X61.691 Y5.745
X61.763 Y5.812
X61.839 Y5.885
X61.916 Y5.965
X61.997 Y6.053
X62.079 Y6.146
X62.165 Y6.246
X62.252 Y6.353
X62.343 Y6.465
X62.436 Y6.583
X62.532 Y6.706
X62.545 Y6.722
X62.552 Y6.735
X62.625 Y6.866
X62.694 Y6.992
X62.759 Y7.113
X62.82 Y7.23
X62.877 Y7.343
X62.929 Y7.45
X62.975 Y7.552
X63.017 Y7.65
X63.053 Y7.743
X63.084 Y7.829
X63.111 Y7.913
X63.135 Y7.998
X63.157 Y8.087
X63.177 Y8.184
X63.196 Y8.289
X63.214 Y8.4
X63.23 Y8.518
X63.244 Y8.641
X63.257 Y8.773
X63.27 Y8.91
X63.281 Y9.054
X63.292 Y9.203
X63.295 Y9.234
X63.287 Y9.36
X63.279 Y9.477
X63.27 Y9.588
X63.261 Y9.695
X63.251 Y9.795
X63.24 Y9.889
X63.228 Y9.978
X63.215 Y10.059
X63.201 Y10.135
X63.185 Y10.205
X63.169 Y10.269
X63.152 Y10.331
X63.13 Y10.398
X63.105 Y10.47
X63.076 Y10.545
X63.043 Y10.625
X63.005 Y10.711
X62.964 Y10.803
X62.919 Y10.898
X62.87 Y10.999
X62.818 Y11.104
X62.78 Y11.18
X62.713 Y11.269
X62.634 Y11.372
X62.559 Y11.469
X62.485 Y11.561
X62.415 Y11.646
X62.347 Y11.726
X62.282 Y11.799
X62.22 Y11.865
X62.16 Y11.926
X62.103 Y11.98
X62.045 Y12.031
X61.983 Y12.082
X61.915 Y12.135
X61.841 Y12.19
X61.76 Y12.246
X61.674 Y12.303
X61.582 Y12.362
X61.484 Y12.422
X61.38 Y12.484
X61.271 Y12.548
X61.157 Y12.613
X61.039 Y12.68
X61.017 Y12.692
X60.892 Y12.743
X60.66 Y12.837
X60.432 Y12.93
X60.205 Y13.02
X59.98 Y13.108
X59.758 Y13.194
X59.537 Y13.276
X59.319 Y13.355
X59.102 Y13.43
X58.887 Y13.502
X58.67 Y13.571
X58.451 Y13.637
X58.23 Y13.701
X58.005 Y13.763
X57.778 Y13.823
X57.549 Y13.882
X57.317 Y13.939
X57.082 Y13.995
X56.845 Y14.05
X56.605 Y14.105
X56.364 Y14.159
X56.121 Y14.212
X55.875 Y14.266
X55.646 Y14.315
X55.575 Y14.329
X55.479 Y14.348
X55.381 Y14.367
X55.371 Y14.369
X55.28 Y14.388
X55.267 Y14.391
X55.176 Y14.41
X55.159 Y14.414
X55.068 Y14.434
X55.049 Y14.439
X54.959 Y14.46
X54.935 Y14.465
X54.846 Y14.487
X54.818 Y14.494
X54.729 Y14.518
X54.699 Y14.526
X54.61 Y14.551
X54.577 Y14.561
X54.488 Y14.587
X54.452 Y14.598
X54.364 Y14.627
X54.324 Y14.64
X54.237 Y14.67
X54.196 Y14.685
X54.11 Y14.717
X54.064 Y14.735
X53.979 Y14.769
X53.931 Y14.789
X53.847 Y14.826
X53.805 Y14.845
X53.721 Y14.883
X53.686 Y14.9
X53.603 Y14.941
X53.571 Y14.957
X53.489 Y14.999
X53.462 Y15.013
X53.38 Y15.056
X53.362 Y15.066
X53.281 Y15.11
X53.265 Y15.119
X53.184 Y15.164
X53.174 Y15.17
X53.093 Y15.216
X53.008 Y15.264
G2 X52.632 Y15.546 I0.943 J1.655
G1 X52.601 Y15.576
X52.565 Y15.61
X52.552 Y15.623
X52.522 Y15.653
X52.508 Y15.666
X52.478 Y15.697
X52.454 Y15.722
X52.424 Y15.752
X52.398 Y15.78
X52.369 Y15.811
X52.339 Y15.846
X52.311 Y15.877
X52.273 Y15.922
X52.247 Y15.954
X52.207 Y16.004
X52.182 Y16.037
X52.139 Y16.094
X52.115 Y16.128
X52.066 Y16.202
X52.044 Y16.236
X51.995 Y16.316
X51.975 Y16.352
X51.926 Y16.442
X51.908 Y16.478
X51.864 Y16.571
X51.848 Y16.609
X51.81 Y16.7
X51.796 Y16.738
X51.768 Y16.816
X51.756 Y16.855
X51.733 Y16.929
X51.722 Y16.968
X51.705 Y17.032
X51.695 Y17.072
X51.682 Y17.125
X51.674 Y17.166
X51.665 Y17.209
X51.657 Y17.25
X51.65 Y17.289
X51.642 Y17.331
X51.639 Y17.354
X51.632 Y17.396
X51.629 Y17.415
X51.623 Y17.457
X51.616 Y17.504
G2 X51.609 Y18.004 I1.885 J0.276
G1 X51.615 Y18.058
X51.616 Y18.069
X51.623 Y18.123
X51.625 Y18.137
X51.632 Y18.191
X51.636 Y18.218
X51.643 Y18.271
X51.648 Y18.304
X51.657 Y18.357
X51.665 Y18.403
X51.675 Y18.455
X51.686 Y18.507
X51.697 Y18.559
X51.711 Y18.62
X51.724 Y18.671
X51.744 Y18.744
X51.759 Y18.794
X51.783 Y18.871
X51.8 Y18.92
X51.833 Y19.011
X51.852 Y19.059
X51.893 Y19.152
X51.914 Y19.199
X51.962 Y19.295
X51.986 Y19.341
X52.035 Y19.427
X52.061 Y19.471
X52.111 Y19.549
X52.14 Y19.593
X52.185 Y19.657
X52.216 Y19.7
X52.257 Y19.754
X52.29 Y19.796
X52.326 Y19.841
X52.36 Y19.881
X52.396 Y19.922
X52.431 Y19.963
X52.459 Y19.993
X52.495 Y20.032
X52.518 Y20.056
X52.555 Y20.096
X52.571 Y20.112
X52.609 Y20.151
X52.623 Y20.165
X52.662 Y20.203
X52.706 Y20.247
G2 X53.064 Y20.526 I1.342 J-1.352
G1 X53.126 Y20.564
X53.135 Y20.569
X53.197 Y20.606
X53.209 Y20.613
X53.272 Y20.65
X53.291 Y20.661
X53.354 Y20.697
X53.38 Y20.712
X53.443 Y20.746
X53.476 Y20.764
X53.539 Y20.797
X53.58 Y20.818
X53.644 Y20.85
X53.692 Y20.872
X53.757 Y20.902
X53.815 Y20.928
X53.881 Y20.955
X53.943 Y20.98
X54.009 Y21.005
X54.083 Y21.031
X54.15 Y21.053
X54.214 Y21.074
X54.065 Y21.053
X53.904 Y21.027
X53.744 Y20.997
X53.582 Y20.963
X53.417 Y20.925
X53.247 Y20.882
X53.073 Y20.835
X52.895 Y20.784
X52.714 Y20.73
X52.529 Y20.673
X52.339 Y20.613
X52.145 Y20.551
X52.082 Y20.53
X51.954 Y20.466
X51.835 Y20.406
X51.721 Y20.347
X51.613 Y20.289
X51.511 Y20.233
X51.416 Y20.179
X51.327 Y20.125
X51.244 Y20.073
X51.168 Y20.022
X51.099 Y19.972
X51.036 Y19.924
X50.977 Y19.876
X50.917 Y19.823
X50.855 Y19.764
X50.789 Y19.699
X50.721 Y19.627
X50.649 Y19.549
X50.575 Y19.464
X50.498 Y19.373
X50.417 Y19.276
X50.334 Y19.173
X50.252 Y19.071
X50.203 Y18.983
X50.146 Y18.882
X50.094 Y18.785
X50.045 Y18.692
X50 Y18.605
X49.96 Y18.522
X49.924 Y18.444
X49.893 Y18.371
X49.865 Y18.304
X49.843 Y18.242
X49.824 Y18.183
X49.807 Y18.125
X49.791 Y18.063
X49.776 Y17.993
X49.761 Y17.917
X49.747 Y17.834
X49.735 Y17.744
X49.723 Y17.647
X49.712 Y17.545
X49.701 Y17.435
X49.691 Y17.32
X49.684 Y17.237
X49.686 Y17.221
X49.703 Y17.047
X49.721 Y16.882
X49.74 Y16.727
X49.761 Y16.581
X49.783 Y16.446
X49.806 Y16.322
X49.832 Y16.209
X49.858 Y16.107
X49.886 Y16.017
X49.914 Y15.938
X49.943 Y15.869
X49.975 Y15.802
X50.015 Y15.73
X50.064 Y15.651
X50.122 Y15.564
X50.19 Y15.471
X50.268 Y15.372
X50.354 Y15.267
X50.45 Y15.155
X50.554 Y15.038
X50.666 Y14.917
X50.757 Y14.819
X50.788 Y14.799
X51.004 Y14.658
X51.216 Y14.521
X51.424 Y14.389
X51.629 Y14.263
X51.831 Y14.143
X52.029 Y14.029
X52.223 Y13.922
X52.415 Y13.823
X52.605 Y13.731
X52.795 Y13.645
X52.99 Y13.564
X53.191 Y13.486
X53.399 Y13.411
X53.612 Y13.339
X53.831 Y13.27
X54.055 Y13.203
X54.286 Y13.138
X54.521 Y13.075
X54.761 Y13.014
X55.006 Y12.953
X55.256 Y12.893
X55.51 Y12.833
X55.743 Y12.778
X55.859 Y12.754
X56.003 Y12.724
X56.148 Y12.693
X56.297 Y12.66
X56.311 Y12.657
X56.45 Y12.626
X56.467 Y12.622
X56.605 Y12.589
X56.623 Y12.585
X56.761 Y12.551
X56.786 Y12.545
X56.923 Y12.509
X56.948 Y12.502
X57.085 Y12.465
X57.114 Y12.457
X57.249 Y12.417
X57.283 Y12.407
X57.418 Y12.365
X57.455 Y12.353
X57.589 Y12.308
X57.625 Y12.295
X57.758 Y12.248
X57.801 Y12.232
X57.932 Y12.182
X57.976 Y12.164
X58.106 Y12.11
X58.153 Y12.09
X58.282 Y12.033
X58.322 Y12.014
X58.449 Y11.954
X58.485 Y11.937
X58.611 Y11.874
X58.641 Y11.858
X58.767 Y11.793
X58.792 Y11.779
X58.917 Y11.712
X58.935 Y11.702
X59.059 Y11.633
X59.075 Y11.624
X59.198 Y11.554
X59.207 Y11.549
X59.331 Y11.478
X59.459 Y11.404
G2 X59.873 Y11.081 I-0.954 J-1.649
G1 X59.92 Y11.032
X59.972 Y10.978
X59.982 Y10.968
X60.029 Y10.918
X60.046 Y10.9
X60.092 Y10.85
X60.111 Y10.829
X60.156 Y10.779
X60.182 Y10.749
X60.225 Y10.699
X60.257 Y10.661
X60.299 Y10.61
X60.333 Y10.566
X60.374 Y10.514
X60.411 Y10.463
X60.45 Y10.409
X60.493 Y10.347
X60.529 Y10.292
X60.572 Y10.224
X60.605 Y10.168
X60.65 Y10.089
X60.681 Y10.032
X60.727 Y9.939
X60.754 Y9.88
X60.794 Y9.79
X60.818 Y9.73
X60.85 Y9.645
X60.872 Y9.584
X60.898 Y9.505
X60.917 Y9.442
X60.936 Y9.372
X60.953 Y9.309
X60.967 Y9.251
X60.982 Y9.186
X60.993 Y9.135
X61.006 Y9.069
X61.015 Y9.025
X61.026 Y8.958
X61.031 Y8.928
X61.042 Y8.862
X61.046 Y8.835
X61.056 Y8.768
X61.058 Y8.751
X61.067 Y8.683
X61.077 Y8.607
G2 Y8.116 I-1.889 J-0.246
G1 X61.068 Y8.046
X61.058 Y7.967
X61.056 Y7.953
X61.046 Y7.883
X61.042 Y7.855
X61.031 Y7.786
X61.025 Y7.751
X61.013 Y7.682
X61.005 Y7.639
X60.991 Y7.571
X60.981 Y7.521
X60.965 Y7.454
X60.949 Y7.39
X60.932 Y7.324
X60.913 Y7.256
X60.893 Y7.191
X60.867 Y7.112
X60.844 Y7.048
X60.811 Y6.96
X60.785 Y6.898
X60.743 Y6.803
X60.715 Y6.742
X60.669 Y6.652
X60.637 Y6.593
X60.588 Y6.509
X60.553 Y6.452
X60.508 Y6.381
X60.47 Y6.324
X60.426 Y6.262
X60.386 Y6.207
X60.347 Y6.155
X60.304 Y6.101
X60.267 Y6.055
X60.223 Y6.002
X60.19 Y5.964
X60.144 Y5.912
X60.119 Y5.884
X60.071 Y5.832
X60.049 Y5.809
X60.001 Y5.758
X59.985 Y5.741
X59.936 Y5.69
X59.924 Y5.679
X59.874 Y5.628
X59.818 Y5.572
G2 X59.499 Y5.315 I-1.348 J1.346
G1 X59.421 Y5.265
X59.338 Y5.212
X59.326 Y5.204
X59.248 Y5.156
X59.228 Y5.143
X59.15 Y5.096
X59.124 Y5.081
X59.046 Y5.034
X59.012 Y5.015
X58.933 Y4.971
X58.893 Y4.949
X58.813 Y4.906
X58.765 Y4.882
X58.685 Y4.842
X58.627 Y4.815
X58.546 Y4.778
X58.48 Y4.75
X58.397 Y4.716
X58.324 Y4.688
X58.241 Y4.658
X58.16 Y4.631
X58.075 Y4.604
X57.999 Y4.582
X57.913 Y4.559
X57.842 Y4.542
X57.755 Y4.522
X57.691 Y4.509
X57.603 Y4.492
X57.545 Y4.482
X57.456 Y4.468
X57.405 Y4.46
X57.316 Y4.449
X57.271 Y4.443
X57.181 Y4.434
X57.143 Y4.43
X57.052 Y4.422
X57.021 Y4.419
X56.929 Y4.413
X56.904 Y4.411
X56.813 Y4.406
X56.794 Y4.405
X56.702 Y4.401
X56.689 Y4.4
X56.597 Y4.396
X56.499 Y4.393
X56.389 Y4.392
X56.28 Y4.397
X56.148 Y4.407
X56.007 Y4.418
X55.991 Y4.42
X55.86 Y4.432
X55.835 Y4.434
X55.797 Y4.438
X55.704 Y4.448 Z-0.403 F333.3
X55.671 Y4.451 Z-0.404
X55.541 Y4.467 Z-0.409
X55.499 Y4.473 Z-0.41
X55.37 Y4.491 Z-0.415
X55.32 Y4.499 Z-0.417
X55.193 Y4.521 Z-0.421
X55.133 Y4.532 Z-0.423
X55.007 Y4.557 Z-0.428
X54.938 Y4.573 Z-0.43
X54.815 Y4.603 Z-0.435
X54.737 Y4.624 Z-0.438
X54.616 Y4.658 Z-0.442
X54.53 Y4.686 Z-0.445
X54.411 Y4.726 Z-0.45
X54.315 Y4.761 Z-0.453
X54.2 Y4.808 Z-0.457
X54.099 Y4.851 Z-0.461
X53.986 Y4.904 Z-0.466
X53.889 Y4.954 Z-0.469
X53.779 Y5.013 Z-0.474
X53.693 Y5.063 Z-0.477
X53.586 Y5.128 Z-0.482
X53.511 Y5.176 Z-0.485
X53.407 Y5.247 Z-0.489
X53.343 Y5.292 Z-0.492
X53.241 Y5.367 Z-0.496
X53.189 Y5.407 Z-0.499
X53.158 Y5.431 Z-0.5
X53.088 Y5.487 F1000
X53.044 Y5.523
X52.945 Y5.606
X52.91 Y5.637
X52.812 Y5.723
X52.786 Y5.747
X52.689 Y5.836
X52.67 Y5.854
X52.574 Y5.944
X52.56 Y5.957
X52.465 Y6.049
X52.364 Y6.147
G2 X52.061 Y6.528 I1.328 J1.366
G1 X52.01 Y6.612
X51.958 Y6.701
X51.951 Y6.711
X51.901 Y6.796
X51.892 Y6.811
X51.843 Y6.896
X51.833 Y6.914
X51.784 Y6.999
X51.77 Y7.025
X51.724 Y7.11
X51.707 Y7.141
X51.662 Y7.228
X51.643 Y7.264
X51.6 Y7.352
X51.58 Y7.393
X51.539 Y7.481
X51.518 Y7.529
X51.48 Y7.618
X51.458 Y7.67
X51.446 Y7.7
X49.352 Y7.569
X49.367 Y7.53
X49.423 Y7.393
X49.485 Y7.261
X49.555 Y7.127
X49.634 Y6.988
X49.722 Y6.845
X49.82 Y6.698
X49.926 Y6.546
X50.041 Y6.389
X50.164 Y6.227
X50.294 Y6.062
X50.43 Y5.892
X50.529 Y5.771
X50.793 Y5.604
X51.044 Y5.449
X51.288 Y5.302
X51.526 Y5.165
X51.758 Y5.039
X51.983 Y4.924
X52.202 Y4.821
X52.415 Y4.731
X52.623 Y4.653
X52.831 Y4.586
X53.048 Y4.526
X53.274 Y4.474
X53.51 Y4.429
X53.756 Y4.391
X54.011 Y4.358
X54.276 Y4.332
X54.549 Y4.311
X54.83 Y4.296
X55.119 Y4.284
X55.416 Y4.276
X55.72 Y4.27
X56.031 Y4.266
X56.316 Y4.264
X56.489 Y4.268
X56.69 Y4.273
X56.887 Y4.279
X57.081 Y4.286
X57.27 Y4.295
X57.455 Y4.305
X57.636 Y4.316
X57.813 Y4.33
X57.985 Y4.347
X58.153 Y4.365
X58.317 Y4.387
X58.476 Y4.412
X58.631 Y4.439
X58.786 Y4.471
X58.944 Y4.507
X59.106 Y4.548
X59.271 Y4.593
X59.441 Y4.642
X59.614 Y4.695
X59.792 Y4.751
X59.973 Y4.81
X60.158 Y4.872
X60.347 Y4.936
X60.409 Y4.957
X60.43 Y4.968
X60.57 Y5.04
X60.703 Y5.11
X60.831 Y5.179
X60.953 Y5.246
X61.069 Y5.312
X61.178 Y5.377
X61.28 Y5.44
X61.375 Y5.503
X61.463 Y5.564
X61.544 Y5.624
X61.619 Y5.684
X61.691 Y5.745
X61.763 Y5.812
X61.839 Y5.885
X61.916 Y5.965
X61.997 Y6.053
X62.079 Y6.146
X62.165 Y6.246
X62.252 Y6.353
X62.343 Y6.465
X62.436 Y6.583
X62.532 Y6.706
X62.545 Y6.722
X62.552 Y6.735
X62.625 Y6.866
X62.694 Y6.992
X62.759 Y7.113
X62.82 Y7.23
X62.877 Y7.343
X62.929 Y7.45
X62.975 Y7.552
X63.017 Y7.65
X63.053 Y7.743
X63.084 Y7.829
X63.111 Y7.913
X63.135 Y7.998
X63.157 Y8.087
X63.177 Y8.184
X63.196 Y8.289
X63.214 Y8.4
X63.23 Y8.518
X63.244 Y8.641
X63.257 Y8.773
X63.27 Y8.91
X63.281 Y9.054
X63.292 Y9.203
X63.295 Y9.234
X63.287 Y9.36
X63.279 Y9.477
X63.27 Y9.588
X63.261 Y9.695
X63.251 Y9.795
X63.24 Y9.889
X63.228 Y9.978
X63.215 Y10.059
X63.201 Y10.135
X63.185 Y10.205
X63.169 Y10.269
X63.152 Y10.331
X63.13 Y10.398
X63.105 Y10.47
X63.076 Y10.545
X63.043 Y10.625
X63.005 Y10.711
X62.964 Y10.803
X62.919 Y10.898
X62.87 Y10.999
X62.818 Y11.104
X62.78 Y11.18
X62.713 Y11.269
X62.634 Y11.372
X62.559 Y11.469
X62.485 Y11.561
X62.415 Y11.646
X62.347 Y11.726
X62.282 Y11.799
X62.22 Y11.865
X62.16 Y11.926
X62.103 Y11.98
X62.045 Y12.031
X61.983 Y12.082
X61.915 Y12.135
X61.841 Y12.19
X61.76 Y12.246
X61.674 Y12.303
X61.582 Y12.362
X61.484 Y12.422
X61.38 Y12.484
X61.271 Y12.548
X61.157 Y12.613
X61.039 Y12.68
X61.017 Y12.692
X60.892 Y12.743
X60.66 Y12.837
X60.432 Y12.93
X60.205 Y13.02
X59.98 Y13.108
X59.758 Y13.194
X59.537 Y13.276
X59.319 Y13.355
X59.102 Y13.43
X58.887 Y13.502
X58.67 Y13.571
X58.451 Y13.637
X58.23 Y13.701
X58.005 Y13.763
X57.778 Y13.823
X57.549 Y13.882
X57.317 Y13.939
X57.082 Y13.995
X56.845 Y14.05
X56.605 Y14.105
X56.364 Y14.159
X56.121 Y14.212
X55.875 Y14.266
X55.646 Y14.315
X55.575 Y14.329
X55.479 Y14.348
X55.381 Y14.367
X55.371 Y14.369
X55.28 Y14.388
X55.267 Y14.391
X55.176 Y14.41
X55.159 Y14.414
X55.068 Y14.434
X55.049 Y14.439
X54.959 Y14.46
X54.935 Y14.465
X54.846 Y14.487
X54.818 Y14.494
X54.729 Y14.518
X54.699 Y14.526
X54.61 Y14.551
X54.577 Y14.561
X54.488 Y14.587
X54.452 Y14.598
X54.364 Y14.627
X54.324 Y14.64
X54.237 Y14.67
X54.196 Y14.685
X54.11 Y14.717
X54.064 Y14.735
X53.979 Y14.769
X53.931 Y14.789
X53.847 Y14.826
X53.805 Y14.845
X53.721 Y14.883
X53.686 Y14.9
X53.603 Y14.941
X53.571 Y14.957
X53.489 Y14.999
X53.462 Y15.013
X53.38 Y15.056
X53.362 Y15.066
X53.281 Y15.11
X53.265 Y15.119
X53.184 Y15.164
X53.174 Y15.17
X53.093 Y15.216
X53.008 Y15.264
G2 X52.632 Y15.546 I0.943 J1.655
G1 X52.601 Y15.576
X52.565 Y15.61
X52.552 Y15.623
X52.522 Y15.653
X52.508 Y15.666
X52.478 Y15.697
X52.454 Y15.722
X52.424 Y15.752
X52.398 Y15.78
X52.369 Y15.811
X52.339 Y15.846
X52.311 Y15.877
X52.273 Y15.922
X52.247 Y15.954
X52.207 Y16.004
X52.182 Y16.037
X52.139 Y16.094
X52.115 Y16.128
X52.066 Y16.202
X52.044 Y16.236
X51.995 Y16.316
X51.975 Y16.352
X51.926 Y16.442
X51.908 Y16.478
X51.864 Y16.571
X51.848 Y16.609
X51.81 Y16.7
X51.796 Y16.738
X51.768 Y16.816
X51.756 Y16.855
X51.733 Y16.929
X51.722 Y16.968
X51.705 Y17.032
X51.695 Y17.072
X51.682 Y17.125
X51.674 Y17.166
X51.665 Y17.209
X51.657 Y17.25
X51.65 Y17.289
X51.642 Y17.331
X51.639 Y17.354
X51.632 Y17.396
X51.629 Y17.415
X51.623 Y17.457
X51.616 Y17.504
G2 X51.609 Y18.004 I1.885 J0.276
G1 X51.615 Y18.058
X51.616 Y18.069
X51.623 Y18.123
X51.625 Y18.137
X51.632 Y18.191
X51.636 Y18.218
X51.643 Y18.271
X51.648 Y18.304
X51.657 Y18.357
X51.665 Y18.403
X51.675 Y18.455
X51.686 Y18.507
X51.697 Y18.559
X51.711 Y18.62
X51.724 Y18.671
X51.744 Y18.744
X51.759 Y18.794
X51.783 Y18.871
X51.8 Y18.92
X51.833 Y19.011
X51.852 Y19.059
X51.893 Y19.152
X51.914 Y19.199
X51.962 Y19.295
X51.986 Y19.341
X52.035 Y19.427
X52.061 Y19.471
X52.111 Y19.549
X52.14 Y19.593
X52.185 Y19.657
X52.216 Y19.7
X52.257 Y19.754
X52.29 Y19.796
X52.326 Y19.841
X52.36 Y19.881
X52.396 Y19.922
X52.431 Y19.963
X52.459 Y19.993
X52.495 Y20.032
X52.518 Y20.056
X52.555 Y20.096
X52.571 Y20.112
X52.609 Y20.151
X52.623 Y20.165
X52.662 Y20.203
X52.706 Y20.247
G2 X53.064 Y20.526 I1.342 J-1.352
G1 X53.126 Y20.564
X53.135 Y20.569
X53.197 Y20.606
X53.209 Y20.613
X53.272 Y20.65
X53.291 Y20.661
X53.354 Y20.697
X53.38 Y20.712
X53.443 Y20.746
X53.476 Y20.764
X53.539 Y20.797
X53.58 Y20.818
X53.644 Y20.85
X53.692 Y20.872
X53.757 Y20.902
X53.815 Y20.928
X53.881 Y20.955
X53.943 Y20.98
X54.009 Y21.005
X54.083 Y21.031
X54.15 Y21.053
X54.214 Y21.074
X54.065 Y21.053
X53.904 Y21.027
X53.744 Y20.997
X53.582 Y20.963
X53.417 Y20.925
X53.247 Y20.882
X53.073 Y20.835
X52.895 Y20.784
X52.714 Y20.73
X52.529 Y20.673
X52.339 Y20.613
X52.145 Y20.551
X52.082 Y20.53
X51.954 Y20.466
X51.835 Y20.406
X51.721 Y20.347
X51.613 Y20.289
X51.511 Y20.233
X51.416 Y20.179
X51.327 Y20.125
X51.244 Y20.073
X51.168 Y20.022
X51.099 Y19.972
X51.036 Y19.924
X50.977 Y19.876
X50.917 Y19.823
X50.855 Y19.764
X50.789 Y19.699
X50.721 Y19.627
X50.649 Y19.549
X50.575 Y19.464
X50.498 Y19.373
X50.417 Y19.276
X50.334 Y19.173
X50.252 Y19.071
X50.203 Y18.983
X50.146 Y18.882
X50.094 Y18.785
X50.045 Y18.692
X50 Y18.605
X49.96 Y18.522
X49.924 Y18.444
X49.893 Y18.371
X49.865 Y18.304
X49.843 Y18.242
X49.824 Y18.183
X49.807 Y18.125
X49.791 Y18.063
X49.776 Y17.993
X49.761 Y17.917
X49.747 Y17.834
X49.735 Y17.744
X49.723 Y17.647
X49.712 Y17.545
X49.701 Y17.435
X49.691 Y17.32
X49.684 Y17.237
X49.686 Y17.221
X49.703 Y17.047
X49.721 Y16.882
X49.74 Y16.727
X49.761 Y16.581
X49.783 Y16.446
X49.806 Y16.322
X49.832 Y16.209
X49.858 Y16.107
X49.886 Y16.017
X49.914 Y15.938
X49.943 Y15.869
X49.975 Y15.802
X50.015 Y15.73
X50.064 Y15.651
X50.122 Y15.564
X50.19 Y15.471
X50.268 Y15.372
X50.354 Y15.267
X50.45 Y15.155
X50.554 Y15.038
X50.666 Y14.917
X50.757 Y14.819
X50.788 Y14.799
X51.004 Y14.658
X51.216 Y14.521
X51.424 Y14.389
X51.629 Y14.263
X51.831 Y14.143
X52.029 Y14.029
X52.223 Y13.922
X52.415 Y13.823
X52.605 Y13.731
X52.795 Y13.645
X52.99 Y13.564
X53.191 Y13.486
X53.399 Y13.411
X53.612 Y13.339
X53.831 Y13.27
X54.055 Y13.203
X54.286 Y13.138
X54.521 Y13.075
X54.761 Y13.014
X55.006 Y12.953
X55.256 Y12.893
X55.51 Y12.833
X55.743 Y12.778
X55.859 Y12.754
X56.003 Y12.724
X56.148 Y12.693
X56.297 Y12.66
X56.311 Y12.657
X56.45 Y12.626
X56.467 Y12.622
X56.605 Y12.589
X56.623 Y12.585
X56.761 Y12.551
X56.786 Y12.545
X56.923 Y12.509
X56.948 Y12.502
X57.085 Y12.465
X57.114 Y12.457
X57.249 Y12.417
X57.283 Y12.407
X57.418 Y12.365
X57.455 Y12.353
X57.589 Y12.308
X57.625 Y12.295
X57.758 Y12.248
X57.801 Y12.232
X57.932 Y12.182
X57.976 Y12.164
X58.106 Y12.11
X58.153 Y12.09
X58.282 Y12.033
X58.322 Y12.014
X58.449 Y11.954
X58.485 Y11.937
X58.611 Y11.874
X58.641 Y11.858
X58.767 Y11.793
X58.792 Y11.779
X58.917 Y11.712
X58.935 Y11.702
X59.059 Y11.633
X59.075 Y11.624
X59.198 Y11.554
X59.207 Y11.549
X59.331 Y11.478
X59.459 Y11.404
G2 X59.873 Y11.081 I-0.954 J-1.649
G1 X59.92 Y11.032
X59.972 Y10.978
X59.982 Y10.968
X60.029 Y10.918
X60.046 Y10.9
X60.092 Y10.85
X60.111 Y10.829
X60.156 Y10.779
X60.182 Y10.749
X60.225 Y10.699
X60.257 Y10.661
X60.299 Y10.61
X60.333 Y10.566
X60.374 Y10.514
X60.411 Y10.463
X60.45 Y10.409
X60.493 Y10.347
X60.529 Y10.292
X60.572 Y10.224
X60.605 Y10.168
X60.65 Y10.089
X60.681 Y10.032
X60.727 Y9.939
X60.754 Y9.88
X60.794 Y9.79
X60.818 Y9.73
X60.85 Y9.645
X60.872 Y9.584
X60.898 Y9.505
X60.917 Y9.442
X60.936 Y9.372
X60.953 Y9.309
X60.967 Y9.251
X60.982 Y9.186
X60.993 Y9.135
X61.006 Y9.069
X61.015 Y9.025
X61.026 Y8.958
X61.031 Y8.928
X61.042 Y8.862
X61.046 Y8.835
X61.056 Y8.768
X61.058 Y8.751
X61.067 Y8.683
X61.077 Y8.607
G2 Y8.116 I-1.889 J-0.246
G1 X61.068 Y8.046
X61.058 Y7.967
X61.056 Y7.953
X61.046 Y7.883
X61.042 Y7.855
X61.031 Y7.786
X61.025 Y7.751
X61.013 Y7.682
X61.005 Y7.639
X60.991 Y7.571
X60.981 Y7.521
X60.965 Y7.454
X60.949 Y7.39
X60.932 Y7.324
X60.913 Y7.256
X60.893 Y7.191
X60.867 Y7.112
X60.844 Y7.048
X60.811 Y6.96
X60.785 Y6.898
X60.743 Y6.803
X60.715 Y6.742
X60.669 Y6.652
X60.637 Y6.593
X60.588 Y6.509
X60.553 Y6.452
X60.508 Y6.381
X60.47 Y6.324
X60.426 Y6.262
X60.386 Y6.207
X60.347 Y6.155
X60.304 Y6.101
X60.267 Y6.055
X60.223 Y6.002
X60.19 Y5.964
X60.144 Y5.912
X60.119 Y5.884
X60.071 Y5.832
X60.049 Y5.809
X60.001 Y5.758
X59.985 Y5.741
X59.936 Y5.69
X59.924 Y5.679
X59.874 Y5.628
X59.818 Y5.572
G2 X59.499 Y5.315 I-1.348 J1.346
G1 X59.421 Y5.265
X59.338 Y5.212
X59.326 Y5.204
X59.248 Y5.156
X59.228 Y5.143
X59.15 Y5.096
X59.124 Y5.081
X59.046 Y5.034
X59.012 Y5.015
X58.933 Y4.971
X58.893 Y4.949
X58.813 Y4.906
X58.765 Y4.882
X58.685 Y4.842
X58.627 Y4.815
X58.546 Y4.778
X58.48 Y4.75
X58.397 Y4.716
X58.324 Y4.688
X58.241 Y4.658
X58.16 Y4.631
X58.075 Y4.604
X57.999 Y4.582
X57.913 Y4.559
X57.842 Y4.542
X57.755 Y4.522
X57.691 Y4.509
X57.603 Y4.492
X57.545 Y4.482
X57.456 Y4.468
X57.405 Y4.46
X57.316 Y4.449
X57.271 Y4.443
X57.181 Y4.434
X57.143 Y4.43
X57.052 Y4.422
X57.021 Y4.419
X56.929 Y4.413
X56.904 Y4.411
X56.813 Y4.406
X56.794 Y4.405
X56.702 Y4.401
X56.689 Y4.4
X56.597 Y4.396
X56.499 Y4.393
X56.389 Y4.392
X56.28 Y4.397
X56.148 Y4.407
X56.007 Y4.418
X55.991 Y4.42
X55.86 Y4.432
X55.835 Y4.434
X55.704 Y4.448
X55.671 Y4.451
X55.541 Y4.467
X55.499 Y4.473
X55.37 Y4.491
X55.32 Y4.499
X55.193 Y4.521
X55.133 Y4.532
X55.007 Y4.557
X54.938 Y4.573
X54.815 Y4.603
X54.737 Y4.624
X54.616 Y4.658
X54.53 Y4.686
X54.411 Y4.726
X54.315 Y4.761
X54.2 Y4.808
X54.099 Y4.851
X53.986 Y4.904
X53.889 Y4.954
X53.779 Y5.013
X53.693 Y5.063
X53.586 Y5.128
X53.511 Y5.176
X53.407 Y5.247
X53.343 Y5.292
X53.241 Y5.367
X53.189 Y5.407
X53.158 Y5.431
X53.088 Y5.487 Z-0.503 F333.3
X53.044 Y5.523 Z-0.505
X52.945 Y5.606 Z-0.51
X52.91 Y5.637 Z-0.511
X52.812 Y5.723 Z-0.516
X52.786 Y5.747 Z-0.517
X52.689 Y5.836 Z-0.522
X52.67 Y5.854 Z-0.523
X52.574 Y5.944 Z-0.527
X52.56 Y5.957 Z-0.528
X52.465 Y6.049 Z-0.532
X52.364 Y6.147 Z-0.537
G2 X52.061 Y6.528 Z-0.554 I1.328 J1.366
G1 X52.01 Y6.612 Z-0.558
X51.958 Y6.701 Z-0.561
X51.951 Y6.711 Z-0.562
X51.901 Y6.796 Z-0.565
X51.892 Y6.811 Z-0.566
X51.843 Y6.896 Z-0.569
X51.833 Y6.914 Z-0.57
X51.784 Y6.999 Z-0.573
X51.77 Y7.025 Z-0.574
X51.724 Y7.11 Z-0.578
X51.707 Y7.141 Z-0.579
X51.662 Y7.228 Z-0.583
X51.643 Y7.264 Z-0.584
X51.6 Y7.352 Z-0.587
X51.58 Y7.393 Z-0.589
X51.539 Y7.481 Z-0.592
X51.518 Y7.529 Z-0.594
X51.48 Y7.618 Z-0.598
X51.458 Y7.67 Z-0.6
X51.453 Y7.682
X51.446 Y7.7 F1000
X49.352 Y7.569
X49.367 Y7.53
X49.423 Y7.393
X49.485 Y7.261
X49.555 Y7.127
X49.634 Y6.988
X49.722 Y6.845
X49.82 Y6.698
X49.926 Y6.546
X50.041 Y6.389
X50.164 Y6.227
X50.294 Y6.062
X50.43 Y5.892
X50.529 Y5.771
X50.793 Y5.604
X51.044 Y5.449
X51.288 Y5.302
X51.526 Y5.165
X51.758 Y5.039
X51.983 Y4.924
X52.202 Y4.821
X52.415 Y4.731
X52.623 Y4.653
X52.831 Y4.586
X53.048 Y4.526
X53.274 Y4.474
X53.51 Y4.429
X53.756 Y4.391
X54.011 Y4.358
X54.276 Y4.332
X54.549 Y4.311
X54.83 Y4.296
X55.119 Y4.284
X55.416 Y4.276
X55.72 Y4.27
X56.031 Y4.266
X56.316 Y4.264
X56.489 Y4.268
X56.69 Y4.273
X56.887 Y4.279
X57.081 Y4.286
X57.27 Y4.295
X57.455 Y4.305
X57.636 Y4.316
X57.813 Y4.33
X57.985 Y4.347
X58.153 Y4.365
X58.317 Y4.387
X58.476 Y4.412
X58.631 Y4.439
X58.786 Y4.471
X58.944 Y4.507
X59.106 Y4.548
X59.271 Y4.593
X59.441 Y4.642
X59.614 Y4.695
X59.792 Y4.751
X59.973 Y4.81
X60.158 Y4.872
X60.347 Y4.936
X60.409 Y4.957
X60.43 Y4.968
X60.57 Y5.04
X60.703 Y5.11
X60.831 Y5.179
X60.953 Y5.246
X61.069 Y5.312
X61.178 Y5.377
X61.28 Y5.44
X61.375 Y5.503
X61.463 Y5.564
X61.544 Y5.624
X61.619 Y5.684
X61.691 Y5.745
X61.763 Y5.812
X61.839 Y5.885
X61.916 Y5.965
X61.997 Y6.053
X62.079 Y6.146
X62.165 Y6.246
X62.252 Y6.353
X62.343 Y6.465
X62.436 Y6.583
X62.532 Y6.706
X62.545 Y6.722
X62.552 Y6.735
X62.625 Y6.866
X62.694 Y6.992
X62.759 Y7.113
X62.82 Y7.23
X62.877 Y7.343
X62.929 Y7.45
X62.975 Y7.552
X63.017 Y7.65
X63.053 Y7.743
X63.084 Y7.829
X63.111 Y7.913
X63.135 Y7.998
X63.157 Y8.087
X63.177 Y8.184
X63.196 Y8.289
X63.214 Y8.4
X63.23 Y8.518
X63.244 Y8.641
X63.257 Y8.773
X63.27 Y8.91
X63.281 Y9.054
X63.292 Y9.203
X63.295 Y9.234
X63.287 Y9.36
X63.279 Y9.477
X63.27 Y9.588
X63.261 Y9.695
X63.251 Y9.795
X63.24 Y9.889
X63.228 Y9.978
X63.215 Y10.059
X63.201 Y10.135
X63.185 Y10.205
X63.169 Y10.269
X63.152 Y10.331
X63.13 Y10.398
X63.105 Y10.47
X63.076 Y10.545
X63.043 Y10.625
X63.005 Y10.711
X62.964 Y10.803
X62.919 Y10.898
X62.87 Y10.999
X62.818 Y11.104
X62.78 Y11.18
X62.713 Y11.269
X62.634 Y11.372
X62.559 Y11.469
X62.485 Y11.561
X62.415 Y11.646
X62.347 Y11.726
X62.282 Y11.799
X62.22 Y11.865
X62.16 Y11.926
X62.103 Y11.98
X62.045 Y12.031
X61.983 Y12.082
X61.915 Y12.135
X61.841 Y12.19
X61.76 Y12.246
X61.674 Y12.303
X61.582 Y12.362
X61.484 Y12.422
X61.38 Y12.484
X61.271 Y12.548
X61.157 Y12.613
X61.039 Y12.68
X61.017 Y12.692
X60.892 Y12.743
X60.66 Y12.837
X60.432 Y12.93
X60.205 Y13.02
X59.98 Y13.108
X59.758 Y13.194
X59.537 Y13.276
X59.319 Y13.355
X59.102 Y13.43
X58.887 Y13.502
X58.67 Y13.571
X58.451 Y13.637
X58.23 Y13.701
X58.005 Y13.763
X57.778 Y13.823
X57.549 Y13.882
X57.317 Y13.939
X57.082 Y13.995
X56.845 Y14.05
X56.605 Y14.105
X56.364 Y14.159
X56.121 Y14.212
X55.875 Y14.266
X55.646 Y14.315
X55.575 Y14.329
X55.479 Y14.348
X55.381 Y14.367
X55.371 Y14.369
X55.28 Y14.388
X55.267 Y14.391
X55.176 Y14.41
X55.159 Y14.414
X55.068 Y14.434
X55.049 Y14.439
X54.959 Y14.46
X54.935 Y14.465
X54.846 Y14.487
X54.818 Y14.494
X54.729 Y14.518
X54.699 Y14.526
X54.61 Y14.551
X54.577 Y14.561
X54.488 Y14.587
X54.452 Y14.598
X54.364 Y14.627
X54.324 Y14.64
X54.237 Y14.67
X54.196 Y14.685
X54.11 Y14.717
X54.064 Y14.735
X53.979 Y14.769
X53.931 Y14.789
X53.847 Y14.826
X53.805 Y14.845
X53.721 Y14.883
X53.686 Y14.9
X53.603 Y14.941
X53.571 Y14.957
X53.489 Y14.999
X53.462 Y15.013
X53.38 Y15.056
X53.362 Y15.066
X53.281 Y15.11
X53.265 Y15.119
X53.184 Y15.164
X53.174 Y15.17
X53.093 Y15.216
X53.008 Y15.264
G2 X52.632 Y15.546 I0.943 J1.655
G1 X52.601 Y15.576
X52.565 Y15.61
X52.552 Y15.623
X52.522 Y15.653
X52.508 Y15.666
X52.478 Y15.697
X52.454 Y15.722
X52.424 Y15.752
X52.398 Y15.78
X52.369 Y15.811
X52.339 Y15.846
X52.311 Y15.877
X52.273 Y15.922
X52.247 Y15.954
X52.207 Y16.004
X52.182 Y16.037
X52.139 Y16.094
X52.115 Y16.128
X52.066 Y16.202
X52.044 Y16.236
X51.995 Y16.316
X51.975 Y16.352
X51.926 Y16.442
X51.908 Y16.478
X51.864 Y16.571
X51.848 Y16.609
X51.81 Y16.7
X51.796 Y16.738
X51.768 Y16.816
X51.756 Y16.855
X51.733 Y16.929
X51.722 Y16.968
X51.705 Y17.032
X51.695 Y17.072
X51.682 Y17.125
X51.674 Y17.166
X51.665 Y17.209
X51.657 Y17.25
X51.65 Y17.289
X51.642 Y17.331
X51.639 Y17.354
X51.632 Y17.396
X51.629 Y17.415
X51.623 Y17.457
X51.616 Y17.504
G2 X51.609 Y18.004 I1.885 J0.276
G1 X51.615 Y18.058
X51.616 Y18.069
X51.623 Y18.123
X51.625 Y18.137
X51.632 Y18.191
X51.636 Y18.218
X51.643 Y18.271
X51.648 Y18.304
X51.657 Y18.357
X51.665 Y18.403
X51.675 Y18.455
X51.686 Y18.507
X51.697 Y18.559
X51.711 Y18.62
X51.724 Y18.671
X51.744 Y18.744
X51.759 Y18.794
X51.783 Y18.871
X51.8 Y18.92
X51.833 Y19.011
X51.852 Y19.059
X51.893 Y19.152
X51.914 Y19.199
X51.962 Y19.295
X51.986 Y19.341
X52.035 Y19.427
X52.061 Y19.471
X52.111 Y19.549
X52.14 Y19.593
X52.185 Y19.657
X52.216 Y19.7
X52.257 Y19.754
X52.29 Y19.796
X52.326 Y19.841
X52.36 Y19.881
X52.396 Y19.922
X52.431 Y19.963
X52.459 Y19.993
X52.495 Y20.032
X52.518 Y20.056
X52.555 Y20.096
X52.571 Y20.112
X52.609 Y20.151
X52.623 Y20.165
X52.662 Y20.203
X52.706 Y20.247
G2 X53.064 Y20.526 I1.342 J-1.352
G1 X53.126 Y20.564
X53.135 Y20.569
X53.197 Y20.606
X53.209 Y20.613
X53.272 Y20.65
X53.291 Y20.661
X53.354 Y20.697
X53.38 Y20.712
X53.443 Y20.746
X53.476 Y20.764
X53.539 Y20.797
X53.58 Y20.818
X53.644 Y20.85
X53.692 Y20.872
X53.757 Y20.902
X53.815 Y20.928
X53.881 Y20.955
X53.943 Y20.98
X54.009 Y21.005
X54.083 Y21.031
X54.15 Y21.053
X54.214 Y21.074
X54.065 Y21.053
X53.904 Y21.027
X53.744 Y20.997
X53.582 Y20.963
X53.417 Y20.925
X53.247 Y20.882
X53.073 Y20.835
X52.895 Y20.784
X52.714 Y20.73
X52.529 Y20.673
X52.339 Y20.613
X52.145 Y20.551
X52.082 Y20.53
X51.954 Y20.466
X51.835 Y20.406
X51.721 Y20.347
X51.613 Y20.289
X51.511 Y20.233
X51.416 Y20.179
X51.327 Y20.125
X51.244 Y20.073
X51.168 Y20.022
X51.099 Y19.972
X51.036 Y19.924
X50.977 Y19.876
X50.917 Y19.823
X50.855 Y19.764
X50.789 Y19.699
X50.721 Y19.627
X50.649 Y19.549
X50.575 Y19.464
X50.498 Y19.373
X50.417 Y19.276
X50.334 Y19.173
X50.252 Y19.071
X50.203 Y18.983
X50.146 Y18.882
X50.094 Y18.785
X50.045 Y18.692
X50 Y18.605
X49.96 Y18.522
X49.924 Y18.444
X49.893 Y18.371
X49.865 Y18.304
X49.843 Y18.242
X49.824 Y18.183
X49.807 Y18.125
X49.791 Y18.063
X49.776 Y17.993
X49.761 Y17.917
X49.747 Y17.834
X49.735 Y17.744
X49.723 Y17.647
X49.712 Y17.545
X49.701 Y17.435
X49.691 Y17.32
X49.684 Y17.237
X49.686 Y17.221
X49.703 Y17.047
X49.721 Y16.882
X49.74 Y16.727
X49.761 Y16.581
X49.783 Y16.446
X49.806 Y16.322
X49.832 Y16.209
X49.858 Y16.107
X49.886 Y16.017
X49.914 Y15.938
X49.943 Y15.869
X49.975 Y15.802
X50.015 Y15.73
X50.064 Y15.651
X50.122 Y15.564
X50.19 Y15.471
X50.268 Y15.372
X50.354 Y15.267
X50.45 Y15.155
X50.554 Y15.038
X50.666 Y14.917
X50.757 Y14.819
X50.788 Y14.799
X51.004 Y14.658
X51.216 Y14.521
X51.424 Y14.389
X51.629 Y14.263
X51.831 Y14.143
X52.029 Y14.029
X52.223 Y13.922
X52.415 Y13.823
X52.605 Y13.731
X52.795 Y13.645
X52.99 Y13.564
X53.191 Y13.486
X53.399 Y13.411
X53.612 Y13.339
X53.831 Y13.27
X54.055 Y13.203
X54.286 Y13.138
X54.521 Y13.075
X54.761 Y13.014
X55.006 Y12.953
X55.256 Y12.893
X55.51 Y12.833
X55.743 Y12.778
X55.859 Y12.754
X56.003 Y12.724
X56.148 Y12.693
X56.297 Y12.66
X56.311 Y12.657
X56.45 Y12.626
X56.467 Y12.622
X56.605 Y12.589
X56.623 Y12.585
X56.761 Y12.551
X56.786 Y12.545
X56.923 Y12.509
X56.948 Y12.502
X57.085 Y12.465
X57.114 Y12.457
X57.249 Y12.417
X57.283 Y12.407
X57.418 Y12.365
X57.455 Y12.353
X57.589 Y12.308
X57.625 Y12.295
X57.758 Y12.248
X57.801 Y12.232
X57.932 Y12.182
X57.976 Y12.164
X58.106 Y12.11
X58.153 Y12.09
X58.282 Y12.033
X58.322 Y12.014
X58.449 Y11.954
X58.485 Y11.937
X58.611 Y11.874
X58.641 Y11.858
X58.767 Y11.793
X58.792 Y11.779
X58.917 Y11.712
X58.935 Y11.702
X59.059 Y11.633
X59.075 Y11.624
X59.198 Y11.554
X59.207 Y11.549
X59.331 Y11.478
X59.459 Y11.404
G2 X59.873 Y11.081 I-0.954 J-1.649
G1 X59.92 Y11.032
X59.972 Y10.978
X59.982 Y10.968
X60.029 Y10.918
X60.046 Y10.9
X60.092 Y10.85
X60.111 Y10.829
X60.156 Y10.779
X60.182 Y10.749
X60.225 Y10.699
X60.257 Y10.661
X60.299 Y10.61
X60.333 Y10.566
X60.374 Y10.514
X60.411 Y10.463
X60.45 Y10.409
X60.493 Y10.347
X60.529 Y10.292
X60.572 Y10.224
X60.605 Y10.168
X60.65 Y10.089
X60.681 Y10.032
X60.727 Y9.939
X60.754 Y9.88
X60.794 Y9.79
X60.818 Y9.73
X60.85 Y9.645
X60.872 Y9.584
X60.898 Y9.505
X60.917 Y9.442
X60.936 Y9.372
X60.953 Y9.309
X60.967 Y9.251
X60.982 Y9.186
X60.993 Y9.135
X61.006 Y9.069
X61.015 Y9.025
X61.026 Y8.958
X61.031 Y8.928
X61.042 Y8.862
X61.046 Y8.835
X61.056 Y8.768
X61.058 Y8.751
X61.067 Y8.683
X61.077 Y8.607
G2 Y8.116 I-1.889 J-0.246
G1 X61.068 Y8.046
X61.058 Y7.967
X61.056 Y7.953
X61.046 Y7.883
X61.042 Y7.855
X61.031 Y7.786
X61.025 Y7.751
X61.013 Y7.682
X61.005 Y7.639
X60.991 Y7.571
X60.981 Y7.521
X60.965 Y7.454
X60.949 Y7.39
X60.932 Y7.324
X60.913 Y7.256
X60.893 Y7.191
X60.867 Y7.112
X60.844 Y7.048
X60.811 Y6.96
X60.785 Y6.898
X60.743 Y6.803
X60.715 Y6.742
X60.669 Y6.652
X60.637 Y6.593
X60.588 Y6.509
X60.553 Y6.452
X60.508 Y6.381
X60.47 Y6.324
X60.426 Y6.262
X60.386 Y6.207
X60.347 Y6.155
X60.304 Y6.101
X60.267 Y6.055
X60.223 Y6.002
X60.19 Y5.964
X60.144 Y5.912
X60.119 Y5.884
X60.071 Y5.832
X60.049 Y5.809
X60.001 Y5.758
X59.985 Y5.741
X59.936 Y5.69
X59.924 Y5.679
X59.874 Y5.628
X59.818 Y5.572
G2 X59.499 Y5.315 I-1.348 J1.346
G1 X59.421 Y5.265
X59.338 Y5.212
X59.326 Y5.204
X59.248 Y5.156
X59.228 Y5.143
X59.15 Y5.096
X59.124 Y5.081
X59.046 Y5.034
X59.012 Y5.015
X58.933 Y4.971
X58.893 Y4.949
X58.813 Y4.906
X58.765 Y4.882
X58.685 Y4.842
X58.627 Y4.815
X58.546 Y4.778
X58.48 Y4.75
X58.397 Y4.716
X58.324 Y4.688
X58.241 Y4.658
X58.16 Y4.631
X58.075 Y4.604
X57.999 Y4.582
X57.913 Y4.559
X57.842 Y4.542
X57.755 Y4.522
X57.691 Y4.509
X57.603 Y4.492
X57.545 Y4.482
X57.456 Y4.468
X57.405 Y4.46
X57.316 Y4.449
X57.271 Y4.443
X57.181 Y4.434
X57.143 Y4.43
X57.052 Y4.422
X57.021 Y4.419
X56.929 Y4.413
X56.904 Y4.411
X56.813 Y4.406
X56.794 Y4.405
X56.702 Y4.401
X56.689 Y4.4
X56.597 Y4.396
X56.499 Y4.393
X56.389 Y4.392
X56.28 Y4.397
X56.148 Y4.407
X56.007 Y4.418
X55.991 Y4.42
X55.86 Y4.432
X55.835 Y4.434
X55.704 Y4.448
X55.671 Y4.451
X55.541 Y4.467
X55.499 Y4.473
X55.37 Y4.491
X55.32 Y4.499
X55.193 Y4.521
X55.133 Y4.532
X55.007 Y4.557
X54.938 Y4.573
X54.815 Y4.603
X54.737 Y4.624
X54.616 Y4.658
X54.53 Y4.686
X54.411 Y4.726
X54.315 Y4.761
X54.2 Y4.808
X54.099 Y4.851
X53.986 Y4.904
X53.889 Y4.954
X53.779 Y5.013
X53.693 Y5.063
X53.586 Y5.128
X53.511 Y5.176
X53.407 Y5.247
X53.343 Y5.292
X53.241 Y5.367
X53.189 Y5.407
X53.088 Y5.487
X53.044 Y5.523
X52.945 Y5.606
X52.91 Y5.637
X52.812 Y5.723
X52.786 Y5.747
X52.689 Y5.836
X52.67 Y5.854
X52.574 Y5.944
X52.56 Y5.957
X52.465 Y6.049
X52.364 Y6.147
G2 X52.061 Y6.528 I1.328 J1.366
G1 X52.01 Y6.612
X51.958 Y6.701
X51.951 Y6.711
X51.901 Y6.796
X51.892 Y6.811
X51.843 Y6.896
X51.833 Y6.914
X51.784 Y6.999
X51.77 Y7.025
X51.724 Y7.11
X51.707 Y7.141
X51.662 Y7.228
X51.643 Y7.264
X51.6 Y7.352
X51.58 Y7.393
X51.539 Y7.481
X51.518 Y7.529
X51.48 Y7.618
X51.458 Y7.67
X51.453 Y7.682
X51.446 Y7.7 Z-0.601 F333.3
X49.352 Y7.569 Z-0.674
X49.367 Y7.53 Z-0.675
X49.423 Y7.393 Z-0.681
X49.485 Y7.261 Z-0.686
X49.555 Y7.127 Z-0.691
X49.634 Y6.988 Z-0.697
X49.686 Y6.903 Z-0.7
X49.722 Y6.845 F1000
X49.82 Y6.698
X49.926 Y6.546
X50.041 Y6.389
X50.164 Y6.227
X50.294 Y6.062
X50.43 Y5.892
X50.529 Y5.771
X50.793 Y5.604
X51.044 Y5.449
X51.288 Y5.302
X51.526 Y5.165
X51.758 Y5.039
X51.983 Y4.924
X52.202 Y4.821
X52.415 Y4.731
X52.623 Y4.653
X52.831 Y4.586
X53.048 Y4.526
X53.274 Y4.474
X53.51 Y4.429
X53.756 Y4.391
X54.011 Y4.358
X54.276 Y4.332
X54.549 Y4.311
X54.83 Y4.296
X55.119 Y4.284
X55.416 Y4.276
X55.72 Y4.27
X56.031 Y4.266
X56.316 Y4.264
X56.489 Y4.268
X56.69 Y4.273
X56.887 Y4.279
X57.081 Y4.286
X57.27 Y4.295
X57.455 Y4.305
X57.636 Y4.316
X57.813 Y4.33
X57.985 Y4.347
X58.153 Y4.365
X58.317 Y4.387
X58.476 Y4.412
X58.631 Y4.439
X58.786 Y4.471
X58.944 Y4.507
X59.106 Y4.548
X59.271 Y4.593
X59.441 Y4.642
X59.614 Y4.695
X59.792 Y4.751
X59.973 Y4.81
X60.158 Y4.872
X60.347 Y4.936
X60.409 Y4.957
X60.43 Y4.968
X60.57 Y5.04
X60.703 Y5.11
X60.831 Y5.179
X60.953 Y5.246
X61.069 Y5.312
X61.178 Y5.377
X61.28 Y5.44
X61.375 Y5.503
X61.463 Y5.564
X61.544 Y5.624
X61.619 Y5.684
X61.691 Y5.745
X61.763 Y5.812
X61.839 Y5.885
X61.916 Y5.965
X61.997 Y6.053
X62.079 Y6.146
X62.165 Y6.246
X62.252 Y6.353
X62.343 Y6.465
X62.436 Y6.583
X62.532 Y6.706
X62.545 Y6.722
X62.552 Y6.735
X62.625 Y6.866
X62.694 Y6.992
X62.759 Y7.113
X62.82 Y7.23
X62.877 Y7.343
X62.929 Y7.45
X62.975 Y7.552
X63.017 Y7.65
X63.053 Y7.743
X63.084 Y7.829
X63.111 Y7.913
X63.135 Y7.998
X63.157 Y8.087
X63.177 Y8.184
X63.196 Y8.289
X63.214 Y8.4
X63.23 Y8.518
X63.244 Y8.641
X63.257 Y8.773
X63.27 Y8.91
X63.281 Y9.054
X63.292 Y9.203
X63.295 Y9.234
X63.287 Y9.36
X63.279 Y9.477
X63.27 Y9.588
X63.261 Y9.695
X63.251 Y9.795
X63.24 Y9.889
X63.228 Y9.978
X63.215 Y10.059
X63.201 Y10.135
X63.185 Y10.205
X63.169 Y10.269
X63.152 Y10.331
X63.13 Y10.398
X63.105 Y10.47
X63.076 Y10.545
X63.043 Y10.625
X63.005 Y10.711
X62.964 Y10.803
X62.919 Y10.898
X62.87 Y10.999
X62.818 Y11.104
X62.78 Y11.18
X62.713 Y11.269
X62.634 Y11.372
X62.559 Y11.469
X62.485 Y11.561
X62.415 Y11.646
X62.347 Y11.726
X62.282 Y11.799
X62.22 Y11.865
X62.16 Y11.926
X62.103 Y11.98
X62.045 Y12.031
X61.983 Y12.082
X61.915 Y12.135
X61.841 Y12.19
X61.76 Y12.246
X61.674 Y12.303
X61.582 Y12.362
X61.484 Y12.422
X61.38 Y12.484
X61.271 Y12.548
X61.157 Y12.613
X61.039 Y12.68
X61.017 Y12.692
X60.892 Y12.743
X60.66 Y12.837
X60.432 Y12.93
X60.205 Y13.02
X59.98 Y13.108
X59.758 Y13.194
X59.537 Y13.276
X59.319 Y13.355
X59.102 Y13.43
X58.887 Y13.502
X58.67 Y13.571
X58.451 Y13.637
X58.23 Y13.701
X58.005 Y13.763
X57.778 Y13.823
X57.549 Y13.882
X57.317 Y13.939
X57.082 Y13.995
X56.845 Y14.05
X56.605 Y14.105
X56.364 Y14.159
X56.121 Y14.212
X55.875 Y14.266
X55.646 Y14.315
X55.575 Y14.329
X55.479 Y14.348
X55.381 Y14.367
X55.371 Y14.369
X55.28 Y14.388
X55.267 Y14.391
X55.176 Y14.41
X55.159 Y14.414
X55.068 Y14.434
X55.049 Y14.439
X54.959 Y14.46
X54.935 Y14.465
X54.846 Y14.487
X54.818 Y14.494
X54.729 Y14.518
X54.699 Y14.526
X54.61 Y14.551
X54.577 Y14.561
X54.488 Y14.587
X54.452 Y14.598
X54.364 Y14.627
X54.324 Y14.64
X54.237 Y14.67
X54.196 Y14.685
X54.11 Y14.717
X54.064 Y14.735
X53.979 Y14.769
X53.931 Y14.789
X53.847 Y14.826
X53.805 Y14.845
X53.721 Y14.883
X53.686 Y14.9
X53.603 Y14.941
X53.571 Y14.957
X53.489 Y14.999
X53.462 Y15.013
X53.38 Y15.056
X53.362 Y15.066
X53.281 Y15.11
X53.265 Y15.119
X53.184 Y15.164
X53.174 Y15.17
X53.093 Y15.216
X53.008 Y15.264
G2 X52.632 Y15.546 I0.943 J1.655
G1 X52.601 Y15.576
X52.565 Y15.61
X52.552 Y15.623
X52.522 Y15.653
X52.508 Y15.666
X52.478 Y15.697
X52.454 Y15.722
X52.424 Y15.752
X52.398 Y15.78
X52.369 Y15.811
X52.339 Y15.846
X52.311 Y15.877
X52.273 Y15.922
X52.247 Y15.954
X52.207 Y16.004
X52.182 Y16.037
X52.139 Y16.094
X52.115 Y16.128
X52.066 Y16.202
X52.044 Y16.236
X51.995 Y16.316
X51.975 Y16.352
X51.926 Y16.442
X51.908 Y16.478
X51.864 Y16.571
X51.848 Y16.609
X51.81 Y16.7
X51.796 Y16.738
X51.768 Y16.816
X51.756 Y16.855
X51.733 Y16.929
X51.722 Y16.968
X51.705 Y17.032
X51.695 Y17.072
X51.682 Y17.125
X51.674 Y17.166
X51.665 Y17.209
X51.657 Y17.25
X51.65 Y17.289
X51.642 Y17.331
X51.639 Y17.354
X51.632 Y17.396
X51.629 Y17.415
X51.623 Y17.457
X51.616 Y17.504
G2 X51.609 Y18.004 I1.885 J0.276
G1 X51.615 Y18.058
X51.616 Y18.069
X51.623 Y18.123
X51.625 Y18.137
X51.632 Y18.191
X51.636 Y18.218
X51.643 Y18.271
X51.648 Y18.304
X51.657 Y18.357
X51.665 Y18.403
X51.675 Y18.455
X51.686 Y18.507
X51.697 Y18.559
X51.711 Y18.62
X51.724 Y18.671
X51.744 Y18.744
X51.759 Y18.794
X51.783 Y18.871
X51.8 Y18.92
X51.833 Y19.011
X51.852 Y19.059
X51.893 Y19.152
X51.914 Y19.199
X51.962 Y19.295
X51.986 Y19.341
X52.035 Y19.427
X52.061 Y19.471
X52.111 Y19.549
X52.14 Y19.593
X52.185 Y19.657
X52.216 Y19.7
X52.257 Y19.754
X52.29 Y19.796
X52.326 Y19.841
X52.36 Y19.881
X52.396 Y19.922
X52.431 Y19.963
X52.459 Y19.993
X52.495 Y20.032
X52.518 Y20.056
X52.555 Y20.096
X52.571 Y20.112
X52.609 Y20.151
X52.623 Y20.165
X52.662 Y20.203
X52.706 Y20.247
G2 X53.064 Y20.526 I1.342 J-1.352
G1 X53.126 Y20.564
X53.135 Y20.569
X53.197 Y20.606
X53.209 Y20.613
X53.272 Y20.65
X53.291 Y20.661
X53.354 Y20.697
X53.38 Y20.712
X53.443 Y20.746
X53.476 Y20.764
X53.539 Y20.797
X53.58 Y20.818
X53.644 Y20.85
X53.692 Y20.872
X53.757 Y20.902
X53.815 Y20.928
X53.881 Y20.955
X53.943 Y20.98
X54.009 Y21.005
X54.083 Y21.031
X54.15 Y21.053
X54.214 Y21.074
X54.065 Y21.053
X53.904 Y21.027
X53.744 Y20.997
X53.582 Y20.963
X53.417 Y20.925
X53.247 Y20.882
X53.073 Y20.835
X52.895 Y20.784
X52.714 Y20.73
X52.529 Y20.673
X52.339 Y20.613
X52.145 Y20.551
X52.082 Y20.53
X51.954 Y20.466
X51.835 Y20.406
X51.721 Y20.347
X51.613 Y20.289
X51.511 Y20.233
X51.416 Y20.179
X51.327 Y20.125
X51.244 Y20.073
X51.168 Y20.022
X51.099 Y19.972
X51.036 Y19.924
X50.977 Y19.876
X50.917 Y19.823
X50.855 Y19.764
X50.789 Y19.699
X50.721 Y19.627
X50.649 Y19.549
X50.575 Y19.464
X50.498 Y19.373
X50.417 Y19.276
X50.334 Y19.173
X50.252 Y19.071
X50.203 Y18.983
X50.146 Y18.882
X50.094 Y18.785
X50.045 Y18.692
X50 Y18.605
X49.96 Y18.522
X49.924 Y18.444
X49.893 Y18.371
X49.865 Y18.304
X49.843 Y18.242
X49.824 Y18.183
X49.807 Y18.125
X49.791 Y18.063
X49.776 Y17.993
X49.761 Y17.917
X49.747 Y17.834
X49.735 Y17.744
X49.723 Y17.647
X49.712 Y17.545
X49.701 Y17.435
X49.691 Y17.32
X49.684 Y17.237
X49.686 Y17.221
X49.703 Y17.047
X49.721 Y16.882
X49.74 Y16.727
X49.761 Y16.581
X49.783 Y16.446
X49.806 Y16.322
X49.832 Y16.209
X49.858 Y16.107
X49.886 Y16.017
X49.914 Y15.938
X49.943 Y15.869
X49.975 Y15.802
X50.015 Y15.73
X50.064 Y15.651
X50.122 Y15.564
X50.19 Y15.471
X50.268 Y15.372
X50.354 Y15.267
X50.45 Y15.155
X50.554 Y15.038
X50.666 Y14.917
X50.757 Y14.819
X50.788 Y14.799
X51.004 Y14.658
X51.216 Y14.521
X51.424 Y14.389
X51.629 Y14.263
X51.831 Y14.143
X52.029 Y14.029
X52.223 Y13.922
X52.415 Y13.823
X52.605 Y13.731
X52.795 Y13.645
X52.99 Y13.564
X53.191 Y13.486
X53.399 Y13.411
X53.612 Y13.339
X53.831 Y13.27
X54.055 Y13.203
X54.286 Y13.138
X54.521 Y13.075
X54.761 Y13.014
X55.006 Y12.953
X55.256 Y12.893
X55.51 Y12.833
X55.743 Y12.778
X55.859 Y12.754
X56.003 Y12.724
X56.148 Y12.693
X56.297 Y12.66
X56.311 Y12.657
X56.45 Y12.626
X56.467 Y12.622
X56.605 Y12.589
X56.623 Y12.585
X56.761 Y12.551
X56.786 Y12.545
X56.923 Y12.509
X56.948 Y12.502
X57.085 Y12.465
X57.114 Y12.457
X57.249 Y12.417
X57.283 Y12.407
X57.418 Y12.365
X57.455 Y12.353
X57.589 Y12.308
X57.625 Y12.295
X57.758 Y12.248
X57.801 Y12.232
X57.932 Y12.182
X57.976 Y12.164
X58.106 Y12.11
X58.153 Y12.09
X58.282 Y12.033
X58.322 Y12.014
X58.449 Y11.954
X58.485 Y11.937
X58.611 Y11.874
X58.641 Y11.858
X58.767 Y11.793
X58.792 Y11.779
X58.917 Y11.712
X58.935 Y11.702
X59.059 Y11.633
X59.075 Y11.624
X59.198 Y11.554
X59.207 Y11.549
X59.331 Y11.478
X59.459 Y11.404
G2 X59.873 Y11.081 I-0.954 J-1.649
G1 X59.92 Y11.032
X59.972 Y10.978
X59.982 Y10.968
X60.029 Y10.918
X60.046 Y10.9
X60.092 Y10.85
X60.111 Y10.829
X60.156 Y10.779
X60.182 Y10.749
X60.225 Y10.699
X60.257 Y10.661
X60.299 Y10.61
X60.333 Y10.566
X60.374 Y10.514
X60.411 Y10.463
X60.45 Y10.409
X60.493 Y10.347
X60.529 Y10.292
X60.572 Y10.224
X60.605 Y10.168
X60.65 Y10.089
X60.681 Y10.032
X60.727 Y9.939
X60.754 Y9.88
X60.794 Y9.79
X60.818 Y9.73
X60.85 Y9.645
X60.872 Y9.584
X60.898 Y9.505
X60.917 Y9.442
X60.936 Y9.372
X60.953 Y9.309
X60.967 Y9.251
X60.982 Y9.186
X60.993 Y9.135
X61.006 Y9.069
X61.015 Y9.025
X61.026 Y8.958
X61.031 Y8.928
X61.042 Y8.862
X61.046 Y8.835
X61.056 Y8.768
X61.058 Y8.751
X61.067 Y8.683
X61.077 Y8.607
G2 Y8.116 I-1.889 J-0.246
G1 X61.068 Y8.046
X61.058 Y7.967
X61.056 Y7.953
X61.046 Y7.883
X61.042 Y7.855
X61.031 Y7.786
X61.025 Y7.751
X61.013 Y7.682
X61.005 Y7.639
X60.991 Y7.571
X60.981 Y7.521
X60.965 Y7.454
X60.949 Y7.39
X60.932 Y7.324
X60.913 Y7.256
X60.893 Y7.191
X60.867 Y7.112
X60.844 Y7.048
X60.811 Y6.96
X60.785 Y6.898
X60.743 Y6.803
X60.715 Y6.742
X60.669 Y6.652
X60.637 Y6.593
X60.588 Y6.509
X60.553 Y6.452
X60.508 Y6.381
X60.47 Y6.324
X60.426 Y6.262
X60.386 Y6.207
X60.347 Y6.155
X60.304 Y6.101
X60.267 Y6.055
X60.223 Y6.002
X60.19 Y5.964
X60.144 Y5.912
X60.119 Y5.884
X60.071 Y5.832
X60.049 Y5.809
X60.001 Y5.758
X59.985 Y5.741
X59.936 Y5.69
X59.924 Y5.679
X59.874 Y5.628
X59.818 Y5.572
G2 X59.499 Y5.315 I-1.348 J1.346
G1 X59.421 Y5.265
X59.338 Y5.212
X59.326 Y5.204
X59.248 Y5.156
X59.228 Y5.143
X59.15 Y5.096
X59.124 Y5.081
X59.046 Y5.034
X59.012 Y5.015
X58.933 Y4.971
X58.893 Y4.949
X58.813 Y4.906
X58.765 Y4.882
X58.685 Y4.842
X58.627 Y4.815
X58.546 Y4.778
X58.48 Y4.75
X58.397 Y4.716
X58.324 Y4.688
X58.241 Y4.658
X58.16 Y4.631
X58.075 Y4.604
X57.999 Y4.582
X57.913 Y4.559
X57.842 Y4.542
X57.755 Y4.522
X57.691 Y4.509
X57.603 Y4.492
X57.545 Y4.482
X57.456 Y4.468
X57.405 Y4.46
X57.316 Y4.449
X57.271 Y4.443
X57.181 Y4.434
X57.143 Y4.43
X57.052 Y4.422
X57.021 Y4.419
X56.929 Y4.413
X56.904 Y4.411
X56.813 Y4.406
X56.794 Y4.405
X56.702 Y4.401
X56.689 Y4.4
X56.597 Y4.396
X56.499 Y4.393
X56.389 Y4.392
X56.28 Y4.397
X56.148 Y4.407
X56.007 Y4.418
X55.991 Y4.42
X55.86 Y4.432
X55.835 Y4.434
X55.704 Y4.448
X55.671 Y4.451
X55.541 Y4.467
X55.499 Y4.473
X55.37 Y4.491
X55.32 Y4.499
X55.193 Y4.521
X55.133 Y4.532
X55.007 Y4.557
X54.938 Y4.573
X54.815 Y4.603
X54.737 Y4.624
X54.616 Y4.658
X54.53 Y4.686
X54.411 Y4.726
X54.315 Y4.761
X54.2 Y4.808
X54.099 Y4.851
X53.986 Y4.904
X53.889 Y4.954
X53.779 Y5.013
X53.693 Y5.063
X53.586 Y5.128
X53.511 Y5.176
X53.407 Y5.247
X53.343 Y5.292
X53.241 Y5.367
X53.189 Y5.407
X53.088 Y5.487
X53.044 Y5.523
X52.945 Y5.606
X52.91 Y5.637
X52.812 Y5.723
X52.786 Y5.747
X52.689 Y5.836
X52.67 Y5.854
X52.574 Y5.944
X52.56 Y5.957
X52.465 Y6.049
X52.364 Y6.147
G2 X52.061 Y6.528 I1.328 J1.366
G1 X52.01 Y6.612
X51.958 Y6.701
X51.951 Y6.711
X51.901 Y6.796
X51.892 Y6.811
X51.843 Y6.896
X51.833 Y6.914
X51.784 Y6.999
X51.77 Y7.025
X51.724 Y7.11
X51.707 Y7.141
X51.662 Y7.228
X51.643 Y7.264
X51.6 Y7.352
X51.58 Y7.393
X51.539 Y7.481
X51.518 Y7.529
X51.48 Y7.618
X51.458 Y7.67
X51.446 Y7.7
X49.352 Y7.569
X49.367 Y7.53
X49.423 Y7.393
X49.485 Y7.261
X49.555 Y7.127
X49.634 Y6.988
X49.686 Y6.903
X49.722 Y6.845 Z-0.702 F333.3
X49.82 Y6.698 Z-0.709
X49.926 Y6.546 Z-0.715
X50.041 Y6.389 Z-0.722
X50.164 Y6.227 Z-0.729
X50.294 Y6.062 Z-0.736
X50.43 Y5.892 Z-0.744
X50.529 Y5.771 Z-0.749
X50.793 Y5.604 Z-0.76
X51.044 Y5.449 Z-0.771
X51.288 Y5.302 Z-0.78
X51.526 Y5.165 Z-0.79
X51.758 Y5.039 Z-0.799
X51.776 Y5.03 Z-0.8
X51.983 Y4.924 F1000
X52.202 Y4.821
X52.415 Y4.731
X52.623 Y4.653
X52.831 Y4.586
X53.048 Y4.526
X53.274 Y4.474
X53.51 Y4.429
X53.756 Y4.391
X54.011 Y4.358
X54.276 Y4.332
X54.549 Y4.311
X54.83 Y4.296
X55.119 Y4.284
X55.416 Y4.276
X55.72 Y4.27
X56.031 Y4.266
X56.316 Y4.264
X56.489 Y4.268
X56.69 Y4.273
X56.887 Y4.279
X57.081 Y4.286
X57.27 Y4.295
X57.455 Y4.305
X57.636 Y4.316
X57.813 Y4.33
X57.985 Y4.347
X58.153 Y4.365
X58.317 Y4.387
X58.476 Y4.412
X58.631 Y4.439
X58.786 Y4.471
X58.944 Y4.507
X59.106 Y4.548
X59.271 Y4.593
X59.441 Y4.642
X59.614 Y4.695
X59.792 Y4.751
X59.973 Y4.81
X60.158 Y4.872
X60.347 Y4.936
X60.409 Y4.957
X60.43 Y4.968
X60.57 Y5.04
X60.703 Y5.11
X60.831 Y5.179
X60.953 Y5.246
X61.069 Y5.312
X61.178 Y5.377
X61.28 Y5.44
X61.375 Y5.503
X61.463 Y5.564
X61.544 Y5.624
X61.619 Y5.684
X61.691 Y5.745
X61.763 Y5.812
X61.839 Y5.885
X61.916 Y5.965
X61.997 Y6.053
X62.079 Y6.146
X62.165 Y6.246
X62.252 Y6.353
X62.343 Y6.465
X62.436 Y6.583
X62.532 Y6.706
X62.545 Y6.722
X62.552 Y6.735
X62.625 Y6.866
X62.694 Y6.992
X62.759 Y7.113
X62.82 Y7.23
X62.877 Y7.343
X62.929 Y7.45
X62.975 Y7.552
X63.017 Y7.65
X63.053 Y7.743
X63.084 Y7.829
X63.111 Y7.913
X63.135 Y7.998
X63.157 Y8.087
X63.177 Y8.184
X63.196 Y8.289
X63.214 Y8.4
X63.23 Y8.518
X63.244 Y8.641
X63.257 Y8.773
X63.27 Y8.91
X63.281 Y9.054
X63.292 Y9.203
X63.295 Y9.234
X63.287 Y9.36
X63.279 Y9.477
X63.27 Y9.588
X63.261 Y9.695
X63.251 Y9.795
X63.24 Y9.889
X63.228 Y9.978
X63.215 Y10.059
X63.201 Y10.135
X63.185 Y10.205
X63.169 Y10.269
X63.152 Y10.331
X63.13 Y10.398
X63.105 Y10.47
X63.076 Y10.545
X63.043 Y10.625
X63.005 Y10.711
X62.964 Y10.803
X62.919 Y10.898
X62.87 Y10.999
X62.818 Y11.104
X62.78 Y11.18
X62.713 Y11.269
X62.634 Y11.372
X62.559 Y11.469
X62.485 Y11.561
X62.415 Y11.646
X62.347 Y11.726
X62.282 Y11.799
X62.22 Y11.865
X62.16 Y11.926
X62.103 Y11.98
X62.045 Y12.031
X61.983 Y12.082
X61.915 Y12.135
X61.841 Y12.19
X61.76 Y12.246
X61.674 Y12.303
X61.582 Y12.362
X61.484 Y12.422
X61.38 Y12.484
X61.271 Y12.548
X61.157 Y12.613
X61.039 Y12.68
X61.017 Y12.692
X60.892 Y12.743
X60.66 Y12.837
X60.432 Y12.93
X60.205 Y13.02
X59.98 Y13.108
X59.758 Y13.194
X59.537 Y13.276
X59.319 Y13.355
X59.102 Y13.43
X58.887 Y13.502
X58.67 Y13.571
X58.451 Y13.637
X58.23 Y13.701
X58.005 Y13.763
X57.778 Y13.823
X57.549 Y13.882
X57.317 Y13.939
X57.082 Y13.995
X56.845 Y14.05
X56.605 Y14.105
X56.364 Y14.159
X56.121 Y14.212
X55.875 Y14.266
X55.646 Y14.315
X55.575 Y14.329
X55.479 Y14.348
X55.381 Y14.367
X55.371 Y14.369
X55.28 Y14.388
X55.267 Y14.391
X55.176 Y14.41
X55.159 Y14.414
X55.068 Y14.434
X55.049 Y14.439
X54.959 Y14.46
X54.935 Y14.465
X54.846 Y14.487
X54.818 Y14.494
X54.729 Y14.518
X54.699 Y14.526
X54.61 Y14.551
X54.577 Y14.561
X54.488 Y14.587
X54.452 Y14.598
X54.364 Y14.627
X54.324 Y14.64
X54.237 Y14.67
X54.196 Y14.685
X54.11 Y14.717
X54.064 Y14.735
X53.979 Y14.769
X53.931 Y14.789
X53.847 Y14.826
X53.805 Y14.845
X53.721 Y14.883
X53.686 Y14.9
X53.603 Y14.941
X53.571 Y14.957
X53.489 Y14.999
X53.462 Y15.013
X53.38 Y15.056
X53.362 Y15.066
X53.281 Y15.11
X53.265 Y15.119
X53.184 Y15.164
X53.174 Y15.17
X53.093 Y15.216
X53.008 Y15.264
G2 X52.632 Y15.546 I0.943 J1.655
G1 X52.601 Y15.576
X52.565 Y15.61
X52.552 Y15.623
X52.522 Y15.653
X52.508 Y15.666
X52.478 Y15.697
X52.454 Y15.722
X52.424 Y15.752
X52.398 Y15.78
X52.369 Y15.811
X52.339 Y15.846
X52.311 Y15.877
X52.273 Y15.922
X52.247 Y15.954
X52.207 Y16.004
X52.182 Y16.037
X52.139 Y16.094
X52.115 Y16.128
X52.066 Y16.202
X52.044 Y16.236
X51.995 Y16.316
X51.975 Y16.352
X51.926 Y16.442
X51.908 Y16.478
X51.864 Y16.571
X51.848 Y16.609
X51.81 Y16.7
X51.796 Y16.738
X51.768 Y16.816
X51.756 Y16.855
X51.733 Y16.929
X51.722 Y16.968
X51.705 Y17.032
X51.695 Y17.072
X51.682 Y17.125
X51.674 Y17.166
X51.665 Y17.209
X51.657 Y17.25
X51.65 Y17.289
X51.642 Y17.331
X51.639 Y17.354
X51.632 Y17.396
X51.629 Y17.415
X51.623 Y17.457
X51.616 Y17.504
G2 X51.609 Y18.004 I1.885 J0.276
G1 X51.615 Y18.058
X51.616 Y18.069
X51.623 Y18.123
X51.625 Y18.137
X51.632 Y18.191
X51.636 Y18.218
X51.643 Y18.271
X51.648 Y18.304
X51.657 Y18.357
X51.665 Y18.403
X51.675 Y18.455
X51.686 Y18.507
X51.697 Y18.559
X51.711 Y18.62
X51.724 Y18.671
X51.744 Y18.744
X51.759 Y18.794
X51.783 Y18.871
X51.8 Y18.92
X51.833 Y19.011
X51.852 Y19.059
X51.893 Y19.152
X51.914 Y19.199
X51.962 Y19.295
X51.986 Y19.341
X52.035 Y19.427
X52.061 Y19.471
X52.111 Y19.549
X52.14 Y19.593
X52.185 Y19.657
X52.216 Y19.7
X52.257 Y19.754
X52.29 Y19.796
X52.326 Y19.841
X52.36 Y19.881
X52.396 Y19.922
X52.431 Y19.963
X52.459 Y19.993
X52.495 Y20.032
X52.518 Y20.056
